%
O0001 ( Hole Test - Spindle 1-Upper.NC )
(UPPER TURRET)
(Hole_Test_-_Spindle_1 [1].mcam)
(DATE:  WEDNESDAY, 06 MARCH 2024)
(=============================)
(-- MACHINE : CMZ TTL-52-52 T1Y-T2Y --)
(N10 T0404  NO. 5-40 TAPRH)

G00 G18 G40 G80 G99
G30 U0. V0.
G30 W0.
G50 S2000

N10
(OPERATION # 6)
G53 X0. Y0.
G53 Z0.
(T04  |   NO. 5-40 TAPRH  | DIA. -  0.125)
M80
G54
T0404 (  NO. 5-40 TAPRH )
M332
M303
G97 S2305 M83 P11
M51
G00 C0.
G00 C90.
M08
G19
G00 Z-.5055
X2.5 Y-.1749
G99
M329 H1.1279 S2305 T11 F.025
Z-.2561 M50
M329 H2.2559 S2305 T11 F.025
X1.1279 Y.1749
Z-.5055
M51
G00 C150.
M329 H1.1279 Y-.1749 S2305 T11 F.025
Z-.2561 M50
M329 H2.2559 S2305 T11 F.025
Y.1749
Z-.5055
M51
G00 C210.
M329 H1.1279 Y-.1749 S2305 T11 F.025
Z-.2561 M50
M329 H2.2559 S2305 T11 F.025
Y.1749
Z-.5055
M51
G00 C270.
M329 H1.1279 Y-.1749 S2305 T11 F.025
Z-.2561 M50
M329 H2.2559 S2305 T11 F.025
Y.1749
Z-.5055
M51
G00 C330.
M329 H1.1279 Y-.1749 S2305 T11 F.025
Z-.2561 M50
M329 H2.2559 S2305 T11 F.025
Y.1749
Z-.5055
M51
G00 C30.
M329 H1.1279 Y-.1749 S2305 T11 F.025
Z-.2561 M50
M329 H2.2559 S2305 T11 F.025
Y.1749
Z-.5055
M09
G00 G53 X0. Y0.
G53 Z0.
M85
M51
M81
M281
M30

