%
O0001 ( Tournage OP2-Lower.NC )
(LOWER TURRET)
(DATE:  WEDNESDAY, 03 APRIL 2024)
(=============================)
(-- MACHINE : CMZ TTL-52-52 T1Y-T2Y --)
(N10 T1212 RHOMBIC R0.8 20X20)
(N20 T0505  10. FLAT ENDMILL)
(N30 T0808 31.9 FRAISE ? CHANFREINER)
(N40 T1212 RHOMBIC R0.8 20X20)
(N50 T0606 10 FRAISE DROITE)
(N60 T0202 COPIER 47DEG 3601862 SVJNR 2020K-12F R0.4)
(N70 T0101 OUTIL GORGE & TRON? LARG 3. R.3)
(N80 T0303 OD CUTOFF RIGHT)
(N90 T0226 OD FINISH RIGHT - 35 DEG.)
(N100 T0327 OD FINISH RIGHT - 35 DEG.)

G00 G18 G40 G80 G99
G30 U0.
G53 Z220.


N90
(OPERATION # 9)
(PARK LOWER TURRET UNDER LEFT SPINDLE)
(T1111  |  EMPTY POCKET CALL)
G30 U0.
G53 Z220.
M81
T11000 (TURRET PARK - EMPTY TOOL STATION)
M331
M304
M01 (PARK LOWER TURRET - PARK LEFT SELECTED - CHECK FOR INTERFERENCE)
G00 G53 Z0

(OPERATION # 11)
(ALIGN SPINDLES [LOWER])
M900P123
M280
G00 C0. (POSITION RIGHT SPINDLE C-AXIS)
M281
M901P123
M902P123
M903P123

(OPERATION # 25)
(SEND LOWER TURRET HOME)
M904P123
G53 Z220
G53 X0.

N100
(OPERATION # 26)
G53 Z220
G53 X0.
(T0226  |  OD FINISH RIGHT - 35 DEG.  | INSERT -  VNMG-431)
G55
T0226 ( OD FINISH RIGHT - 35 DEG. )
M332
M304
G97 S1375 M203 P02
M18
G50 S1800
G00 Z21.9
X27.786
G96 S120 P02
G99 G01 X23.786 F.05
X7.306
G02 X6.7 Z21.597 R.303
G01 Z14.271
G03 X6.607 Z14.061 R.497
G01 X5.885 Z13.287
Z1.862
G03 X5.851 Z1.733 R.497
G01 X5.066 Z.268
G03 X4.106 Z-.1 R.497
G01 X-1.
X27.284 Z-14.242
M09
G00 G53 X0.
G53 Z220
M205
M01

N110
(OPERATION # 27)
G53 X0.
G53 Z220
(T0327  |  OD FINISH RIGHT - 35 DEG.  | INSERT -  VNMG-431)
G55
T0327 ( OD FINISH RIGHT - 35 DEG. )
M332
M304
G97 S1375 M203 P02
M18
G50 S2000
G00 Z21.95
X27.786
G96 S120 P02
G99 G01 X23.786 F.05
X7.306
G02 X6.5 Z21.547 R.403
G01 Z14.221
G03 X6.426 Z14.053 R.397
G01 X5.685 Z13.259
Z1.812
G03 X5.658 Z1.709 R.397
G01 X4.873 Z.244
G03 X4.106 Z-.05 R.397
G01 X-1.
X27.284 Z-14.192
M09
G00 G53 X0.
G53 Z220
M205
M905P123
M906P123
M30

