%
O0000 ( T )
 
(PROG-CN POUR HARTFORD LG1570)
( *********************************)
( *****INDICATIONS MASTERCAM ******)
( *********************************)
(DESSIN MASTERCAM - C:\USERS\VALENTIN\DOCUMENTS\MY MASTERCAM 2025\MASTERCAM\PARTS\T.MCAM)
 ( PROG-CN DU 13-12-24 A 08:14)
 
( ********************************* )
(***** LISTE DES OUTILS UTILISES ****)
#801=45 (SOLID CARBIDE DRILL 5XDC - 8.5)
( ********************************* )
 
M9
M5
 
N1
G49
G0 G53 Z0.
G69
G0 B0. C0.
M1
( T45. FORET D=8.5 A=140. SOLID CARBIDE DRILL 5xDc - 8.5 )
( SANS CORRECTION )
T#801 M6
T#801
G54
M3 S2108
G0 B63. C-22.5
G68.2 P1 X120.442 Y-49.889 Z-43.159 I63. J0. K67.5
G53.1
G0 X0. Y0.
G0 G43 H#1035 D#1035 Z125.
M9
G82 X0. Y0. Z-44.629 R10. P0 F278
G80
G0 Z125.
 
 
G49
G0 G53 Z0.
G69
M1
( SANS CORRECTION )
G0 B63. C-7.5
G68.2 P1 X129.251 Y-17.016 Z-43.159 I63. J0. K82.5
G53.1
G0 X0. Y0.
G0 G43 H#1035 D#1035 Z125.
Z125.
M9
G82 X0. Y0. Z-44.629 R10. P0 F278
G80
G0 Z125.
 
 
G49
G0 G53 Z0.
G69
M1
( SANS CORRECTION )
G0 B63. C7.5
G68.2 P1 X129.251 Y17.016 Z-43.159 I63. J0. K97.5
G53.1
G0 X0. Y0.
G0 G43 H#1035 D#1035 Z125.
Z125.
M9
G82 X0. Y0. Z-44.629 R10. P0 F278
G80
G0 Z125.
 
 
G49
G0 G53 Z0.
G69
M1
( SANS CORRECTION )
G0 B63. C22.5
G68.2 P1 X120.442 Y49.889 Z-43.159 I63. J0. K112.5
G53.1
G0 X0. Y0.
G0 G43 H#1035 D#1035 Z125.
Z125.
M9
G82 X0. Y0. Z-44.629 R10. P0 F278
G80
G0 Z125.
 
 
G49
G0 G53 Z0.
G69
M1
( SANS CORRECTION )
G0 B63. C37.5
G68.2 P1 X103.426 Y79.362 Z-43.159 I63. J0. K127.5
G53.1
G0 X0. Y0.
G0 G43 H#1035 D#1035 Z125.
Z125.
M9
G82 X0. Y0. Z-44.629 R10. P0 F278
G80
G0 Z125.
 
 
G49
G0 G53 Z0.
G69
M1
( SANS CORRECTION )
G0 B63. C52.5
G68.2 P1 X79.362 Y103.426 Z-43.159 I63. J0. K142.5
G53.1
G0 X0. Y0.
G0 G43 H#1035 D#1035 Z125.
Z125.
M9
G82 X0. Y0. Z-44.629 R10. P0 F278
G80
G0 Z125.
 
 
G49
G0 G53 Z0.
G69
M1
( SANS CORRECTION )
G0 B63. C67.5
G68.2 P1 X49.889 Y120.442 Z-43.159 I63. J0. K157.5
G53.1
G0 X0. Y0.
G0 G43 H#1035 D#1035 Z125.
Z125.
M9
G82 X0. Y0. Z-44.629 R10. P0 F278
G80
G0 Z125.
 
 
G49
G0 G53 Z0.
G69
M1
( SANS CORRECTION )
G0 B63. C82.5
G68.2 P1 X17.016 Y129.251 Z-43.159 I63. J0. K172.5
G53.1
G0 X0. Y0.
G0 G43 H#1035 D#1035 Z125.
Z125.
M9
G82 X0. Y0. Z-44.629 R10. P0 F278
G80
G0 Z125.
 
 
G49
G0 G53 Z0.
G69
M1
( SANS CORRECTION )
G0 B63. C97.5
G68.2 P1 X-17.016 Y129.251 Z-43.159 I63. J0. K-172.5
G53.1
G0 X0. Y0.
G0 G43 H#1035 D#1035 Z125.
Z125.
M9
G82 X0. Y0. Z-44.629 R10. P0 F278
G80
G0 Z125.
 
 
G49
G0 G53 Z0.
G69
M1
( SANS CORRECTION )
G0 B63. C112.5
G68.2 P1 X-49.889 Y120.442 Z-43.159 I63. J0. K-157.5
G53.1
G0 X0. Y0.
G0 G43 H#1035 D#1035 Z125.
Z125.
M9
G82 X0. Y0. Z-44.629 R10. P0 F278
G80
G0 Z125.
 
 
G49
G0 G53 Z0.
G69
M1
( SANS CORRECTION )
G0 B63. C127.5
G68.2 P1 X-79.362 Y103.426 Z-43.159 I63. J0. K-142.5
G53.1
G0 X0. Y0.
G0 G43 H#1035 D#1035 Z125.
Z125.
M9
G82 X0. Y0. Z-44.629 R10. P0 F278
G80
G0 Z125.
 
 
G49
G0 G53 Z0.
G69
M1
( SANS CORRECTION )
G0 B63. C142.5
G68.2 P1 X-103.426 Y79.362 Z-43.159 I63. J0. K-127.5
G53.1
G0 X0. Y0.
G0 G43 H#1035 D#1035 Z125.
Z125.
M9
G82 X0. Y0. Z-44.629 R10. P0 F278
G80
G0 Z125.
 
 
G49
G0 G53 Z0.
G69
M1
( SANS CORRECTION )
G0 B63. C157.5
G68.2 P1 X-120.442 Y49.889 Z-43.159 I63. J0. K-112.5
G53.1
G0 X0. Y0.
G0 G43 H#1035 D#1035 Z125.
Z125.
M9
G82 X0. Y0. Z-44.629 R10. P0 F278
G80
G0 Z125.
 
 
G49
G0 G53 Z0.
G69
M1
( SANS CORRECTION )
G0 B63. C172.5
G68.2 P1 X-129.251 Y17.016 Z-43.159 I63. J0. K-97.5
G53.1
G0 X0. Y0.
G0 G43 H#1035 D#1035 Z125.
Z125.
M9
G82 X0. Y0. Z-44.629 R10. P0 F278
G80
G0 Z125.
 
 
G49
G0 G53 Z0.
G69
M1
( SANS CORRECTION )
G0 B63. C187.5
G68.2 P1 X-129.251 Y-17.016 Z-43.159 I63. J0. K-82.5
G53.1
G0 X0. Y0.
G0 G43 H#1035 D#1035 Z125.
Z125.
M9
G82 X0. Y0. Z-44.629 R10. P0 F278
G80
G0 Z125.
 
 
G49
G0 G53 Z0.
G69
M1
( SANS CORRECTION )
G0 B63. C202.5
G68.2 P1 X-120.442 Y-49.889 Z-43.159 I63. J0. K-67.5
G53.1
G0 X0. Y0.
G0 G43 H#1035 D#1035 Z125.
Z125.
M9
G82 X0. Y0. Z-44.629 R10. P0 F278
G80
G0 Z125.
 
 
G49
G0 G53 Z0.
G69
M1
( SANS CORRECTION )
G0 B63. C217.5
G68.2 P1 X-103.426 Y-79.362 Z-43.159 I63. J0. K-52.5
G53.1
G0 X0. Y0.
G0 G43 H#1035 D#1035 Z125.
Z125.
M9
G82 X0. Y0. Z-44.629 R10. P0 F278
G80
G0 Z125.
 
 
G49
G0 G53 Z0.
G69
M1
( SANS CORRECTION )
G0 B63. C232.5
G68.2 P1 X-79.362 Y-103.426 Z-43.159 I63. J0. K-37.5
G53.1
G0 X0. Y0.
G0 G43 H#1035 D#1035 Z125.
Z125.
M9
G82 X0. Y0. Z-44.629 R10. P0 F278
G80
G0 Z125.
 
 
G49
G0 G53 Z0.
G69
M1
( SANS CORRECTION )
G0 B63. C247.5
G68.2 P1 X-49.889 Y-120.442 Z-43.159 I63. J0. K-22.5
G53.1
G0 X0. Y0.
G0 G43 H#1035 D#1035 Z125.
Z125.
M9
G82 X0. Y0. Z-44.629 R10. P0 F278
G80
G0 Z125.
 
 
G49
G0 G53 Z0.
G69
M1
( SANS CORRECTION )
G0 B63. C262.5
G68.2 P1 X-17.016 Y-129.251 Z-43.159 I63. J0. K-7.5
G53.1
G0 X0. Y0.
G0 G43 H#1035 D#1035 Z125.
Z125.
M9
G82 X0. Y0. Z-44.629 R10. P0 F278
G80
G0 Z125.
 
 
G49
G0 G53 Z0.
G69
M1
( SANS CORRECTION )
G0 B63. C277.5
G68.2 P1 X17.016 Y-129.251 Z-43.159 I63. J0. K7.5
G53.1
G0 X0. Y0.
G0 G43 H#1035 D#1035 Z125.
Z125.
M9
G82 X0. Y0. Z-44.629 R10. P0 F278
G80
G0 Z125.
 
 
G49
G0 G53 Z0.
G69
M1
( SANS CORRECTION )
G0 B63. C292.5
G68.2 P1 X49.889 Y-120.442 Z-43.159 I63. J0. K22.5
G53.1
G0 X0. Y0.
G0 G43 H#1035 D#1035 Z125.
Z125.
M9
G82 X0. Y0. Z-44.629 R10. P0 F278
G80
G0 Z125.
 
 
G49
G0 G53 Z0.
G69
M1
( SANS CORRECTION )
G0 B63. C307.5
G68.2 P1 X79.362 Y-103.426 Z-43.159 I63. J0. K37.5
G53.1
G0 X0. Y0.
G0 G43 H#1035 D#1035 Z125.
Z125.
M9
G82 X0. Y0. Z-44.629 R10. P0 F278
G80
G0 Z125.
 
 
G49
G0 G53 Z0.
G69
M1
( SANS CORRECTION )
G0 B63. C322.5
G68.2 P1 X103.426 Y-79.362 Z-43.159 I63. J0. K52.5
G53.1
G0 X0. Y0.
G0 G43 H#1035 D#1035 Z125.
Z125.
M9
G82 X0. Y0. Z-44.629 R10. P0 F278
G80
G0 Z125.
G49
G49
G0 G53 Z0.
G69
G0 B0. C0.
M30
