%
O0000(T)
(DATE=DD-MM-YY - 18-06-24 TIME=HH:MM - 14:55)
(MCAM FILE - T)
(NC FILE - C:\USERS\VALENTIN\DOCUMENTS\MY MASTERCAM 2025\MASTERCAM\MILL\NC\T.NC)
(MATERIAL - ALUMINUM MM - 2024)
( T218 | FLAT END MILL - 10 | H218 )
N100 G21
N110 G0 G17 G40 G49 G80 G90
N120 T218 M6
N130 G0 G90 G54 X16.46 Y50.364 A0. S10790 M3
N140 G43 H218 Z25.
N150 Z10.
N160 G1 Z0. F1000.
N170 Y40.364 F3060.
N180 G3 X26.46 Y30.364 I10. J0.
N190 G1 X52.919
N200 M01
N210 G2 X57.919 Y25.364 I0. J-5.
N220 G1 Y0.
N230 G2 X52.919 Y-5. I-5. J0.
N240 G1 X0.
N250 G2 X-5. Y0. I0. J5.
N260 G1 Y25.364
N270 G2 X0. Y30.364 I5. J0.
N280 G1 X26.46
N290 G3 X36.46 Y40.364 I0. J10.
N300 G1 Y50.364
N310 G0 Z25.
N320 M5
N330 G91 G28 Z0.
N340 G28 X0. Y0. A0.
N350 M30
%
