%
O0000 ( A SAUVER.NC )
(UPPER TURRET)
(Drilling cycles.mcam)
(DATE:  THURSDAY, 02 MAY 2024)
(=============================)
(-- MACHINE : CMZ TTL-52-52 T1Y-T2Y --)
(N10 T0101  6. DRILL)
(N20 T0202  6.00-1. TAP RH)
(N30 T0101  6. DRILL)
(N40 T0202  6.00-1. TAP RH)
(N50 T0101  6. DRILL)
(N60 T0202  6.00-1. TAP RH)
(N70 T0101  6. DRILL)
(N80 T0202  6.00-1. TAP RH)
(N90 T0101  6. DRILL)
(N100 T0202  6.00-1. TAP RH)
(N110 T0303  5. DRILL)
(N120 T0404  6.00-1. TAP RH)
(N130 T0303  5. DRILL)
(N140 T0404  6.00-1. TAP RH)

G00 G18 G40 G80 G99
G30 U0. V0.
G30 W0.
G50 S2000

N10
(OPERATION # 1)
G53 X0. Y0.
G53 Z220
(T01  |   6. DRILL  | DIA. -  5)
M80
G54
T0101 (  6. DRILL )
M331
M305
G97 S954 M83 P11
G00 C0.
G00 C0.
M50
M08
G18
G00 Z-20.
X90. Y0.
X52.
G98
G87 X34.996 R0. F57.24
C90.
C180.
C270.
G80 M51
G00 X90.

(OPERATION # 2)
C0.
M50
X52.
G87 X34.996 R0. Q10000 F57.24
C90. Q10000
C180. Q10000
C270. Q10000
G80 M51
G00 X90.

(OPERATION # 3)
C0.
M50
X52.
G89 X34.996 R0. F57.24
C90.
C180.
C270.
G80 M51
G00 X90.
M09
G53 X0. Y0.
G53 Z220
M85
M01

N20
(OPERATION # 4)
G53 X0. Y0.
G53 Z220
(T02  |   6.00-1. TAP RH  | DIA. -  6)
G54
T0202 (  6.00-1. TAP RH )
M331
M305
G97 G98
G00 H0.
G00 C0.
M50
M08
G18
G00 Z-20.
X90. Y0.
X52.
G98
G88 X38. R0. Q10000 F57.24 M50
C90.
C180.
C270.
G80 M51
G00 X90.

(OPERATION # 5)
S954 M83
C0.
M50
X52.
G99
M329 X19. Z-20. H19. R0. F1. S954 T11
C90.
M329 X38. Z-20. H19. R0. F1. S954 T11
C180.
M329 X38. Z-20. H19. R0. F1. S954 T11
C270.
M329 X38. Z-20. H19. R0. F1. S954 T11
M51
G00 X90.

(OPERATION # 6)
C0.
M50
X52.
G98
G384 X38. Z6. H6. R7. F1. S954 D57. T1 M50
G384 C90. M50
G384 C180. M50
G384 C270. M50
G80 M51
G00 X90. Z-20.
M09
G53 X0. Y0.
G53 Z220
M85
M01

N30
(OPERATION # 14)
G53 X0. Y0.
G53 Z220
(T01  |   6. DRILL  | DIA. -  5)
G54
T0101 (  6. DRILL )
M331
M305
G97 S954 M83 P11
G00 C0.
G00 C90.
M08
G19
G00 Z-11.25
X75. Y-8.75
X37.
G98
G87 X19.996 R0. F57.24 M50
Z-3.75
Y8.75
Z-11.25
G80 M51
G00 X75.

(OPERATION # 14)
Y-8.75
X37.
G87 X19.996 R0. Q10000 F57.24 M50
Z-3.75 Q10000
Y8.75 Q10000
Z-11.25 Q10000
G80 M51
G00 X75.

(OPERATION # 14)
Y-8.75
X37.
G89 X19.996 R0. F57.24 M50
Z-3.75
Y8.75
Z-11.25
G80 M51
G00 X75.
M09
G53 X0. Y0.
G53 Z220
M85
M01

N40
(OPERATION # 14)
G53 X0. Y0.
G53 Z220
(T02  |   6.00-1. TAP RH  | DIA. -  6)
G54
T0202 (  6.00-1. TAP RH )
M331
M305
G97 G98
G00 H0.
G00 C90.
M08
G19
G00 Z-11.25
X75. Y-8.75
X37.
G98
G88 X23. R0. Q10000 F954. M50
Z-3.75
Y8.75
Z-11.25
G80 M51
G00 X75.

(OPERATION # 14)
S954 M83
Y-8.75
X37.
G99
M329 X11.5 Z-11.25 H11.5 R0. F1. S954 T11
M329 X23. Z-3.75 H11.5 R0. F1. S954 T11
M329 X23. Z-3.75 H11.5 R0. F1. S954 T11
M329 X23. Z-11.25 H11.5 R0. F1. S954 T11
G00 X75. Y8.75

(OPERATION # 14)
Y-8.75
X37.
M29 S954
G88 X23. R0. F1. M50
Z-3.75
Y8.75
Z-11.25
G80 M51
G00 X75.

(OPERATION # 14)
Y-8.75
X37.
G98
G384 X23. Z6. H6. R7. F1. S954 D954. T1 M50
G384 M50
G384 Y8.75 M50
G384 M50
G80 M51
G00 X75. Z-11.25
M09
G53 X0. Y0.
G53 Z220
M85
M01

N50
(OPERATION # 14)
G53 X0. Y0.
G53 Z220
(T01  |   6. DRILL  | DIA. -  5)
G54
T0101 (  6. DRILL )
M331
M305
G97 S954 M83 P11
G00 C0.
G00 C180.
M08
G19
G00 Z-11.25
X75. Y-8.75
X37.
G98
G87 X19.996 R0. F57.24 M50
Z-3.75
Y8.75
Z-11.25
G80 M51
G00 X75.

(OPERATION # 14)
Y-8.75
X37.
G87 X19.996 R0. Q10000 F57.24 M50
Z-3.75 Q10000
Y8.75 Q10000
Z-11.25 Q10000
G80 M51
G00 X75.

(OPERATION # 14)
Y-8.75
X37.
G89 X19.996 R0. F57.24 M50
Z-3.75
Y8.75
Z-11.25
G80 M51
G00 X75.
M09
G53 X0. Y0.
G53 Z220
M85
M01

N60
(OPERATION # 14)
G53 X0. Y0.
G53 Z220
(T02  |   6.00-1. TAP RH  | DIA. -  6)
G54
T0202 (  6.00-1. TAP RH )
M331
M305
G97 G98
G00 H0.
G00 C180.
M08
G19
G00 Z-11.25
X75. Y-8.75
X37.
G98
G88 X23. R0. Q10000 F954. M50
Z-3.75
Y8.75
Z-11.25
G80 M51
G00 X75.

(OPERATION # 14)
S954 M83
Y-8.75
X37.
G99
M329 X11.5 Z-11.25 H11.5 R0. F1. S954 T11
M329 X23. Z-3.75 H11.5 R0. F1. S954 T11
M329 X23. Z-3.75 H11.5 R0. F1. S954 T11
M329 X23. Z-11.25 H11.5 R0. F1. S954 T11
G00 X75. Y8.75

(OPERATION # 14)
Y-8.75
X37.
M29 S954
G88 X23. R0. F1. M50
Z-3.75
Y8.75
Z-11.25
G80 M51
G00 X75.

(OPERATION # 14)
Y-8.75
X37.
G98
G384 X23. Z6. H6. R7. F1. S954 D954. T1 M50
G384 M50
G384 Y8.75 M50
G384 M50
G80 M51
G00 X75. Z-11.25
M09
G53 X0. Y0.
G53 Z220
M85
M01

N70
(OPERATION # 14)
G53 X0. Y0.
G53 Z220
(T01  |   6. DRILL  | DIA. -  5)
G54
T0101 (  6. DRILL )
M331
M305
G97 S954 M83 P11
G00 C0.
G00 C270.
M08
G19
G00 Z-11.25
X75. Y-8.75
X37.
G98
G87 X19.996 R0. F57.24 M50
Z-3.75
Y8.75
Z-11.25
G80 M51
G00 X75.

(OPERATION # 14)
Y-8.75
X37.
G87 X19.996 R0. Q10000 F57.24 M50
Z-3.75 Q10000
Y8.75 Q10000
Z-11.25 Q10000
G80 M51
G00 X75.

(OPERATION # 14)
Y-8.75
X37.
G89 X19.996 R0. F57.24 M50
Z-3.75
Y8.75
Z-11.25
G80 M51
G00 X75.
M09
G53 X0. Y0.
G53 Z220
M85
M01

N80
(OPERATION # 14)
G53 X0. Y0.
G53 Z220
(T02  |   6.00-1. TAP RH  | DIA. -  6)
G54
T0202 (  6.00-1. TAP RH )
M331
M305
G97 G98
G00 H0.
G00 C270.
M08
G19
G00 Z-11.25
X75. Y-8.75
X37.
G98
G88 X23. R0. Q10000 F954. M50
Z-3.75
Y8.75
Z-11.25
G80 M51
G00 X75.

(OPERATION # 14)
S954 M83
Y-8.75
X37.
G99
M329 X11.5 Z-11.25 H11.5 R0. F1. S954 T11
M329 X23. Z-3.75 H11.5 R0. F1. S954 T11
M329 X23. Z-3.75 H11.5 R0. F1. S954 T11
M329 X23. Z-11.25 H11.5 R0. F1. S954 T11
G00 X75. Y8.75

(OPERATION # 14)
Y-8.75
X37.
M29 S954
G88 X23. R0. F1. M50
Z-3.75
Y8.75
Z-11.25
G80 M51
G00 X75.

(OPERATION # 14)
Y-8.75
X37.
G98
G384 X23. Z6. H6. R7. F1. S954 D954. T1 M50
G384 M50
G384 Y8.75 M50
G384 M50
G80 M51
G00 X75. Z-11.25
M09
G53 X0. Y0.
G53 Z220
M85
M01

N90
(OPERATION # 14)
G53 X0. Y0.
G53 Z220
(T01  |   6. DRILL  | DIA. -  5)
G54
T0101 (  6. DRILL )
M331
M305
G97 S954 M83 P11
G00 C0.
G00 C0.
M08
G19
G00 Z-11.25
X75. Y-8.75
X37.
G98
G87 X19.996 R0. F57.24 M50
Z-3.75
Y8.75
Z-11.25
G80 M51
G00 X75.

(OPERATION # 14)
Y-8.75
X37.
G87 X19.996 R0. Q10000 F57.24 M50
Z-3.75 Q10000
Y8.75 Q10000
Z-11.25 Q10000
G80 M51
G00 X75.

(OPERATION # 14)
Y-8.75
X37.
G89 X19.996 R0. F57.24 M50
Z-3.75
Y8.75
Z-11.25
G80 M51
G00 X75.
M09
G53 X0. Y0.
G53 Z220
M85
M01

N100
(OPERATION # 14)
G53 X0. Y0.
G53 Z220
(T02  |   6.00-1. TAP RH  | DIA. -  6)
G54
T0202 (  6.00-1. TAP RH )
M331
M305
G97 G98
G00 H0.
G00 C0.
M08
G19
G00 Z-11.25
X75. Y-8.75
X37.
G98
G88 X23. R0. Q10000 F954. M50
Z-3.75
Y8.75
Z-11.25
G80 M51
G00 X75.

(OPERATION # 14)
S954 M83
Y-8.75
X37.
G99
M329 X11.5 Z-11.25 H11.5 R0. F1. S954 T11
M329 X23. Z-3.75 H11.5 R0. F1. S954 T11
M329 X23. Z-3.75 H11.5 R0. F1. S954 T11
M329 X23. Z-11.25 H11.5 R0. F1. S954 T11
G00 X75. Y8.75

(OPERATION # 14)
Y-8.75
X37.
M29 S954
G88 X23. R0. F1. M50
Z-3.75
Y8.75
Z-11.25
G80 M51
G00 X75.

(OPERATION # 14)
Y-8.75
X37.
G98
G384 X23. Z6. H6. R7. F1. S954 D954. T1 M50
G384 M50
G384 Y8.75 M50
G384 M50
G80 M51
G00 X75. Z-11.25
M09
G53 X0. Y0.
G53 Z220
M85
M01

N110
(OPERATION # 15)
G53 X0. Y0.
G53 Z220
(T03  |   5. DRILL  | DIA. -  5)
G54
T0303 (  5. DRILL )
M331
M305
G97 S1145 M83 P11
G00 C0.
G00 C330.
M50
M08
G17
G00 Z20.
X17.5 Y0.
Z1.
G98
G83 Z-7.502 R0. F68.7
C210.
C90.
G80 M51
G00 Z20.

(OPERATION # 16)
C330.
M50
Z1.
G83 X17.5 Z-7.502 R0. Q10000 F68.7
C210. Q10000
C90. Q10000
G80 M51
G00 Z20.

(OPERATION # 17)
C330.
M50
Z1.
G85 Z-7.502 R0. F68.7
C210.
C90.
G80 M51
G00 Z20.
M09
G53 X0. Y0.
G53 Z220
M85
M01

N120
(OPERATION # 18)
G53 X0. Y0.
G53 Z220
(T04  |   6.00-1. TAP RH  | DIA. -  6)
G54
T0404 (  6.00-1. TAP RH )
M331
M305
G97 G98
G00 H0.
G00 C330.
M50
M08
G17
G00 Z20.
X17.5 Y0.
Z1.
G98
G84 Z-6. R0. Q10000 F68.7 M50
C210.
C90.
G80 M51
G00 Z20.

(OPERATION # 19)
S1145 M83
C330.
M50
Z1.
G99
M329 X8.75 Z-6. H-6. R0. F1. S1145 T12
C210.
M329 X17.5 Z-6. H-6. R0. F1. S1145 T12
C90.
M329 X17.5 Z-6. H-6. R0. F1. S1145 T12
M51
G00 Z20.

(OPERATION # 20)
C330.
M50
Z1.
M29 S1145
G84 Z-6. R0. F.06
C210.
C90.
G80 M51
G00 Z20.

(OPERATION # 21)
C330.
M50
Z1.
G98
G384 Z6. H6. R7. F1. S1145 D68. T2 M50
G384 C210. M50
G384 C90. M50
G80 M51
G00 Z20.
M09
G53 X0. Y0.
G53 Z220
M85
M01

N130
(OPERATION # 22)
G53 X0. Y0.
G53 Z220
(T03  |   5. DRILL  | DIA. -  5)
G54
T0303 (  5. DRILL )
M331
M305
G97 S1145 M83 P11
G00 C0.
G00 C0.
M08
G17
G00 Z20.
X15.155 Y-4.375
Z1.
G98
G83 Z-7.502 R0. F68.7 M50
X-15.155
X0. Y8.75
G80 M51
G00 Z20.

(OPERATION # 23)
X15.155 Y-4.375
Z1.
G83 X15.155 Z-7.502 R0. Q10000 F68.7 M50
X-15.155 Q10000
X0. Y8.75 Q10000
G80 M51
G00 Z20.

(OPERATION # 24)
X15.155 Y-4.375
Z1.
G85 Z-7.502 R0. F68.7 M50
X-15.155
X0. Y8.75
G80 M51
G00 Z20.
M09
G53 X0. Y0.
G53 Z220
M85
M01

N140
(OPERATION # 25)
G53 X0. Y0.
G53 Z220
(T04  |   6.00-1. TAP RH  | DIA. -  6)
G54
T0404 (  6.00-1. TAP RH )
M331
M305
G97 G98
G00 H0.
G00 C0.
M08
G17
G00 Z20.
X15.155 Y-4.375
Z1.
G98
G84 Z-6. R0. Q10000 F954. M50
X-15.155
X0. Y8.75
G80 M51
G00 Z20.

(OPERATION # 26)
S954 M83
X15.155 Y-4.375
Z1.
G99
M329 X7.578 Z-6. H-6. R0. F1. S954 T12
M329 X-15.155 Z-6. H-6. R0. F1. S954 T12
M329 X0. Z-6. H-6. R0. F1. S954 T12
G00 Y8.75 Z20.

(OPERATION # 27)
X15.155 Y-4.375
Z1.
M29 S954
G84 Z-6. R0. F1. M50
X-15.155
X0. Y8.75
G80 M51
G00 Z20.

(OPERATION # 28)
X15.155 Y-4.375
Z1.
G98
G384 Z6. H6. R7. F1. S954 D954. T2 M50
G384 X-15.155 M50
G384 X0. Y8.75 M50
G80 M51
G00 Z20.
M09
G53 X0. Y0.
G53 Z220
M85
M81
M281
M30


