%
O0000 ( T.NC )
(UPPER TURRET)
(DATE:  FRIDAY, 21 JUNE 2024)
(Mastercam file Holes Test TA.mcam)
(Programmer name - )
(T0101 |  5. DRILL |  DIA - 5)
(T0202 |  6.00-1. TAP RH |  DIA - 6)
(T0303 |  5. DRILL |  DIA - 5)
(T0404 |  6.00-1. TAP RH |  DIA - 6)

G00 G18 G40 G80 G99
G28 U0. V0.
G28 W0.

N1
(OPERATION # 1)
G00 G28 U0. V0.
G28 W0.
(T0101 |  5. DRILL |  DIA. -  5)
M80 ( MILLING MODE - MAIN SPINDLE)
G54
T0101 (  5. DRILL )
G00 G28 W0.
M101
G97 S2673 M83
M51
G28 H0.
G00 C90.
M289 (SPINDLE BRAKE ON FOR CANNED CYCLE DRILLING)
M08
G00 G18 Z-31.75
X60.8 Y0.
G98
G87 X25.4 R-3. F534.6 M50
C150. M50
C210. M50
C270. M50
C330. M50
C30. M50
G80
M51

(OPERATION # 2)
M51
G00 C90.
M289 (SPINDLE BRAKE ON FOR CANNED CYCLE DRILLING)
X60.8
G87 X25.4 R-3. Q1500 F534.6 M50
C150. Q1500 M50
C210. Q1500 M50
C270. Q1500 M50
C330. Q1500 M50
C30. Q1500 M50
G80
M51
M09
G00 G28 U0. V0.
G28 W0.
T0100
M85
M01

N2
(OPERATION # 3)
G00 G28 U0. V0.
G28 W0.
(T0202 |  6.00-1. TAP RH |  DIA. -  6)
M80 ( MILLING MODE - MAIN SPINDLE)
G54
T0202 (  6.00-1. TAP RH )
G00 G28 W0.
M101
G97 S400 M83
M51
G28 H0.
G00 C90.
M289 (SPINDLE BRAKE ON FOR CANNED CYCLE DRILLING)
M08
G00 G18 Z-31.75
X60.8 Y0.
G98
G88 X25.4 R-3. P1000 F400. M50
C150. M50
C210. M50
C270. M50
C330. M50
C30. M50
G80
M51

(OPERATION # 4)
M51
G00 C90.
M289 (SPINDLE BRAKE ON FOR CANNED CYCLE DRILLING)
X60.8
G99
M329 H12.7 X12.7 S400 T11. F1. R-3. R-3.
M329 H12.7 X25.4 S400 T11. F1. R-3. R-3.
M329 H12.7 S400 T11. F1. R-3. R-3.
M329 H12.7 S400 T11. F1. R-3. R-3.
M329 H12.7 S400 T11. F1. R-3. R-3.
M329 H12.7 S400 T11. F1. R-3. R-3.
G80
M51

(OPERATION # 5)
M51
G00 C90.
M289 (SPINDLE BRAKE ON FOR CANNED CYCLE DRILLING)
X60.8
M329 H25. T11 R-3. P1000 F1. M50
X25.4 C150. M50
C210. M50
C270. M50
C330. M50
C30. M50
G80
M85
M51

(OPERATION # 6)
S400 M83
M51
G00 C90.
M289 (SPINDLE BRAKE ON FOR CANNED CYCLE DRILLING)
X60.8
G98
G384 X25.4 Z12.7 H12.7 R14. F1. S400 D400. T1. M50
P1000 F1.
G384 C150. M50
G384 C210. M50
G384 C270. M50
G384 C330. M50
G384 C30. M50
G380
M51
M09
G00 G28 U0. V0.
G28 W0.
T0200
M85
M01

N3
(OPERATION # 7)
G00 G28 U0. V0.
G28 W0.
(T0101 |  5. DRILL |  DIA. -  5)
M80 ( MILLING MODE - MAIN SPINDLE)
G54
T0101 (  5. DRILL )
G00 G28 W0.
M101
G97 S2673 M83
M51
G28 H0.
G00 C90.
M50
M08
G00 G19 Z-6.506
X64.525 Y4.443
G98
G87 X28.65 R-8. F534.6
Z-12.84
Y-4.443
Z-6.506
G80
M51
G00 C30.
M50
G87 X28.65 Y4.443 R-8. F534.6
Z-12.84
Y-4.443
Z-6.506
G80
M51
G00 C330.
M50
G87 X28.65 Y4.443 R-8. F534.6
Z-12.84
Y-4.443
Z-6.506
G80
M51
G00 C270.
M50
G87 X28.65 Y4.443 R-8. F534.6
Z-12.84
Y-4.443
Z-6.506
G80
M51
G00 C210.001
M50
G87 X28.65 Y4.443 R-8. F534.6
Z-12.84
Y-4.443
Z-6.506
G80
M51
G00 C150.
M50
G87 X28.65 Y4.443 R-8. F534.6
Z-12.84
Y-4.443
Z-6.506
G80

(OPERATION # 8)
M51
G00 C90.
M50
X64.525 Y4.443
G87 X28.65 R-8. Q1500 F534.6
Z-12.84 Q1500
Y-4.443 Q1500
Z-6.506 Q1500
G80
M51
G00 C30.
M50
G87 X28.65 Y4.443 R-8. Q1500 F534.6
Z-12.84 Q1500
Y-4.443 Q1500
Z-6.506 Q1500
G80
M51
G00 C330.
M50
G87 X28.65 Y4.443 R-8. Q1500 F534.6
Z-12.84 Q1500
Y-4.443 Q1500
Z-6.506 Q1500
G80
M51
G00 C270.
M50
G87 X28.65 Y4.443 R-8. Q1500 F534.6
Z-12.84 Q1500
Y-4.443 Q1500
Z-6.506 Q1500
G80
M51
G00 C210.001
M50
G87 X28.65 Y4.443 R-8. Q1500 F534.6
Z-12.84 Q1500
Y-4.443 Q1500
Z-6.506 Q1500
G80
M51
G00 C150.
M50
G87 X28.65 Y4.443 R-8. Q1500 F534.6
Z-12.84 Q1500
Y-4.443 Q1500
Z-6.506 Q1500
G80
M09
G00 G28 U0. V0.
G28 W0.
T0100
M85
M01

N4
(OPERATION # 9)
G00 G28 U0. V0.
G28 W0.
(T0202 |  6.00-1. TAP RH |  DIA. -  6)
M80 ( MILLING MODE - MAIN SPINDLE)
G54
T0202 (  6.00-1. TAP RH )
G00 G28 W0.
M101
G97 S400 M83
M51
G28 H0.
G00 C90.
M50
M08
G00 G19 Z-6.506
X64.525 Y4.443
G98
G88 X28.65 R-8. F400.
Z-12.84
Y-4.443
Z-6.506
G80
M51
G00 C30.
M50
G88 X28.65 Y4.443 R-8. F400.
Z-12.84
Y-4.443
Z-6.506
G80
M51
G00 C330.
M50
G88 X28.65 Y4.443 R-8. F400.
Z-12.84
Y-4.443
Z-6.506
G80
M51
G00 C270.
M50
G88 X28.65 Y4.443 R-8. F400.
Z-12.84
Y-4.443
Z-6.506
G80
M51
G00 C210.001
M50
G88 X28.65 Y4.443 R-8. F400.
Z-12.84
Y-4.443
Z-6.506
G80
M51
G00 C150.
M50
G88 X28.65 Y4.443 R-8. F400.
Z-12.84
Y-4.443
Z-6.506
G80

(OPERATION # 10)
M51
G00 C90.
M50
X64.525 Y4.443
G99
M329 H14.325 X14.325 S400 T11. F1. R-8. R-8.
M329 H14.325 X28.65 Z-12.84 S400 T11. F1. R-8. R-8.
M329 H14.325 S400 T11. F1. R-8. R-8.
M329 H14.325 Z-6.506 S400 T11. F1. R-8. R-8.
G80
M51
G00 C30.
M50
M329 H14.325 X14.325 S400 T11. F1. R-8. R-8.
M329 H14.325 X28.65 Z-12.84 S400 T11. F1. R-8. R-8.
M329 H14.325 S400 T11. F1. R-8. R-8.
M329 H14.325 Z-6.506 S400 T11. F1. R-8. R-8.
G80
M51
G00 C330.
M50
M329 H14.325 X14.325 S400 T11. F1. R-8. R-8.
M329 H14.325 X28.65 Z-12.84 S400 T11. F1. R-8. R-8.
M329 H14.325 S400 T11. F1. R-8. R-8.
M329 H14.325 Z-6.506 S400 T11. F1. R-8. R-8.
G80
M51
G00 C270.
M50
M329 H14.325 X14.325 S400 T11. F1. R-8. R-8.
M329 H14.325 X28.65 Z-12.84 S400 T11. F1. R-8. R-8.
M329 H14.325 S400 T11. F1. R-8. R-8.
M329 H14.325 Z-6.506 S400 T11. F1. R-8. R-8.
G80
M51
G00 C210.001
M50
M329 H14.325 X14.325 S400 T11. F1. R-8. R-8.
M329 H14.325 X28.65 Z-12.84 S400 T11. F1. R-8. R-8.
M329 H14.325 S400 T11. F1. R-8. R-8.
M329 H14.325 Z-6.506 S400 T11. F1. R-8. R-8.
G80
M51
G00 C150.
M50
M329 H14.325 X14.325 S400 T11. F1. R-8. R-8.
M329 H14.325 X28.65 Z-12.84 S400 T11. F1. R-8. R-8.
M329 H14.325 S400 T11. F1. R-8. R-8.
M329 H14.325 Z-6.506 S400 T11. F1. R-8. R-8.
G80

(OPERATION # 11)
M51
G00 C90.
M50
X64.525
M329 H28. T11 R-8. F1.
X28.65 Z-12.84
Y-4.443
Z-6.506
G80
M85
M51
G00 C30.
M50
176
M329 H28. Y4.443 S400 T11 R-8. F1.
X28.65 Z-12.84
Y-4.443
Z-6.506
G80
M51
G00 C330.
M50
M329 H28. Y4.443 S400 T11 R-8. F1.
X28.65 Z-12.84
Y-4.443
Z-6.506
G80
M51
G00 C270.
M50
M329 H28. Y4.443 S400 T11 R-8. F1.
X28.65 Z-12.84
Y-4.443
Z-6.506
G80
M51
G00 C210.001
M50
M329 H28. Y4.443 S400 T11 R-8. F1.
X28.65 Z-12.84
Y-4.443
Z-6.506
G80
M51
G00 C150.
M50
M329 H28. Y4.443 S400 T11 R-8. F1.
X28.65 Z-12.84
Y-4.443
Z-6.506
G80

(OPERATION # 12)
S400 M83
M51
G00 C90.
M50
X64.525 Y4.443
G98
G384 X28.65 Z7.938 H15.875 R2. F1. S400 D400. T1. M50
G384 M50
G384 Y-4.443 M50
G384 M50
G380
M51
G00 C30.
M50
G384 X28.65 Y4.443 Z7.937 H15.875 R1. F1. S400 D400. T1. M50
G384 M50
G384 Y-4.443 Z7.938 M50
G384 M50
G380
M51
G00 C330.
M50
G384 X28.65 Y4.443 H15.875 R2. F1. S400 D400. T1. M50
G384 Z7.937 M50
G384 Y-4.443 Z7.938 M50
G384 M50
G380
M51
G00 C270.
M50
G384 X28.65 Y4.443 H15.875 R2. F1. S400 D400. T1. M50
G384 M50
G384 Y-4.443 M50
G384 M50
G380
M51
G00 C210.001
M50
G384 X28.65 Y4.443 H15.875 R2. F1. S400 D400. T1. M50
G384 M50
G384 Y-4.443 M50
G384 M50
G380
M51
G00 C150.
M50
G384 X28.65 Y4.443 H15.875 R2. F1. S400 D400. T1. M50
G384 M50
G384 Y-4.443 M50
G384 M50
G380
M09
G00 G28 U0. V0.
G28 W0.
T0200
M85
M01

N5
(OPERATION # 13)
G00 G28 U0. V0.
G28 W0.
(T0303 |  5. DRILL |  DIA. -  5)
M80 ( MILLING MODE - MAIN SPINDLE)
G54
T0303 (  5. DRILL )
G00 G28 W0.
M101
G97 S2673 M83
M51
G28 H0.
G00 C120.
M289 (SPINDLE BRAKE ON FOR CANNED CYCLE DRILLING)
M08
G00 G17 Z10.
X27.817 Y0.
Z2.
G98
G83 Z-12.7 R0. F534.6 M50
C60. M50
C0. M50
C300. M50
C240. M50
C180. M50
G80
M51
G00 Z10.

(OPERATION # 14)
M51
C120.
M289 (SPINDLE BRAKE ON FOR CANNED CYCLE DRILLING)
Z2.
G83 Z-12.7 R0. Q1000 F534.6 M50
C60. Q1000 M50
C0. Q1000 M50
C300. Q1000 M50
C240. Q1000 M50
C180. Q1000 M50
G80
M51
G00 Z10.
M09
G00 G28 U0. V0.
G28 W0.
T0300
M85
M01

N6
(OPERATION # 15)
G00 G28 U0. V0.
G28 W0.
(T0404 |  6.00-1. TAP RH |  DIA. -  6)
M80 ( MILLING MODE - MAIN SPINDLE)
G54
T0404 (  6.00-1. TAP RH )
G00 G28 W0.
M101
G97 S954 M83
M51
G28 H0.
G00 C120.
M289 (SPINDLE BRAKE ON FOR CANNED CYCLE DRILLING)
M08
G00 G17 Z10.
X27.817 Y0.
Z2.
G98
G84 Z-12.7 R0. Q1000 F954. M50
C60. Q1000 M50
C0. Q1000 M50
C300. Q1000 M50
C240. Q1000 M50
C180. Q1000 M50
G80
M51
G00 Z10.

(OPERATION # 16)
M51
C120.
M289 (SPINDLE BRAKE ON FOR CANNED CYCLE DRILLING)
Z2.
G99
M329 X13.908 Z-12.7 H-12.7 R0. F1. S954 T12.
M329 X27.817 Z-12.7 H-12.7 R0. F1. S954 T12.
M329 X27.817 Z-12.7 H-12.7 R0. F1. S954 T12.
M329 X27.817 Z-12.7 H-12.7 R0. F1. S954 T12.
M329 X27.817 Z-12.7 H-12.7 R0. F1. S954 T12.
M329 X27.817 Z-12.7 H-12.7 R0. F1. S954 T12.
G80
M51
G00 Z10. C180.

(OPERATION # 17)
M51
C120.
M289 (SPINDLE BRAKE ON FOR CANNED CYCLE DRILLING)
Z2.
177
M329 H27. Z-12.7 T12 R0. Q1000 F1. M50
C60. M50
C0. M50
C300. M50
C240. M50
C180. M50
G80
M85
M51
G00 Z10.

(OPERATION # 18)
S954 M83
M51
C120.
M289 (SPINDLE BRAKE ON FOR CANNED CYCLE DRILLING)
Z2.
G98
G384 Z12.7 H12.7 R14. F1. S954 D954. T2. M50
G384 C60. M50
G384 C0. M50
G384 C300. M50
G384 C240. M50
G384 C180. M50
G380
M51
G00 Z10.
M09
G00 G28 U0. V0.
G28 W0.
T0400
M85
M01

N7
(OPERATION # 19)
G00 G28 U0. V0.
G28 W0.
(T0303 |  5. DRILL |  DIA. -  5)
M80 ( MILLING MODE - MAIN SPINDLE)
G54
T0303 (  5. DRILL )
G00 G28 W0.
M101
G97 S2673 M83
M51
G28 H0.
G00 C0.
M50
M08
G00 G17 Z10.
X-13.908 Y12.045
Z2.
G98
G83 Z-12.7 R0. F534.6
X13.908
X27.817 Y0.
X13.908 Y-12.045
X-13.908
X-27.817 Y0.
G80
G00 Z10.

(OPERATION # 20)
X-13.908 Y12.045
Z2.
G83 Z-12.7 R0. Q1000 F534.6
X13.908 Q1000
X27.817 Y0. Q1000
X13.908 Y-12.045 Q1000
X-13.908 Q1000
X-27.817 Y0. Q1000
G80
G00 Z10.
M09
G00 G28 U0. V0.
G28 W0.
T0300
M85
M01

N8
(OPERATION # 21)
G00 G28 U0. V0.
G28 W0.
(T0404 |  6.00-1. TAP RH |  DIA. -  6)
M80 ( MILLING MODE - MAIN SPINDLE)
G54
T0404 (  6.00-1. TAP RH )
G00 G28 W0.
M101
G97 S954 M83
M51
G28 H0.
G00 C0.
M50
M08
G00 G17 Z10.
X-13.908 Y12.045
Z2.
G98
G84 Z-12.7 R0. Q1000 F954.
X13.908 Q1000
X27.817 Y0. Q1000
X13.908 Y-12.045 Q1000
X-13.908 Q1000
X-27.817 Y0. Q1000
G80
G00 Z10.

(OPERATION # 22)
X-13.908 Y12.045
Z2.
G99
M329 X-6.954 Z-12.7 H-12.7 R0. F1. S954 T12.
M329 X13.908 Z-12.7 H-12.7 R0. F1. S954 T12.
M329 X27.817 Z-12.7 H-12.7 R0. F1. S954 T12.
M329 X13.908 Z-12.7 H-12.7 R0. F1. S954 T12.
M329 X-13.908 Z-12.7 H-12.7 R0. F1. S954 T12.
M329 X-27.817 Z-12.7 H-12.7 R0. F1. S954 T12.
G80
G00 Y0. Z10.

(OPERATION # 23)
X-13.908 Y12.045
Z2.
M329 H-13. Z-12.7 T12 R0. Q1000 F1.
X13.908
X27.817 Y0.
X13.908 Y-12.045
X-13.908
X-27.817 Y0.
G80
M85
G00 Z10.

(OPERATION # 24)
S954 M83
X-13.908 Y12.045
Z2.
G98
G384 Z12.7 H12.7 R14. F1. S954 D954. T2. M50
G384 X13.908 M50
G384 X27.817 Y0. M50
G384 X13.908 Y-12.045 M50
G384 X-13.908 M50
G384 X-27.817 Y0. M50
G380
G00 Z10.
M09
G00 G28 U0. V0.
G28 W0.
T0400
M85
M51
M30
%

