%
O0000 ( T-Upper.NC )
(UPPER TURRET)
(T)
(DATE:  TUESDAY, 02 APRIL 2024)
(=============================)
(-- MACHINE : CMZ TTL-52-52 T1Y-T2Y --)
(N10 T0101 OD CUTOFF RIGHT)

G00 G18 G40 G80 G99
G30 U0. V0.
G53 Z220.

G50 S2000

N10
(OPERATION # 2)
(PRE-POSITION CUTOFF TOOL)
G53 X0. Y0.
G53 Z220
M901P123
M902P123
(T0101  |  OD CUTOFF RIGHT  | INSERT -  NONE)
M81
G54
T0101 ( OD CUTOFF RIGHT )
G00 G53 Z220
M331
M303
G50 S4500
G00 Z-113.936
X250.

(OPERATION # 3)
(ALIGN SPINDLES)
M900P123
M80
G00 C0. (POSITION LEFT SPINDLE C-AXIS)
M81

(OPERATION # 5)
(SYNCHRONIZE SPINDLES)
G97 S100 M03 P11
M34
M903P123

(OPERATION # 10)
(CUT OFF THE PART)
M904P123
G97 S1326 M03 P01
G96 S200 M03 P01
X48.
G99 G01 X44. F.05
X-1.36
X2.64
G00 X44.
X250.

(OPERATION # 11)
(CANCEL SPINDLE SYNC)
M36 (CANCEL SPINDLE SYNC)
M05 M09
M905P123

(OPERATION # 13)
(SEND UPPER TURRET HOME)
M906P123
G53 Z220
G53 X0. Y0.
M907P123
M281
M30

