%

O0000
(HEAD 1)
(TEST FICAM.MCAM)
(DMG MORI SEIKI NT MILL TURN MACHINE)
(DATE:  WEDNESDAY, 21 FEBRUARY 2024  - TIME:  14:47)
(JOB NUMBER - )
(PROGRAMMER - )
(T1012 : OUTIL TOUR 3D-1 : INSERT -  PLAQUETTE)
M200 (CHIP CONVEYOR START)
G0 G18 G40 G80 G99
G21
G49
G0 G28 U0. V0.
G28 W0.
G53 B0.

N100
(OPERATION # 4)
G10.9 X1
(T1012 : OUTIL TOUR 3D-1 :  INSERT -  PLAQUETTE)
M46 (TURNING MODE - MAIN SPINDLE)
G0 G28 U0. V0.
G28 W0.
G53 B0.
M303 (MAIN SPINDLE SELECTED)
T1012
G361 B-90. D1
G49 H1. B-90." ToolLengthOffset.Force 0
G54
G18
G50 S1000
G96 S300 M03
G99
G0 Y0. Z22.165
X104.64
M69
M369
M594
G0 B1.
G49
G43.4 D9
G05.1 Q1
Z-21.26
G99 G1 X100.64 Z-22.76 F.2
X100.322 Z-22.534
X99.977 Z-22.251
X99.969 Z-22.244
X99.851 Z-22.135
X99.64 Z-21.921
X99.627 Z-21.906
X99.374 Z-21.6
X99.368 Z-21.591
X99.272 Z-21.455
X99.117 Z-21.198
X99. Z-20.953
X98.993 Z-20.937
X98.988 Z-20.924
X98.919 Z-20.737
X98.874 Z-20.583
X98.872 Z-20.573
X98.814 Z-20.252
X98.8 Z-20.004
Z-20.003
Z-20.
Z-19.522
Z-19.044
Z-18.631
Z-18.217
Z-17.804
Z-17.334
Z-16.864
Z-16.394
Z-15.924
Z-15.454
Z-14.984
Z-14.543
Z-14.514
Z-14.513 B0.999
Z-14.5 B0.976
X98.796 Z-14.247 B0.558
X98.783 Z-13.995 B0.14
X98.761 Z-13.742 B-0.278
X98.731 Z-13.49 B-0.696
X98.695 Z-13.247 B-1.097
X98.692 Z-13.231 B-1.124
X98.689 Z-13.216 B-1.15
X98.646 Z-12.986 B-1.535
X98.599 Z-12.771 B-1.895
X98.549 Z-12.57 B-2.232
X98.546 Z-12.557 B-2.255
X98.544 Z-12.552 B-2.262
X98.526 Z-12.484 B-2.377
X98.457 Z-12.247 B-2.776
X98.453 Z-12.231 B-2.803
X98.37 Z-11.978 B-3.231
X98.298 Z-11.775 B-3.574
X98.291 Z-11.757 B-3.604
X98.185 Z-11.488 B-4.063
X98.157 Z-11.423 B-4.173
X98.068 Z-11.217 B-4.525
X97.972 Z-11.012 B-4.876
X97.896 Z-10.857 B-5.141
X97.821 Z-10.712 B-5.39
X97.816 Z-10.703 B-5.407
X97.809 Z-10.69 B-5.428
X97.709 Z-10.505 B-5.748
X97.688 Z-10.467 B-5.813
X97.686 Z-10.465 B-5.818
X97.679 Z-10.452 B-5.839
X97.572 Z-10.267 B-6.16
X97.459 Z-10.08 B-6.486
X97.341 Z-9.894 B-6.811
X97.223 Z-9.717 B-7.122
X97.101 Z-9.541 B-7.433
X97.076 Z-9.505 B-7.497
X96.971 Z-9.36 B-7.754
X96.87 Z-9.225 B-7.994
X96.863 Z-9.216 B-8.011
X96.852 Z-9.202 B-8.035
X96.692 Z-8.995 B-8.405
X96.557 Z-8.828 B-8.704
X96.427 Z-8.673 B-8.985
X96.418 Z-8.663 B-9.004
X96.414 Z-8.659 B-9.011
X96.364 Z-8.6 B-9.118
X96.204 Z-8.418 B-9.449
X96.042 Z-8.24 B-9.775
X95.876 Z-8.063 B-10.1
X95.741 Z-7.925 B-10.357
X95.612 Z-7.795 B-10.598
X95.604 Z-7.787 B-10.614
X95.597 Z-7.78 B-10.626
X95.501 Z-7.686 B-10.803
X95.387 Z-7.576 B-11.008
X95.223 Z-7.422 B-11.3
X95.066 Z-7.278 B-11.573
X95.055 Z-7.269 B-11.591
X94.761 Z-7.01 B-12.088
X94.746 Z-6.997 B-12.113
X94.516 Z-6.803 B-12.489
X94.379 Z-6.691 B-12.707
X94.37 Z-6.684 B-12.721
X94.064 Z-6.44 B-13.201
X94.048 Z-6.428 B-13.226
X93.805 Z-6.242 B-13.595
X93.615 Z-6.102 B-13.878
X93.435 Z-5.971 B-14.143
X93.422 Z-5.962 B-14.16
B-14.161
X93.413 Z-5.955 B-14.174
X93.228 Z-5.825 B-14.441
X93.04 Z-5.695 B-14.708
X92.813 Z-5.542 B-15.025
X92.597 Z-5.4 B-15.322
X92.582 Z-5.391 B-15.342
X92.239 Z-5.173 B-15.805
X92.236 Z-5.171 B-15.808
X92.198 Z-5.147 B-15.859
X91.953 Z-4.997 B-16.182
X91.735 Z-4.867 B-16.464
X91.515 Z-4.739 B-16.747
X91.277 Z-4.604 B-17.047
X91.052 Z-4.478 B-17.328
X91.037 Z-4.47 B-17.347
X91.027 Z-4.464 B-17.359
X90.876 Z-4.382 B-17.544
X90.567 Z-4.218 B-17.921
X90.546 Z-4.207 B-17.946
X90.159 Z-4.008 B-18.409
X89.853 Z-3.856 B-18.768
X89.828 Z-3.844 B-18.797
X89.454 Z-3.664 B-19.229
X89.378 Z-3.628 B-19.316
X89.091 Z-3.496 B-19.642
X88.801 Z-3.365 B-19.967
X88.538 Z-3.25 B-20.259
X88.29 Z-3.143 B-20.532
X88.273 Z-3.136 B-20.55
X88.252 Z-3.127 B-20.573
X87.937 Z-2.996 B-20.915
X87.867 Z-2.967 B-20.99
X87.863 Z-2.965 B-20.995
X87.842 Z-2.956 B-21.018
X87.526 Z-2.829 B-21.355
X87.268 Z-2.728 B-21.629
X87.007 Z-2.628 B-21.903
X86.672 Z-2.503 B-22.251
X86.334 Z-2.38 B-22.6
X86.328 Z-2.378 B-22.605
X86.06 Z-2.283 B-22.88
X85.806 Z-2.195 B-23.137
X85.789 Z-2.19 B-23.154
X85.345 Z-2.041 B-23.599
X84.999 Z-1.93 B-23.942
X84.978 Z-1.923 B-23.963
X84.65 Z-1.82 B-24.285
X84.423 Z-1.751 B-24.507
X84.052 Z-1.64 B-24.867
X83.678 Z-1.533 B-25.226
X83.391 Z-1.453 B-25.501
X83.12 Z-1.379 B-25.757
X83.102 Z-1.374 B-25.775
X83.089 Z-1.37 B-25.787
X82.895 Z-1.319 B-25.97
X82.68 Z-1.263 B-26.172
X82.665 Z-1.259 B-26.186
X82.642 Z-1.253 B-26.207
X82.299 Z-1.166 B-26.528
X81.967 Z-1.084 B-26.837
X81.632 Z-1.005 B-27.145
X81.354 Z-.941 B-27.4
X81.075 Z-.878 B-27.655
X80.864 Z-.832 B-27.847
X80.571 Z-.769 B-28.113
X80.295 Z-.712 B-28.362
X80.277 Z-.708 B-28.378
X80.248 Z-.702 B-28.404
X79.819 Z-.617 B-28.79
X79.51 Z-.557 B-29.065
X79.2 Z-.5 B-29.341
X79.149 Z-.491 B-29.386
X79.145 Z-.49 B-29.389
X79.118 Z-.485 B-29.414
X78.7 Z-.411 B-29.783
X78.32 Z-.347 B-30.117
X77.938 Z-.286 B-30.451
X77.634 Z-.239 B-30.717
X77.347 Z-.196 B-30.966
X77.328 Z-.194 B-30.982
X77.325 Z-.193 B-30.985
X77.278 Z-.186 B-31.026
X76.873 Z-.129 B-31.376
X76.526 Z-.083 B-31.676
X76.199 Z-.041 B-31.957
X76.177 Z-.039 B-31.976
X75.657 Z.023 B-32.421
X75.636 Z.026 B-32.439
X75.318 Z.061 B-32.711
X74.92 Z.103 B-33.05
X74.894 Z.106 B-33.072
X74.308 Z.162 B-33.569
X73.842 Z.202 B-33.963
X73.81 Z.205 B-33.99
X73.329 Z.242 B-34.396
X73.151 Z.255 B-34.545
X72.846 Z.275 B-34.802
X72.54 Z.294 B-35.059
X72.162 Z.316 B-35.376
X71.807 Z.334 B-35.673
X71.784 Z.335 B-35.693
X71.755 Z.336 B-35.717
X71.319 Z.355 B-36.081
X71.217 Z.359 B-36.167
X71.21 B-36.173
X71.181 Z.36 B-36.197
X70.738 Z.375 B-36.567
X70.4 Z.384 B-36.849
X70.061 Z.391 B-37.132
X69.732 Z.396 B-37.406
X69.424 Z.398 B-37.663
X69.403 Z.399 B-37.68
X69.397 B-37.686
X69.3 B-37.767
X68.981 Z.4 B-38.032
X68.683 Z.399 B-38.28
X68.663 B-38.297
X68.088 Z.393 B-38.776
X67.636 Z.384 B-39.153
X67.614 B-39.172
X67.278 Z.375 B-39.452
X66.979 Z.366 B-39.701
X66.61 Z.352 B-40.01
X66.242 Z.336 B-40.318
X65.884 Z.318 B-40.618
X65.549 Z.3 B-40.899
X65.526 Z.298 B-40.918
X65.51 Z.297 B-40.931
X65.265 Z.283 B-41.137
X64.994 Z.265 B-41.365
X64.976 Z.264 B-41.38
X64.949 Z.262 B-41.403
X64.548 Z.233 B-41.74
X64.173 Z.203 B-42.057
X63.821 Z.173 B-42.354
X63.798 Z.171 B-42.374
X63.765 Z.168 B-42.402
X63.269 Z.122 B-42.822
X62.774 Z.071 B-43.243
X62.28 Z.016 B-43.665
X61.789 Z-.043 B-44.086
X61.299 Z-.106 B-44.507
X60.815 Z-.173 B-44.926
X60.329 Z-.245 B-45.348
X59.846 Z-.32 B-45.77
X59.365 Z-.4 B-46.193
X58.893 Z-.483 B-46.61
X58.423 Z-.57 B-47.027
X57.985 Z-.655 B-47.418
X57.956 Z-.661 B-47.444
X57.926 Z-.667 B-47.471
X57.475 Z-.759 B-47.878
X57.011 Z-.859 B-48.299
X56.549 Z-.963 B-48.72
X56.092 Z-1.07 B-49.142
X55.638 Z-1.182 B-49.563
X55.175 Z-1.3 B-49.997
X54.734 Z-1.418 B-50.414
X54.296 Z-1.54 B-50.831
X53.863 Z-1.665 B-51.248
X53.417 Z-1.8 B-51.682
X52.976 Z-1.938 B-52.116
X52.567 Z-2.07 B-52.522
X52.539 Z-2.079 B-52.549
X52.515 Z-2.087 B-52.573
X52.157 Z-2.208 B-52.933
X51.743 Z-2.353 B-53.355
X51.333 Z-2.501 B-53.776
X50.928 Z-2.652 B-54.197
X50.529 Z-2.807 B-54.619
X50.078 Z-2.989 B-55.102
X49.709 Z-3.143 B-55.502
X49.345 Z-3.301 B-55.903
X48.986 Z-3.461 B-56.304
X48.589 Z-3.644 B-56.754
X48.199 Z-3.83 B-57.204
X47.839 Z-4.009 B-57.626
X47.816 Z-4.021 B-57.654
X47.798 Z-4.03 B-57.675
X47.535 Z-4.165 B-57.989
X47.187 Z-4.348 B-58.41
X46.846 Z-4.535 B-58.832
X46.511 Z-4.724 B-59.253
X46.183 Z-4.916 B-59.674
X45.979 Z-5.039 B-59.94
X45.777 Z-5.163 B-60.206
X45.491 Z-5.344 B-60.591
X45.21 Z-5.527 B-60.975
X44.935 Z-5.712 B-61.359
X44.61 Z-5.939 B-61.826
X44.292 Z-6.17 B-62.292
X44.003 Z-6.389 B-62.73
X43.984 Z-6.403 B-62.759
X43.972 Z-6.412 B-62.777
X43.799 Z-6.548 B-63.045
X43.533 Z-6.763 B-63.466
X43.274 Z-6.98 B-63.887
X43.023 Z-7.199 B-64.308
X42.779 Z-7.42 B-64.73
X42.619 Z-7.57 B-65.012
X42.464 Z-7.72 B-65.294
X42.263 Z-7.921 B-65.668
X42.068 Z-8.122 B-66.041
X41.879 Z-8.326 B-66.415
X41.647 Z-8.587 B-66.892
X41.424 Z-8.851 B-67.369
X41.225 Z-9.101 B-67.817
X41.212 Z-9.117 B-67.847
X41.206 Z-9.126 B-67.862
X41.104 Z-9.259 B-68.1
X40.93 Z-9.497 B-68.521
X40.764 Z-9.736 B-68.943
X40.607 Z-9.976 B-69.364
X40.458 Z-10.217 B-69.785
X40.354 Z-10.394 B-70.092
X40.255 Z-10.571 B-70.399
X40.145 Z-10.778 B-70.756
X40.04 Z-10.986 B-71.113
X39.942 Z-11.195 B-71.471
X39.817 Z-11.484 B-71.964
X39.703 Z-11.775 B-72.458
X39.606 Z-12.048 B-72.92
X39.6 Z-12.066 B-72.951
X39.598 Z-12.074 B-72.964
X39.561 Z-12.188 B-73.156
X39.487 Z-12.438 B-73.577
X39.421 Z-12.688 B-73.998
X39.364 Z-12.939 B-74.42
X39.315 Z-13.191 B-74.841
X39.283 Z-13.389 B-75.172
X39.256 Z-13.587 B-75.504
X39.234 Z-13.792 B-75.845
X39.217 Z-13.996 B-76.185
X39.206 Z-14.2 B-76.526
X39.2 Z-14.43 B-76.909
X39.202 Z-14.659 B-77.291
X39.21 Z-14.889 B-77.674
X39.224 Z-15.104 B-78.032
X39.226 Z-15.118 B-78.056
Z-15.124 B-78.066
X39.234 Z-15.211 B-78.211
X39.262 Z-15.464 B-78.633
X39.299 Z-15.716 B-79.054
X39.345 Z-15.967 B-79.475
X39.399 Z-16.219 B-79.897
X39.451 Z-16.431 B-80.253
X39.51 Z-16.642 B-80.609
X39.599 Z-16.931 B-81.095
X39.7 Z-17.218 B-81.582
X39.79 Z-17.451 B-81.977
X39.888 Z-17.683 B-82.371
X39.993 Z-17.914 B-82.766
X40.098 Z-18.129 B-83.136
X40.105 Z-18.144 B-83.161
X40.107 Z-18.148 B-83.168
X40.136 Z-18.205 B-83.267
X40.266 Z-18.45 B-83.688
X40.404 Z-18.693 B-84.11
X40.551 Z-18.935 B-84.531
X40.705 Z-19.175 B-84.952
X40.852 Z-19.392 B-85.333
X41.005 Z-19.607 B-85.713
X41.2 Z-19.866 B-86.175
X41.404 Z-20.124 B-86.637
X41.599 Z-20.357 B-87.059
X41.802 Z-20.589 B-87.48
X42.012 Z-20.819 B-87.901
X42.231 Z-21.047 B-88.323
X42.435 Z-21.261 B-88.74
X42.633 Z-21.476 B-89.157
X42.824 Z-21.693 B-89.575
X43.008 Z-21.912 B-89.992
X43.144 Z-22.08 B-90.311
X43.267 Z-22.238 B-90.61
X43.275 Z-22.249 B-90.63
X43.286 Z-22.262 B-90.655
X43.439 Z-22.468 B-91.041
X43.541 Z-22.61 B-91.306
X43.633 Z-22.743 B-91.555
X43.639 Z-22.752 B-91.572
X43.641 Z-22.755 B-91.578
X43.672 Z-22.801 B-91.662
X43.834 Z-23.048 B-92.12
X43.932 Z-23.206 B-92.411
X44.021 Z-23.355 B-92.684
X44.027 Z-23.365 B-92.703
X44.139 Z-23.561 B-93.062
X44.144 Z-23.571 B-93.079
X44.219 Z-23.709 B-93.331
X44.331 Z-23.927 B-93.728
X44.437 Z-24.146 B-94.124
X44.529 Z-24.35 B-94.493
X44.61 Z-24.542 B-94.838
X44.616 Z-24.555 B-94.861
X44.618 Z-24.56 B-94.87
X44.647 Z-24.633 B-95.001
X44.712 Z-24.804 B-95.306
X44.782 Z-24.999 B-95.655
X44.846 Z-25.194 B-96.003
X44.901 Z-25.377 B-96.329
X44.904 Z-25.39 B-96.351
X44.908 Z-25.401 B-96.371
X44.954 Z-25.569 B-96.67
X45.01 Z-25.798 B-97.076
X45.059 Z-26.027 B-97.482
X45.103 Z-26.27 B-97.899
X45.138 Z-26.513 B-98.317
X45.165 Z-26.75 B-98.723
X45.185 Z-26.987 B-99.13
X45.196 Z-27.224 B-99.536
X45.2 Z-27.461 B-99.942
Z-27.496 B-100.
Z-27.994
Z-28.491
Z-28.989
Z-29.487
Z-29.984
Z-30.482
Z-30.98
Z-31.478
Z-31.975
Z-32.473
Z-32.971
Z-33.468
Z-33.935
Z-33.966
X40.2 Z-34.
G0 X36.608
Z3.512
G05.1 Q0
G49
M595
G0 G28 U0. V0.
G28 W0.
G53 B0.
M05
M369
M201 (CHIP CONVEYOR STOP)
M30
%
