%
O0000 ( Tournage OP2-Upper.NC )
(UPPER TURRET)
(Tournage OP2 [1+tirage+tron?]  - Copie.mcam)
(DATE:  WEDNESDAY, 03 APRIL 2024)
(=============================)
(-- MACHINE : CMZ TTL-52-52 T1Y-T2Y --)
(N10 T1212 RHOMBIC R0.8 20X20)
(N20 T0505  10. FLAT ENDMILL)
(N30 T0808 31.9 FRAISE ? CHANFREINER)
(N40 T1212 RHOMBIC R0.8 20X20)
(N50 T0606 10 FRAISE DROITE)
(N60 T0202 COPIER 47DEG 3601862 SVJNR 2020K-12F R0.4)
(N70 T0101 OUTIL GORGE & TRON? LARG 3. R.3)
(N80 T0303 OD CUTOFF RIGHT)
(N90 T0226 OD FINISH RIGHT - 35 DEG.)
(N100 T0327 OD FINISH RIGHT - 35 DEG.)

G00 G18 G40 G80 G99
G30 U0. V0.
G53 Z220.

G50 S2000

N10
(OPERATION # 1)
G53 X0. Y0.
G53 Z220
(T1212  |  RHOMBIC R0.8 20X20  | INSERT -  CUT)
M81
G54
T1212 ( RHOMBIC R0.8 20X20 )
G00 G53 Z220
M331
M303
G97 S1207 M03 P01
M18
G50 S2000
G00 Z.1
X29.
G96 S110 P01
G99 G01 X-1.6 F.15
G00 Z1.1

(OPERATION # 2)
G97 S1925 M03 P01
G96 S140 M03 P01
X23.15
Z4.605
G01 Z2.605 F.25
Z-14.924
G03 X24.186 Z-15.8 R1.
G01 Z-21.5
X25.
X27.828 Z-20.086
G00 Z4.605
X21.3
G01 Z2.605
Z-14.8
X22.186
G03 X23.65 Z-15.119 R1.
G01 X26.478 Z-13.705
G00 Z4.605
X19.45
G01 Z2.605
Z-14.8
X21.8
X24.628 Z-13.386
G00 Z4.605
X17.6
G01 Z2.605
Z-14.8
X19.95
X22.778 Z-13.386
G00 Z4.605
X15.75
G01 Z2.605
Z-14.8
X18.1
X20.928 Z-13.386
G00 Z4.605
X13.9
G01 Z2.605
Z-14.8
X16.25
X19.078 Z-13.386
G00 Z4.605
X12.05
G01 Z2.605
Z-14.8
X14.4
X17.228 Z-13.386
G00 Z4.605
X10.2
G01 Z2.605
Z-14.8
X12.55
X15.378 Z-13.386
G00 Z4.605
X8.35
G01 Z2.605
Z-13.3
G03 X8.5 Z-13.68 R1.
G01 Z-14.8
X10.7
X13.528 Z-13.386
G00 Z4.605
X6.5
G01 Z2.605
Z-.668
X7.424 Z-2.393
G03 X7.492 Z-2.652 R1.
G01 Z-12.378
X8.313 Z-13.258
G03 X8.5 Z-13.68 R1.
G01 Z-14.8
X8.85
X11.678 Z-13.386
M09
G00 G53 X0. Y0.
G53 Z220
M05
M01

N20
(OPERATION # 3)
G53 X0. Y0.
G53 Z220
(T05  |   10. FLAT ENDMILL  | DIA. -  14.5)
M80
G54
T0505 (  10. FLAT ENDMILL )
M331
M305
G97 S1500 M83 P11
G00 C0.
G00 C0.
M18
G00 Z25.
X86.137
G12.1
G98 G01 X77.4 C-18.9 F2500.
Z10.
Z-20.7 F600.
G42 X48.4 F120.
G02 X19.4 C-4.4 R14.5
G01 C0.
G03 X0. C9.7 R9.7
X-19.4 C0. R9.7
G01 C-8.8
G03 X-16. C-10.5 R1.7
G01 X16.
G03 X19.4 C-8.8 R1.7
G01 C-4.4
G02 X48.4 C10.1 R14.5
G01 G40 X77.4
Z4.3 F2500.
Z10.
X74.4 C-18.9
Z-20.7 F600.
G42 X45.4 F120.
G02 X16.4 C-4.4 R14.5
G01 C0.
G03 X0. C8.2 R8.2
X-16.4 C0. R8.2
G01 C-8.8
G03 X-16. C-9. R.2
G01 X16.
G03 X16.4 C-8.8 R.2
G01 C-4.4
G02 X45.4 C10.1 R14.5
G01 G40 X74.4
Z25. F2500.
G13.1
M09
G00 G53 X0. Y0.
G53 Z220
M85
M01

N30
(OPERATION # 4)
G53 X0. Y0.
G53 Z220
(T08  |  31.9 FRAISE ? CHANFREINER  | DIA. -  31.9)
G54
T0808 ( 31.9 FRAISE ? CHANFREINER )
M331
M305
G97 S2000 M83 P11
G00 C0.
G00 C270.
M08
G19
G00 Z-3.65
X27.6 Y14.38
X20.6
G98 G01 X13.6 F600.
Y8. F50.
Y-8.
Y-11.19
G00 X27.6
Y14.38 Z-3.85
X20.6
G01 X13.6 F600.
Y8. F50.
Y-8.
Y-11.19
G00 X27.6
Y14.38 Z-4.05
X20.6
G01 X13.6 F600.
Y8. F50.
Y-8.
Y-11.19
G00 X27.6
Y14.38 Z-4.25
X20.6
G01 X13.6 F600.
Y8. F50.
Y-8.
Y-11.19
G00 X27.6
M09
G53 X0. Y0.
G53 Z220
M85
M81
M01

N40
(OPERATION # 5)
(DEMI FINI FACE)
G53 X0. Y0.
G53 Z220
(T1212  |  RHOMBIC R0.8 20X20  | INSERT -  CUT)
G54
T1212 ( RHOMBIC R0.8 20X20 )
G00 G53 Z220
M331
M303
G18
G97 S1260 M03 P01
M18
G50 S2000
G00 Y0. Z-14.95
X27.786
G96 S110 P01
G99 G01 X23.786 F.1
X9.7
X37.984 Z-.808
M09
G00 G53 X0. Y0.
G53 Z220
M05
M01

N50
(OPERATION # 6)
G53 X0. Y0.
G53 Z220
(T06  |  10 FRAISE DROITE  | DIA. -  10)
M80
G54
T0606 ( 10 FRAISE DROITE )
M331
M305
G97 S1300 M83 P11
G00 C0.
G00 C0.
M08
G00 Z25.
X62.972
G12.1
G98 G01 X56. C-14.4 F2500.
Z10.
Z-20.2 F600.
G42 X36. F120.
G02 X16. C-4.4 R10.
G01 C0.
G03 X0. C8. R8.
X-16. C0. R8.
G01 C-8.8
X16.
C-4.4
G02 X36. C5.6 R10.
G01 G40 X56.
Z25. F2500.
G13.1
M09
G00 G53 X0. Y0.
G53 Z220
M85
M81
M01

N60
(OPERATION # 7)
G53 X0. Y0.
G53 Z220
(T0202  |  COPIER 47DEG 3601862 SVJNR 2020K-12F R0.4  | INSERT -  CUT <25>)
G54
T0202 ( COPIER 47DEG 3601862 SVJNR 2020K-12F R0.4 )
G00 G53 Z220
M331
M303
G18
G97 S1435 M03 P01
M18
G50 S2000
G00 Y0. Z-18.286
X26.614
G96 S120 P01
G99 G01 X23.786 Z-19.7 F.05
Z-15.4
G02 X22.986 Z-15. R.4
G01 X8.9
G03 X8.1 Z-14.6 R.4
G01 Z-13.28
G02 X8.025 Z-13.111 R.4
G01 X7.092 Z-12.111
Z-2.252
G02 X7.065 Z-2.149 R.4
G01 X6.073 Z-.296
G02 X5.3 Z0. R.4
G01 X-2.
X.828 Z1.414
M09
G00 G53 X0. Y0.
G53 Z220
M05
M01

N70
(OPERATION # 8)
G53 X0. Y0.
G53 Z220
(T0101  |  OUTIL GORGE & TRON? LARG 3. R.3  | INSERT -  PLAQUETTE)
G54
T0101 ( OUTIL GORGE & TRON? LARG 3. R.3 )
G00 G53 Z220
M331
M303
G97 S1592 M03 P01
M18
G50 S2000
G00 Z-19.9
X28.
G96 S140 P01
G99 G01 X23.971 F.05
G00 X24.071
G01 X22.941
G00 X23.041
G01 X21.912
G00 X22.012
G01 X20.882
G00 X20.982
G01 X19.853
G00 X19.953
G01 X18.824
G00 X18.924
G01 X17.794
G00 X17.894
G01 X16.765
G00 X16.865
G01 X15.735
G00 X15.835
G01 X14.706
G00 X14.806
G01 X13.676
G00 X13.776
G01 X12.647
G00 X12.747
G01 X11.618
G00 X11.718
G01 X10.588
G00 X10.688
G01 X9.559
G00 X9.659
G01 X8.529
G00 X8.629
G01 X7.5
G00 X28.
Z-22.354
G01 X23.994
G00 X24.094
G01 X22.989
G00 X23.089
G01 X21.983
G00 X22.083
G01 X20.978
G00 X21.078
G01 X19.972
G00 X20.072
G01 X18.967
G00 X19.067
G01 X17.961
G00 X18.061
G01 X16.956
G00 X17.056
G01 X15.95
G00 X16.05
G01 X14.944
G00 X15.044
G01 X13.939
G00 X14.039
G01 X12.933
G00 X13.033
G01 X11.928
G00 X12.028
G01 X10.922
G00 X11.022
G01 X9.917
G00 X10.017
G01 X8.911
G00 X9.011
G01 X7.906
G00 X8.006
G01 X6.9
G00 X10.328
Z-20.486
G02 X7.5 Z-19.9 R2.
X6.9 Z-20.2 R.3
G01 Z-22.354
G00 X28.
Z-24.808
G01 X23.994
G00 X24.094
G01 X22.989
G00 X23.089
G01 X21.983
G00 X22.083
G01 X20.978
G00 X21.078
G01 X19.972
G00 X20.072
G01 X18.967
G00 X19.067
G01 X17.961
G00 X18.061
G01 X16.956
G00 X17.056
G01 X15.95
G00 X16.05
G01 X14.944
G00 X15.044
G01 X13.939
G00 X14.039
G01 X12.933
G00 X13.033
G01 X11.928
G00 X12.028
G01 X10.922
G00 X11.022
G01 X9.917
G00 X10.017
G01 X8.911
G00 X9.011
G01 X7.906
G00 X8.006
G01 X6.9
G00 X28.
Z-27.262
G01 X23.994
G00 X24.094
G01 X22.989
G00 X23.089
G01 X21.983
G00 X22.083
G01 X20.978
G00 X21.078
G01 X19.972
G00 X20.072
G01 X18.967
G00 X19.067
G01 X17.961
G00 X18.061
G01 X16.956
G00 X17.056
G01 X15.95
G00 X16.05
G01 X14.944
G00 X15.044
G01 X13.939
G00 X14.039
G01 X12.933
G00 X13.033
G01 X11.928
G00 X12.028
G01 X10.922
G00 X11.022
G01 X9.917
G00 X10.017
G01 X8.911
G00 X9.011
G01 X7.906
G00 X8.006
G01 X6.9
G00 X28.
Z-29.715
G01 X24.004
G00 X24.104
G01 X23.009
G00 X23.109
G01 X22.013
G00 X22.113
G01 X21.018
G00 X21.118
G01 X20.022
G00 X20.122
G01 X19.027
G00 X19.127
G01 X18.031
G00 X18.131
G01 X17.036
G00 X17.136
G01 X16.04
G00 X16.14
G01 X15.045
G00 X15.145
G01 X14.049
G00 X14.149
G01 X13.054
G00 X13.154
G01 X12.058
G00 X12.158
G01 X11.063
G00 X11.163
G01 X10.067
G00 X10.167
G01 X9.072
G00 X9.172
G01 X8.076
G00 X8.176
G01 X7.081
G00 X7.181
G01 X6.085
G00 X8.072
Z-25.847
G02 X6.9 Z-27.262 R2.
G01 Z-27.526
G03 X6.806 Z-27.737 R.5
G01 X6.085 Z-28.511
Z-29.715
G00 X28.
Z-32.169
G01 X24.004
G00 X24.104
G01 X23.009
G00 X23.109
G01 X22.013
G00 X22.113
G01 X21.018
G00 X21.118
G01 X20.022
G00 X20.122
G01 X19.027
G00 X19.127
G01 X18.031
G00 X18.131
G01 X17.036
G00 X17.136
G01 X16.04
G00 X16.14
G01 X15.045
G00 X15.145
G01 X14.049
G00 X14.149
G01 X13.054
G00 X13.154
G01 X12.058
G00 X12.158
G01 X11.063
G00 X11.163
G01 X10.067
G00 X10.167
G01 X9.072
G00 X9.172
G01 X8.076
G00 X8.176
G01 X7.081
G00 X7.181
G01 X6.085
G00 X28.
Z-34.623
G01 X24.004
G00 X24.104
G01 X23.009
G00 X23.109
G01 X22.013
G00 X22.113
G01 X21.018
G00 X21.118
G01 X20.022
G00 X20.122
G01 X19.027
G00 X19.127
G01 X18.031
G00 X18.131
G01 X17.036
G00 X17.136
G01 X16.04
G00 X16.14
G01 X15.045
G00 X15.145
G01 X14.049
G00 X14.149
G01 X13.054
G00 X13.154
G01 X12.058
G00 X12.158
G01 X11.063
G00 X11.163
G01 X10.067
G00 X10.167
G01 X9.072
G00 X9.172
G01 X8.076
G00 X8.176
G01 X7.081
G00 X7.181
G01 X6.085
G00 X28.
Z-37.077
G01 X24.004
G00 X24.104
G01 X23.009
G00 X23.109
G01 X22.013
G00 X22.113
G01 X21.018
G00 X21.118
G01 X20.022
G00 X20.122
G01 X19.027
G00 X19.127
G01 X18.031
G00 X18.131
G01 X17.036
G00 X17.136
G01 X16.04
G00 X16.14
G01 X15.045
G00 X15.145
G01 X14.049
G00 X14.149
G01 X13.054
G00 X13.154
G01 X12.058
G00 X12.158
G01 X11.063
G00 X11.163
G01 X10.067
G00 X10.167
G01 X9.072
G00 X9.172
G01 X8.076
G00 X8.176
G01 X7.081
G00 X7.181
G01 X6.085
G00 X28.
Z-39.531
G01 X24.004
G00 X24.104
G01 X23.009
G00 X23.109
G01 X22.013
G00 X22.113
G01 X21.018
G00 X21.118
G01 X20.022
G00 X20.122
G01 X19.027
G00 X19.127
G01 X18.031
G00 X18.131
G01 X17.036
G00 X17.136
G01 X16.04
G00 X16.14
G01 X15.045
G00 X15.145
G01 X14.049
G00 X14.149
G01 X13.054
G00 X13.154
G01 X12.058
G00 X12.158
G01 X11.063
G00 X11.163
G01 X10.067
G00 X10.167
G01 X9.072
G00 X9.172
G01 X8.076
G00 X8.176
G01 X7.081
G00 X7.181
G01 X6.085
G00 X28.
Z-41.985
G01 X24.004
G00 X24.104
G01 X23.009
G00 X23.109
G01 X22.013
G00 X22.113
G01 X21.018
G00 X21.118
G01 X20.022
G00 X20.122
G01 X19.027
G00 X19.127
G01 X18.031
G00 X18.131
G01 X17.036
G00 X17.136
G01 X16.04
G00 X16.14
G01 X15.045
G00 X15.145
G01 X14.049
G00 X14.149
G01 X13.054
G00 X13.154
G01 X12.058
G00 X12.158
G01 X11.063
G00 X11.163
G01 X10.067
G00 X10.167
G01 X9.072
G00 X9.172
G01 X8.076
G00 X8.176
G01 X7.081
G00 X7.181
G01 X6.085
G00 X28.
M09
G53 X0. Y0.
G53 Z220
M05
M01

(OPERATION # 10)
(ALIGN SPINDLES [UPPER])
M900P123
M80
G00 C0. (POSITION LEFT SPINDLE C-AXIS)
M81

(OPERATION # 12)
(SYNCHRONIZE SPINDLES)
G97 S100 M03 P11
M34

N80
(OPERATION # 13)
(PRE-POSITION CUTOFF TOOL)
G53 X0.
G53 Z220
(T0303  |  OD CUTOFF RIGHT  | INSERT -  NONE)
G54
T0303 ( OD CUTOFF RIGHT )
G00 G53 Z220
M331
M303
G50 S2000
G00 Z-8.
X150.
M901P123

(OPERATION # 21)
(CUT OFF THE PART)
M902P123
G97 S127 M03 P01
G96 S60 M03 P01
Z1.
X33.
G99 G01 X29. F.05
X28.013
X28.213
X27.027
X27.227
X26.04
X26.24
X25.053
X25.253
X24.067
X24.267
X23.08
X23.28
X22.093
X22.293
X21.107
X21.307
X20.12
X20.32
X19.133
X19.333
X18.147
X18.347
X17.16
X17.36
X16.173
X16.373
X15.187
X15.387
X14.2
X14.4
X13.213
X13.413
X12.227
X12.427
X11.24
X11.44
X10.253
X10.453
X9.267
X9.467
X8.28
X8.48
X7.293
X7.493
X6.307
X6.507
X5.32
X5.52
X4.333
X4.533
X3.347
X3.547
X2.36
X2.56
X1.373
X1.573
X.387
X.587
X-.6
X3.4
G00 X26.
X150.

(OPERATION # 22)
(CANCEL SPINDLE SYNC)
M36 (CANCEL SPINDLE SYNC)
M05 M09
M903P123
M904P123

(OPERATION # 24)
(SEND UPPER TURRET HOME)
M905P123
G53 Z220
G53 X0. Y0.
M906P123
M281
M30

