%
O0000(3077 DOUBLE ETAU)
(DATE=DD-MM-YY - 11-04-24 TIME=HH:MM - 13:54)
(MCAM FILE - E:\00003077 - EN UNE PIčCE DOUBLE éTAU 2023.MCAM)
(NC FILE - C:\USERS\VFOLL\ONEDRIVE\DOCUMENTS\MY MASTERCAM 2024\MASTERCAM\MILL\NC\3077 DOUBLE ETAU.NC)
(MATERIAL - ALUMINUM MM - 2024)
( T8 | FRAISE DROITE Ř 8 MM | H8 )
N100 G21
N110 G0 G17 G40 G49 G80 G90
N120 T8 M6
N130 G0 G90 G56 X-59.485 Y4.836 A0. S9800 M3
N140 G43 H8 Z50. M8
N150 G1 Z46.578 F600.
N160 X-57.684 Y8.497 F2983.9
N170 G3 X-57.602 Y8.85 I-.718 J.353
N180 X-58.049 Y9.568 I-.8 J0.
N190 G2 X-67.265 Y24.373 I7.284 J14.805
N200 X-50.765 Y40.873 I16.5 J0.
N210 X-34.265 Y24.373 I0. J-16.5
N220 X-43.481 Y9.568 I-16.5 J0.
N230 G3 X-43.928 Y8.85 I.353 J-.718
N240 X-43.846 Y8.497 I.8 J0.
N250 G1 X-42.045 Y4.836
N260 G0 Z50.
N270 X-59.485 Y-44.164
N280 G1 Z46.578 F600.
N290 X-57.684 Y-40.503 F2983.9
N300 G3 X-57.602 Y-40.15 I-.718 J.353
N310 X-58.049 Y-39.432 I-.8 J0.
N320 G2 X-67.265 Y-24.627 I7.284 J14.805
N330 X-50.765 Y-8.127 I16.5 J0.
N340 X-34.265 Y-24.627 I0. J-16.5
N350 X-43.481 Y-39.432 I-16.5 J0.
N360 G3 X-43.928 Y-40.15 I.353 J-.718
N370 X-43.846 Y-40.503 I.8 J0.
N380 G1 X-42.045 Y-44.164
N390 G0 Z50.
N400 M5
N410 G91 G28 Z0. M9
N420 G28 X0. Y0. A0.
N430 M30
%
