(POST-PRO FICAM)
(MACHINE - MAZAK_CV5_500)
(DESSIN MASTERCAM - EXERCICE 1)
(PROG-CN DU 27-03-24 A 13:34)
G0 G90 G80 G54
 
 
#605=5 (FRAISE 2T D- 14)
 
M9
M5
G0 G28 G91 Z0.
G90
G69
G52 X0 Y0 Z0
G0 B0. C0.
M1
 
N10
( FRAISE 2T D- 14 )
 T#605 M6
( OPERATION #1 )
M3 S3637
M9
G0 B90. C0.
M44 M47
G68.2 P1 X0. Y0. Z0. I90. J0. K90.
G53.1 P1
G61.1 P0
G0 X-33.832 Y17.507
G0 G43 Z25.
G0 Z10.
G1 Z-26. F200
G41 Y9.807 F1455
X-33.546
X-9.95
Y34.077
G2 X0. Y35.5 I9.95 J-34.077
X9.807 Y34.119 I0. J-35.5
G1 Y9.95
X34.077
G2 X35.5 Y0. I-34.077 J-9.95
X34.119 Y-9.807 I-35.5 J0.
G1 X9.95
Y-34.077
G2 X0. Y-35.5 I-9.95 J34.077
X-9.807 Y-34.119 I0. J35.5
G1 Y-9.95
X-34.077
G2 X-35.5 Y0. I34.077 J9.95
X-34.119 Y9.807 I35.5 J0.
G1 X-33.832
G40 Y17.507
G0 Z2.
G0 Z25.
G0 X-43.2 Y-0.091
G0 Z10.
G1 Z-26. F200
G41 X-35.5 Y-0.075 F1455
G2 Y0. I35.5 J0.075
X-34.119 Y9.807 I35.5 J0.
G1 X-33.546
X-9.95
Y34.077
G2 X0. Y35.5 I9.95 J-34.077
X9.807 Y34.119 I0. J-35.5
G1 Y9.95
X34.077
G2 X35.5 Y0. I-34.077 J-9.95
X34.119 Y-9.807 I-35.5 J0.
G1 X9.95
Y-34.077
G2 X0. Y-35.5 I-9.95 J34.077
X-9.807 Y-34.119 I0. J35.5
G1 Y-9.95
X-34.077
G2 X-35.5 Y-0.075 I34.077 J9.95
G1 G40 X-43.2 Y-0.091
G0 Z25.
G0 G28 G91 Z0.
G90
G0 B0. C0.
G0 G28 G91 Y0
M30
%
