%
O0000(OP2)
(DATE=DD-MM-YY - 10-01-24 TIME=HH:MM - 10:51)
(MCAM FILE - E:\A SAUVER.MCAM)
(NC FILE - C:\USERS\VFOLL\ONEDRIVE\DOCUMENTS\MY MASTERCAM 2024\MASTERCAM\MILL\NC\OP2.NC)
(MATERIAL - ALUMINUM MM - 2024)
( T250 | FACE MILL - 63/71 | H250 )
( T244 | CHAMFER MILL 10/90DEG | H244 )
N100 G21
N110 G0 G17 G40 G49 G80 G90
N120 T250 M6
N130 G0 G90 G54 X-152.024 Y33.634 A0. S1551 M3
N140 G43 H250 Z10.
N150 Z5.3
N160 G1 X83.576 F3415.3
N170 G2 X110.874 Y6.336 I0. J-27.298 F1000.
N180 X83.576 Y-20.962 I-27.298 J0.
N190 G1 X-152.024 F3415.3
N200 Z3.6 F1000.
N210 X83.576 F3415.3
N220 G3 X110.874 Y6.336 I0. J27.298 F1000.
N230 X83.576 Y33.634 I-27.298 J0.
N240 G1 X-152.024 F3415.3
N250 Z1.9 F1000.
N260 X83.576 F3415.3
N270 G2 X110.874 Y6.336 I0. J-27.298 F1000.
N280 X83.576 Y-20.962 I-27.298 J0.
N290 G1 X-152.024 F3415.3
N300 Z.2 F1000.
N310 X83.576 F3415.3
N320 G3 X110.874 Y6.336 I0. J27.298 F1000.
N330 X83.576 Y33.634 I-27.298 J0.
N340 G1 X-152.024 F3415.3
N350 Z0. F1000.
N360 X83.576 F800.
N370 G2 X110.874 Y6.336 I0. J-27.298 F1000.
N380 X83.576 Y-20.962 I-27.298 J0.
N390 G1 X-152.024 F800.
N400 G0 Z10.
N410 M5
N420 G91 G28 Z0.
N430 A0.
N440 M01
N450 T244 M6
N460 G0 G90 G17 G54 X-12.7 Y45.976 A0. S17508 M3
N470 G43 H244 Z25.
N480 Z4.8
N490 Z-.2
N500 G1 Z-1.2 F1000.
N510 X-46.079 F2101.
N520 G3 X-52.699 Y39.356 I0. J-6.62
N530 X-49.228 Y33.533 I6.62 J0.
N540 G1 X-17.737 Y16.504
N550 G3 X-14.588 Y15.707 I3.149 J5.823
N560 X-10.967 Y16.785 I0. J6.62
N570 G2 X-9.548 Y17.631 I10.967 J-16.785
N580 G3 X-6.08 Y23.452 I-3.152 J5.821
N590 G1 Y39.356
N600 G3 X-12.7 Y45.976 I-6.62 J0.
N610 G0 Z3.8
N620 Z5.
N630 X-11.95 Y11.494
N640 X-11.7 Y0.
N650 Z4.8
N660 Z-.2
N670 G1 Z-1.2 F1000.
N680 G3 X0. Y-11.7 I11.7 J0. F2101.
N690 X11.7 Y0. I0. J11.7
N700 X0. Y11.7 I-11.7 J0.
N710 X-11.7 Y0. I0. J-11.7
N720 G0 Z3.8
N730 Z5.
N740 X-14.887 Y-8.326
N750 X-24.45 Y-33.303
N760 Z4.8
N770 Z-.2
N780 G1 Z-1.2 F1000.
N790 X-12.7 F2101.
N800 G3 X-6.08 Y-26.683 I0. J6.62
N810 G1 Y-23.452
N820 G3 X-9.548 Y-17.631 I-6.62 J0.
N830 G2 X-11.387 Y-16.503 I9.548 J17.631
N840 G3 X-15.146 Y-15.332 I-3.759 J-5.449
N850 X-18.147 Y-16.051 I0. J-6.62
N860 G1 X-27.451 Y-20.783
N870 G3 X-31.069 Y-26.683 I3.001 J-5.9
N880 X-30.35 Y-29.685 I6.619 J0.
N890 X-24.45 Y-33.303 I5.9 J3.002
N900 G0 Z3.8
N910 Z5.
N920 X-37.756 Y-20.064
N930 X-77.674 Y19.655
N940 Z4.8
N950 Z-.2
N960 G1 Z-1.2 F1000.
N970 Y-17.616 F2101.
N980 G3 X-71.054 Y-24.236 I6.62 J0.
N990 X-68.053 Y-23.517 I0. J6.62
N1000 G1 X-32.536 Y-5.452
N1010 G3 X-28.918 Y.448 I-3.001 J5.9
N1020 X-29.637 Y3.449 I-6.619 J0.
N1030 X-32.388 Y6.271 I-5.9 J-3.001
N1040 G1 X-67.905 Y25.478
N1050 G3 X-71.054 Y26.275 I-3.149 J-5.823
N1060 X-76.877 Y22.804 I0. J-6.62
N1070 X-77.674 Y19.655 I5.823 J-3.149
N1080 G0 Z3.8
N1090 Z5.
N1100 X-88.112 Y18.224
N1110 X-98.549 Y16.792
N1120 Z4.8
N1130 Z-.2
N1140 G1 Z-1.2 F1000.
N1150 G3 X-94.549 Y12.792 I4. J0. F2101.
N1160 X-90.549 Y16.792 I0. J4.
N1170 X-94.549 Y20.792 I-4. J0.
N1180 X-98.549 Y16.792 I0. J-4.
N1190 G0 Z3.8
N1200 Z5.
N1210 Y8.855
N1220 Y.917
N1230 Z4.8
N1240 Z-.2
N1250 G1 Z-1.2 F1000.
N1260 G3 X-94.549 Y-3.083 I4. J0. F2101.
N1270 X-90.549 Y.917 I0. J4.
N1280 X-94.549 Y4.917 I-4. J0.
N1290 X-98.549 Y.917 I0. J-4.
N1300 G0 Z3.8
N1310 Z5.
N1320 Y32.667
N1330 Z4.8
N1340 Z-.2
N1350 G1 Z-1.2 F1000.
N1360 G3 X-94.549 Y28.667 I4. J0. F2101.
N1370 X-90.549 Y32.667 I0. J4.
N1380 X-94.549 Y36.667 I-4. J0.
N1390 X-98.549 Y32.667 I0. J-4.
N1400 G0 Z3.8
N1410 Z5.
N1420 X-106.193 Y39.243
N1430 X-113.837 Y45.82
N1440 Z4.8
N1450 Z-.2
N1460 G1 Z-1.2 F1000.
N1470 G2 X-59.624 Y58.136 I54.213 J-113.154 F2101.
N1480 G1 X16.576
N1490 G2 X45.271 Y53.934 I0. J-100.07
N1500 G1 X46.151 Y52.757
N1510 Y23.289
N1520 X45.543 Y22.066
N1530 X27.892 Y8.708
N1540 G3 X25.267 Y3.429 I3.996 J-5.279
N1550 X26.609 Y-.566 I6.621 J0.
N1560 X29.106 Y-2.578 I5.279 J3.995
N1570 G1 X45.382 Y-10.115
N1580 X46.151 Y-11.317
N1590 Y-43.963
N1600 G2 X45.858 Y-44.671 I-1. J0.
N1610 G1 X45.358 Y-45.171
N1620 G2 X44.651 Y-45.463 I-.707 J.708
N1630 G1 X-113.099
N1640 G2 X-113.806 Y-45.171 I0. J1.
N1650 G1 X-114.306 Y-44.671
N1660 G2 X-114.599 Y-43.963 I.707 J.708
N1670 G1 Y44.613
N1680 X-113.837 Y45.82
N1690 G0 Z3.8
N1700 Z25.
N1710 M5
N1720 G91 G28 Z0.
N1730 G28 X0. Y0. A0.
N1740 M30
%
