%
O0000(T)
(DATE=DD-MM-YY - 12-03-24 TIME=HH:MM - 20:40)
(MCAM FILE - T)
(NC FILE - C:\USERS\VFOLL\ONEDRIVE\DOCUMENTS\MY MASTERCAM 2024\MASTERCAM\MILL\NC\T.NC)
(MATERIAL - )
( T5 | FRAISE 2T D- 12 | H5 | D5 | CONTROL COMP | TOOL DIA. - 12. )
N100 G21
N110 G0 G17 G40 G49 G80 G90
N120 T5 M6
N130 G0 G90 G54 X-31.6 Y43.588 A0. S12000 M3
N140 G43 H5 Z25.
N150 Z10.
N160 G1 Z-2. F200.
N170 G41 D5 Y31.588 F0.
N180 G3 X-25. Y24.988 I6.6 J0.
N190 G1 X25.
N200 Y-24.988
N210 X-25.
N220 Y24.988
N230 X-24.
N240 G3 X-17.4 Y31.588 I0. J6.6
N250 G1 G40 Y38.188
N260 G0 Z23.
N270 X-31.6 Y43.588
N280 Z8.
N290 G1 Z-4. F200.
N300 G41 D5 Y31.588 F0.
N310 G3 X-25. Y24.988 I6.6 J0.
N320 G1 X25.
N330 Y-24.988
N340 X-25.
N350 Y24.988
N360 X-24.
N370 G3 X-17.4 Y31.588 I0. J6.6
N380 G1 G40 Y38.188
N390 G0 Z21.
N400 X-31.6 Y43.588
N410 Z6.
N420 G1 Z-6. F200.
N430 G41 D5 Y31.588 F0.
N440 G3 X-25. Y24.988 I6.6 J0.
N450 G1 X25.
N460 Y-24.988
N470 X-25.
N480 Y24.988
N490 X-24.
N500 G3 X-17.4 Y31.588 I0. J6.6
N510 G1 G40 Y38.188
N520 G0 Z19.
N530 X-31.6 Y43.588
N540 Z4.
N550 G1 Z-8. F200.
N560 G41 D5 Y31.588 F0.
N570 G3 X-25. Y24.988 I6.6 J0.
N580 G1 X25.
N590 Y-24.988
N600 X-25.
N610 Y24.988
N620 X-24.
N630 G3 X-17.4 Y31.588 I0. J6.6
N640 G1 G40 Y38.188
N650 G0 Z17.
N660 X-31.6 Y43.588
N670 Z2.
N680 G1 Z-10. F200.
N690 G41 D5 Y31.588 F0.
N700 G3 X-25. Y24.988 I6.6 J0.
N710 G1 X25.
N720 Y-24.988
N730 X-25.
N740 Y24.988
N750 X-24.
N760 G3 X-17.4 Y31.588 I0. J6.6
N770 G1 G40 Y38.188
N780 G0 Z15.
N790 X-31.6 Y43.588
N800 Z0.
N810 G1 Z-12. F200.
N820 G41 D5 Y31.588 F0.
N830 G3 X-25. Y24.988 I6.6 J0.
N840 G1 X25.
N850 Y-24.988
N860 X-25.
N870 Y24.988
N880 X-24.
N890 G3 X-17.4 Y31.588 I0. J6.6
N900 G1 G40 Y38.188
N910 G0 Z13.
N920 X-31.6 Y43.588
N930 Z-2.
N940 G1 Z-14. F200.
N950 G41 D5 Y31.588 F0.
N960 G3 X-25. Y24.988 I6.6 J0.
N970 G1 X25.
N980 Y-24.988
N990 X-25.
N1000 Y24.988
N1010 X-24.
N1020 G3 X-17.4 Y31.588 I0. J6.6
N1030 G1 G40 Y38.188
N1040 G0 Z11.
N1050 X-31.6 Y43.588
N1060 Z-4.
N1070 G1 Z-16. F200.
N1080 G41 D5 Y31.588 F0.
N1090 G3 X-25. Y24.988 I6.6 J0.
N1100 G1 X25.
N1110 Y-24.988
N1120 X-25.
N1130 Y24.988
N1140 X-24.
N1150 G3 X-17.4 Y31.588 I0. J6.6
N1160 G1 G40 Y38.188
N1170 G0 Z9.
N1180 X-31.6 Y43.588
N1190 Z-6.
N1200 G1 Z-18. F200.
N1210 G41 D5 Y31.588 F0.
N1220 G3 X-25. Y24.988 I6.6 J0.
N1230 G1 X25.
N1240 Y-24.988
N1250 X-25.
N1260 Y24.988
N1270 X-24.
N1280 G3 X-17.4 Y31.588 I0. J6.6
N1290 G1 G40 Y38.188
N1300 G0 Z7.
N1310 X-31.6 Y43.588
N1320 Z-8.
N1330 G1 Z-20. F200.
N1340 G41 D5 Y31.588 F0.
N1350 G3 X-25. Y24.988 I6.6 J0.
N1360 G1 X25.
N1370 Y-24.988
N1380 X-25.
N1390 Y24.988
N1400 X-24.
N1410 G3 X-17.4 Y31.588 I0. J6.6
N1420 G1 G40 Y38.188
N1430 G0 Z25.
N1440 M5
N1450 G91 G28 Z0.
N1460 G28 X0. Y0. A0.
N1470 M30
%
