MSG("programme realiser sur mastercam")
MSG("post-processeur realiser par ficam.com")
N0 MSG("DATE :20/2/24 HEURE: 11:11")
N1 MSG( " EXERCICE 1 FORMATION DMG " )
N2 MSG( " DMU75_MONOBLOCK_SIEMENS " )
N3  
N4 ; ----- LISTE OUTIL ------
N5 ; T1. TOURTEAU D32.  
N6 M162
N7 G0
N8 M9
N9 M5
N10 CYCLE800()
N11 G0 SUPA D0 Z-1
N12 G0 SUPA D0 Y-338
N13 D1
N14 M1
 
N15 MSG( " SURFACAGE " )
N16 MSG( " T1. TOURTEAU D=32. TOURTEAU D32.   " )
N17 STOPRE
N18 T="TOURTEAU D32.  "
N19 M6
N20  MSG( " SEQ1 " )
N21 T1
N22 G0 SUPA D0 Z-1
N23 M3 S5968
N24 D1
N25 G0 A0 C0
N26 CYCLE832(0 ,_FINISH,1)
N27 G0
N28 CYCLE800()
N29 G0 G54 X-63.376 Y46.034
N30 G0 Z5.5
N31 Z0.5 M9
N32 G1 G94 Z0 F1000
N33 X131.824 F3581
N34 G0 Z5
N35 X-63.376 Y26.185
N36 Z0
N37 G1 X131.824
N38 G0 Z5
N39 X-63.376 Y6.336
N40 Z0
N41 G1 X131.824
N42 G0 Z5
N43 X-63.376 Y-13.513
N44 Z0
N45 G1 X131.824
N46 Y-33.362
N47 X-63.376
N48 G0 Z5
N49 CYCLE800()
N50 G0 SUPA D0 Z-1
N51 G0 SUPA D0 Y-338
N52 G0 SUPA D0 X0
N53 D1
N54 G0 A0 C0
N55 M5 M9
N56 H67=1
N57 M02
