%
O0000(OP1)
(DATE=DD-MM-YY - 10-01-24 TIME=HH:MM - 10:51)
(MCAM FILE - E:\A SAUVER.MCAM)
(NC FILE - C:\USERS\VFOLL\ONEDRIVE\DOCUMENTS\MY MASTERCAM 2024\MASTERCAM\MILL\NC\OP1.NC)
(MATERIAL - ALUMINUM MM - 2024)
( T2 | 16 FORET | H2 )
( T1 | FR12 | H1 | XY STOCK TO LEAVE - .2 | Z STOCK TO LEAVE - 0. )
( T3 | FAP12 | H3 )
( T5 | 8.5 FORET | H5 )
( T6 | M10 X 1.5 TARAUD ‡ DROITE | H6 )
( T219 | FLAT END MILL - 12 | H219 | D219 | WEAR COMP | TOOL DIA. - 12. )
( T244 | CHAMFER MILL 10/90DEG | H244 )
N100 G21
N110 G0 G17 G40 G49 G80 G90
N120 T2 M6
N130 G0 G90 G54 X-34.224 Y-6.336 A0. S375 M3
N140 G43 H2 Z10.
N150 G98 G81 Z-36.807 R2. F45.
N160 X-10.895 Y25.411
N170 X19.072 Y-5.651
N180 X-18.942 Y-31.135
N190 G80
N200 M5
N210 G91 G28 Z0.
N220 A0.
N230 M01
N240 T1 M6
N250 G0 G90 G17 G54 X-84.237 Y-59.671 A0. S833 M3
N260 G43 H1 Z10.
N270 Z1.
N280 G1 Z-23.45 F600.
N290 X-84.622 Y-58.671 Z-23.474 F50.
N300 G3 X-85.233 Y-57.733 Z-23.5 I-2.52 J-.971
N310 G1 X-85.334 Y-57.588
N320 X-85.513 Y-57.297
N330 X-85.715 Y-56.883
N340 X-85.894 Y-56.37
N350 X-86.006 Y-55.837
N360 X-86.047 Y-55.309
N370 X-86.066 Y-54.787
N380 X-86.082 Y-54.267
N390 X-86.098 Y-53.75
N400 X-86.111 Y-53.235
N410 X-86.123 Y-52.722
N420 X-86.133 Y-52.21
N430 X-86.142 Y-51.701
N440 X-86.149 Y-51.192
N450 X-86.156 Y-50.685
N460 X-86.162 Y-50.179
N470 X-86.167 Y-49.673
N480 X-86.171 Y-49.169
N490 X-86.175 Y-48.665
N500 X-86.178 Y-48.162
N510 X-86.181 Y-47.659
N520 X-86.183 Y-47.157
N530 X-86.186 Y-46.655
N540 X-86.187 Y-46.154
N550 X-86.189 Y-45.653
N560 X-86.191 Y-45.152
N570 X-86.192 Y-44.651
N580 X-86.193 Y-44.15
N590 X-86.194 Y-43.65
N600 X-86.195 Y-43.15
N610 Y-42.65
N620 X-86.196 Y-42.15
N630 Y-41.65
N640 X-86.197 Y-41.15
N650 Y-40.651
N660 X-86.198 Y-40.151
N670 Y-39.651
N680 Y-39.152
N690 Y-38.653
N700 X-86.199 Y-38.153
N710 Y-37.654
N720 Y-37.154
N730 Y-36.655
N740 Y-36.156
N750 Y-35.656
N760 Y-35.157
N770 Y-34.658
N780 X-86.2 Y-34.159
N790 Y-33.659
N800 Y-33.16
N810 Y-32.661
N820 Y-32.162
N830 Y-31.663
N840 Y-31.163
N850 Y-30.664
N860 Y-30.165
N870 Y-29.666
N880 Y-29.167
N890 Y-28.667
N900 Y-28.168
N910 Y-27.669
N920 Y-27.17
N930 Y-26.671
N940 Y-26.171
N950 Y-25.672
N960 Y-25.173
N970 Y-24.674
N980 Y-24.175
N990 Y-23.676
N1000 Y-23.176
N1010 Y-22.677
N1020 Y-22.178
N1030 Y-21.679
N1040 Y-21.18
N1050 Y-20.681
N1060 Y-20.181
N1070 Y-19.682
N1080 Y-19.183
N1090 Y-18.684
N1100 Y-18.185
N1110 Y-17.686
N1120 Y-17.186
N1130 Y-16.687
N1140 Y-16.188
N1150 Y-15.689
N1160 Y-15.19
N1170 Y-14.691
N1180 Y-14.191
N1190 Y-13.692
N1200 Y-13.193
N1210 Y-12.694
N1220 Y-12.195
N1230 Y-11.696
N1240 Y-11.196
N1250 Y-10.697
N1260 Y-10.198
N1270 Y-9.699
N1280 Y-9.2
N1290 Y-8.701
N1300 Y-8.201
N1310 Y-7.702
N1320 Y-7.203
N1330 Y-6.704
N1340 Y-6.205
N1350 Y-5.706
N1360 Y-5.206
N1370 Y-4.707
N1380 Y-4.208
N1390 Y-3.709
N1400 Y-3.21
N1410 Y-2.711
N1420 Y-2.211
N1430 Y-1.712
N1440 Y-1.213
N1450 Y-.714
N1460 Y-.215
N1470 Y.284
N1480 Y.784
N1490 Y1.283
N1500 Y1.782
N1510 Y2.281
N1520 Y2.78
N1530 Y3.279
N1540 Y3.779
N1550 Y4.278
N1560 Y4.777
N1570 Y5.276
N1580 Y5.775
N1590 Y6.274
N1600 Y6.774
N1610 Y7.273
N1620 Y7.772
N1630 Y8.271
N1640 Y8.77
N1650 Y9.269
N1660 Y9.769
N1670 Y10.268
N1680 Y10.767
N1690 Y11.266
N1700 Y11.765
N1710 Y12.264
N1720 Y12.764
N1730 Y13.263
N1740 Y13.762
N1750 Y14.261
N1760 Y14.76
N1770 Y15.259
N1780 Y15.759
N1790 Y16.258
N1800 Y16.757
N1810 Y17.256
N1820 Y17.755
N1830 Y18.254
N1840 Y18.754
N1850 Y19.253
N1860 Y19.752
N1870 Y20.251
N1880 Y20.75
N1890 Y21.249
N1900 Y21.749
N1910 Y22.248
N1920 Y22.747
N1930 Y23.246
N1940 Y23.745
N1950 Y24.244
N1960 Y24.744
N1970 Y25.243
N1980 Y25.742
N1990 Y26.241
N2000 Y26.74
N2010 Y27.239
N2020 Y27.739
N2030 Y28.238
N2040 Y28.737
N2050 Y29.236
N2060 Y29.735
N2070 Y30.234
N2080 Y30.733
N2090 Y31.233
N2100 Y31.732
N2110 Y32.231
N2120 Y32.73
N2130 Y33.229
N2140 Y33.728
N2150 Y34.228
N2160 Y34.727
N2170 Y35.226
N2180 Y35.725
N2190 Y36.224
N2200 Y36.723
N2210 Y37.223
N2220 Y37.722
N2230 Y38.221
N2240 Y38.72
N2250 Y39.219
N2260 Y39.718
N2270 Y40.218
N2280 Y40.717
N2290 Y41.216
N2300 Y41.715
N2310 Y42.214
N2320 Y42.713
N2330 Y43.213
N2340 Y43.712
N2350 Y44.211
N2360 Y44.71
N2370 Y45.209
N2380 Y45.708
N2390 Y46.208
N2400 Y46.707
N2410 Y47.206
N2420 Y47.705
N2430 Y48.204
N2440 Y48.703
N2450 X-86.199 Y49.238
N2460 X-86.179 Y49.917
N2470 X-86.151 Y50.296
N2480 X-86.107 Y50.688
N2490 X-86.043 Y51.084
N2500 X-85.958 Y51.476
N2510 X-85.853 Y51.858
N2520 X-85.591 Y52.558
N2530 X-85.421 Y52.912
N2540 X-85.228 Y53.259
N2550 X-85.014 Y53.597
N2560 X-84.78 Y53.924
N2570 X-84.53 Y54.238
N2580 X-84.263 Y54.538
N2590 X-83.984 Y54.824
N2600 X-83.693 Y55.095
N2610 X-83.392 Y55.351
N2620 X-83.084 Y55.592
N2630 X-82.769 Y55.817
N2640 X-82.14 Y56.217
N2650 X-81.5 Y56.566
N2660 X-80.858 Y56.867
N2670 X-80.217 Y57.127
N2680 X-79.582 Y57.35
N2690 X-78.955 Y57.54
N2700 X-78.337 Y57.704
N2710 X-77.728 Y57.843
N2720 X-77.13 Y57.962
N2730 X-76.542 Y58.065
N2740 X-75.962 Y58.152
N2750 X-75.392 Y58.227
N2760 X-74.829 Y58.292
N2770 X-74.274 Y58.347
N2780 X-73.725 Y58.395
N2790 X-73.182 Y58.436
N2800 X-72.644 Y58.471
N2810 X-72.111 Y58.502
N2820 X-71.582 Y58.528
N2830 X-71.057 Y58.551
N2840 X-70.535 Y58.57
N2850 X-70.016 Y58.588
N2860 X-69.499 Y58.602
N2870 X-68.985 Y58.615
N2880 X-68.472 Y58.626
N2890 X-67.962 Y58.636
N2900 X-67.452 Y58.644
N2910 X-66.944 Y58.652
N2920 X-66.437 Y58.658
N2930 X-65.932 Y58.663
N2940 X-65.427 Y58.668
N2950 X-64.922 Y58.672
N2960 X-64.419 Y58.676
N2970 X-63.916 Y58.679
N2980 X-63.413 Y58.682
N2990 X-62.911 Y58.684
N3000 X-62.409 Y58.686
N3010 X-61.908 Y58.688
N3020 X-61.407 Y58.69
N3030 X-60.906 Y58.691
N3040 X-60.405 Y58.692
N3050 X-59.905 Y58.693
N3060 X-59.405 Y58.694
N3070 X-58.904 Y58.695
N3080 X-58.404
N3090 X-57.905 Y58.696
N3100 X-57.405 Y58.697
N3110 X-56.905
N3120 X-56.405
N3130 X-55.906 Y58.698
N3140 X-55.406
N3150 X-54.907
N3160 X-54.407 Y58.699
N3170 X-53.908
N3180 X-53.408
N3190 X-52.909
N3200 X-52.41
N3210 X-51.911
N3220 X-51.411
N3230 X-50.912
N3240 X-50.413
N3250 X-49.913 Y58.7
N3260 X-49.414
N3270 X-48.915
N3280 X-48.416
N3290 X-47.917
N3300 X-47.417
N3310 X-46.918
N3320 X-46.419
N3330 X-45.92
N3340 X-45.421
N3350 X-44.921
N3360 X-44.422
N3370 X-43.923
N3380 X-43.424
N3390 X-42.925
N3400 X-42.425
N3410 X-41.926
N3420 X-41.427
N3430 X-40.928
N3440 X-40.429
N3450 X-39.93
N3460 X-39.43
N3470 X-38.931
N3480 X-38.432
N3490 X-37.933
N3500 X-37.434
N3510 X-36.935
N3520 X-36.435
N3530 X-35.936
N3540 X-35.437
N3550 X-34.938
N3560 X-34.439
N3570 X-33.94
N3580 X-33.44
N3590 X-32.941
N3600 X-32.442
N3610 X-31.943
N3620 X-31.444
N3630 X-30.945
N3640 X-30.445
N3650 X-29.946
N3660 X-29.447
N3670 X-28.948
N3680 X-28.449
N3690 X-27.95
N3700 X-27.45
N3710 X-26.951
N3720 X-26.452
N3730 X-25.953
N3740 X-25.454
N3750 X-24.955
N3760 X-24.455
N3770 X-23.956
N3780 X-23.457
N3790 X-22.958
N3800 X-22.459
N3810 X-21.96
N3820 X-21.46
N3830 X-20.961
N3840 X-20.462
N3850 X-19.963
N3860 X-19.464
N3870 X-18.965
N3880 X-18.465
N3890 X-17.966
N3900 X-17.467
N3910 X-16.968
N3920 X-16.469
N3930 X-15.97
N3940 X-15.47
N3950 X-14.971
N3960 X-14.472
N3970 X-13.973
N3980 X-13.474
N3990 X-12.975
N4000 X-12.475
N4010 X-11.976
N4020 X-11.477
N4030 X-10.978
N4040 X-10.479
N4050 X-9.98
N4060 X-9.48
N4070 X-8.981
N4080 X-8.482
N4090 X-7.983
N4100 X-7.484
N4110 X-6.985
N4120 X-6.485
N4130 X-5.986
N4140 X-5.487
N4150 X-4.988
N4160 X-4.489
N4170 X-3.99
N4180 X-3.49
N4190 X-2.991
N4200 X-2.492
N4210 X-1.993
N4220 X-1.494
N4230 X-.995
N4240 X-.495
N4250 X.004
N4260 X.503
N4270 X1.002
N4280 X1.501
N4290 X2.
N4300 X2.5
N4310 X2.999
N4320 X3.498
N4330 X3.997
N4340 X4.496
N4350 X4.995
N4360 X5.495
N4370 X5.994
N4380 X6.493
N4390 X6.992
N4400 X7.491
N4410 X7.99
N4420 X8.489
N4430 X8.989
N4440 X9.488
N4450 X9.987
N4460 X10.486
N4470 X10.985
N4480 X11.484
N4490 X11.984
N4500 X12.483
N4510 X12.982
N4520 X13.481
N4530 X13.98
N4540 X14.479
N4550 X14.979
N4560 X15.478
N4570 X15.977
N4580 X16.476
N4590 X16.975
N4600 X17.474
N4610 X17.974
N4620 X18.473
N4630 X18.972
N4640 X19.471
N4650 X19.97
N4660 X20.469
N4670 X20.969
N4680 X21.468
N4690 X21.967
N4700 X22.466
N4710 X22.965
N4720 X23.464
N4730 X23.964
N4740 X24.463
N4750 X24.962
N4760 X25.461
N4770 X25.96
N4780 X26.459
N4790 X26.959
N4800 X27.458
N4810 X27.957
N4820 X28.456
N4830 X28.955
N4840 X29.454
N4850 X29.954
N4860 X30.453
N4870 X30.952
N4880 X31.451
N4890 X31.95
N4900 X32.449
N4910 X32.949
N4920 X33.448
N4930 X33.947
N4940 X34.446
N4950 X34.945
N4960 X35.444
N4970 X35.944
N4980 X36.443
N4990 X36.942
N5000 X37.441
N5010 X37.94
N5020 X38.439
N5030 X38.939
N5040 X39.438
N5050 X39.937
N5060 X40.436
N5070 X40.935
N5080 X41.434
N5090 X41.934
N5100 X42.433
N5110 X42.932
N5120 X43.431
N5130 X43.93
N5140 X44.429
N5150 X44.929
N5160 X45.428
N5170 X45.927
N5180 X46.426
N5190 X46.925
N5200 X47.424
N5210 X47.924
N5220 X48.423
N5230 X48.922
N5240 X49.421
N5250 X49.92
N5260 X50.419
N5270 X50.919
N5280 X51.418
N5290 X51.917
N5300 X52.416
N5310 X52.915
N5320 X53.414
N5330 X53.914
N5340 X54.413
N5350 X54.912
N5360 X55.411
N5370 X55.91
N5380 X56.409
N5390 X56.909
N5400 X57.408
N5410 X57.907
N5420 X58.406
N5430 X58.905
N5440 X59.404
N5450 X59.904
N5460 X60.403
N5470 X60.902
N5480 X61.401
N5490 X61.9
N5500 X62.399
N5510 X62.899
N5520 X63.398
N5530 X63.897
N5540 X64.396
N5550 X64.895
N5560 X65.394
N5570 X65.894
N5580 X66.393
N5590 X66.892
N5600 X67.391
N5610 X67.89
N5620 X68.389
N5630 X68.889
N5640 X69.388
N5650 X69.887
N5660 X70.386
N5670 X70.885
N5680 X71.384
N5690 X71.883
N5700 X72.383
N5710 X72.882
N5720 X73.381
N5730 X73.88
N5740 X74.379
N5750 X74.878
N5760 X75.378
N5770 X75.877
N5780 X76.376
N5790 X76.959 Y58.696
N5800 X77.673 Y58.662
N5810 X78.061 Y58.623
N5820 X78.457 Y58.565
N5830 X78.851 Y58.488
N5840 X79.236 Y58.389
N5850 X79.942 Y58.141
N5860 X80.298 Y57.979
N5870 X80.647 Y57.793
N5880 X80.989 Y57.585
N5890 X81.319 Y57.358
N5900 X81.638 Y57.113
N5910 X81.943 Y56.851
N5920 X82.234 Y56.575
N5930 X82.51 Y56.288
N5940 X82.77 Y55.99
N5950 X83.016 Y55.684
N5960 X83.246 Y55.371
N5970 X83.655 Y54.745
N5980 X84.012 Y54.107
N5990 X84.321 Y53.464
N6000 X84.587 Y52.823
N6010 X84.815 Y52.186
N6020 X85.011 Y51.558
N6030 X85.178 Y50.938
N6040 X85.322 Y50.328
N6050 X85.444 Y49.728
N6060 X85.549 Y49.138
N6070 X85.639 Y48.558
N6080 X85.716 Y47.986
N6090 X85.782 Y47.422
N6100 X85.838 Y46.865
N6110 X85.887 Y46.315
N6120 X85.929 Y45.771
N6130 X85.966 Y45.233
N6140 X85.997 Y44.699
N6150 X86.024 Y44.169
N6160 X86.047 Y43.644
N6170 X86.067 Y43.121
N6180 X86.085 Y42.602
N6190 X86.1 Y42.085
N6200 X86.113 Y41.57
N6210 X86.125 Y41.057
N6220 X86.134 Y40.546
N6230 X86.143 Y40.036
N6240 X86.15 Y39.528
N6250 X86.157 Y39.021
N6260 X86.163 Y38.515
N6270 X86.167 Y38.01
N6280 X86.172 Y37.506
N6290 X86.175 Y37.002
N6300 X86.179 Y36.499
N6310 X86.181 Y35.996
N6320 X86.184 Y35.494
N6330 X86.186 Y34.992
N6340 X86.188 Y34.491
N6350 X86.189 Y33.99
N6360 X86.191 Y33.489
N6370 X86.192 Y32.988
N6380 X86.193 Y32.488
N6390 X86.194 Y31.987
N6400 X86.195 Y31.487
N6410 Y30.987
N6420 X86.196 Y30.487
N6430 Y29.987
N6440 X86.197 Y29.488
N6450 Y28.988
N6460 X86.198 Y28.488
N6470 Y27.989
N6480 Y27.489
N6490 Y26.99
N6500 X86.199 Y26.49
N6510 Y25.991
N6520 Y25.492
N6530 Y24.992
N6540 Y24.493
N6550 Y23.994
N6560 Y23.495
N6570 Y22.995
N6580 X86.2 Y22.496
N6590 Y21.997
N6600 Y21.498
N6610 Y20.998
N6620 Y20.499
N6630 Y20.
N6640 Y19.501
N6650 Y19.001
N6660 Y18.502
N6670 Y18.003
N6680 Y17.504
N6690 Y17.005
N6700 Y16.506
N6710 Y16.006
N6720 Y15.507
N6730 Y15.008
N6740 Y14.509
N6750 Y14.01
N6760 Y13.51
N6770 Y13.011
N6780 Y12.512
N6790 Y12.013
N6800 Y11.514
N6810 Y11.015
N6820 Y10.515
N6830 Y10.016
N6840 Y9.517
N6850 Y9.018
N6860 Y8.519
N6870 Y8.02
N6880 Y7.52
N6890 Y7.021
N6900 Y6.522
N6910 Y6.023
N6920 Y5.524
N6930 Y5.025
N6940 Y4.525
N6950 Y4.026
N6960 Y3.527
N6970 Y3.028
N6980 Y2.529
N6990 Y2.03
N7000 Y1.53
N7010 Y1.031
N7020 Y.532
N7030 Y.033
N7040 Y-.466
N7050 Y-.965
N7060 Y-1.465
N7070 Y-1.964
N7080 Y-2.463
N7090 Y-2.962
N7100 Y-3.461
N7110 Y-3.96
N7120 Y-4.46
N7130 Y-4.959
N7140 Y-5.458
N7150 Y-5.957
N7160 Y-6.456
N7170 Y-6.955
N7180 Y-7.455
N7190 Y-7.954
N7200 Y-8.453
N7210 Y-8.952
N7220 Y-9.451
N7230 Y-9.95
N7240 Y-10.45
N7250 Y-10.949
N7260 Y-11.448
N7270 Y-11.947
N7280 Y-12.446
N7290 Y-12.945
N7300 Y-13.445
N7310 Y-13.944
N7320 Y-14.443
N7330 Y-14.942
N7340 Y-15.441
N7350 Y-15.94
N7360 Y-16.439
N7370 Y-16.939
N7380 Y-17.438
N7390 Y-17.937
N7400 Y-18.436
N7410 Y-18.935
N7420 Y-19.434
N7430 Y-19.934
N7440 Y-20.433
N7450 Y-20.932
N7460 Y-21.431
N7470 Y-21.93
N7480 Y-22.429
N7490 Y-22.929
N7500 Y-23.428
N7510 Y-23.927
N7520 Y-24.426
N7530 Y-24.925
N7540 Y-25.424
N7550 Y-25.924
N7560 Y-26.423
N7570 Y-26.922
N7580 Y-27.421
N7590 Y-27.92
N7600 Y-28.419
N7610 Y-28.919
N7620 Y-29.418
N7630 Y-29.917
N7640 Y-30.416
N7650 Y-30.915
N7660 Y-31.414
N7670 Y-31.914
N7680 Y-32.413
N7690 Y-32.912
N7700 Y-33.411
N7710 Y-33.91
N7720 Y-34.409
N7730 Y-34.909
N7740 Y-35.408
N7750 Y-35.907
N7760 Y-36.406
N7770 Y-36.905
N7780 Y-37.404
N7790 Y-37.904
N7800 Y-38.403
N7810 Y-38.902
N7820 Y-39.401
N7830 Y-39.9
N7840 Y-40.399
N7850 Y-40.899
N7860 Y-41.398
N7870 Y-41.897
N7880 Y-42.396
N7890 Y-42.895
N7900 Y-43.394
N7910 Y-43.894
N7920 Y-44.393
N7930 Y-44.892
N7940 Y-45.391
N7950 Y-45.89
N7960 Y-46.389
N7970 Y-46.889
N7980 Y-47.388
N7990 Y-47.887
N8000 Y-48.386
N8010 Y-48.885
N8020 X86.196 Y-49.472
N8030 X86.161 Y-50.186
N8040 X86.121 Y-50.576
N8050 X86.063 Y-50.971
N8060 X85.984 Y-51.365
N8070 X85.885 Y-51.75
N8080 X85.636 Y-52.456
N8090 X85.472 Y-52.811
N8100 X85.286 Y-53.16
N8110 X85.077 Y-53.501
N8120 X84.849 Y-53.831
N8130 X84.603 Y-54.149
N8140 X84.341 Y-54.454
N8150 X84.065 Y-54.744
N8160 X83.777 Y-55.019
N8170 X83.479 Y-55.279
N8180 X83.173 Y-55.524
N8190 X82.86 Y-55.754
N8200 X82.233 Y-56.162
N8210 X81.595 Y-56.518
N8220 X80.952 Y-56.826
N8230 X80.311 Y-57.091
N8240 X79.674 Y-57.319
N8250 X79.046 Y-57.514
N8260 X78.427 Y-57.681
N8270 X77.817 Y-57.824
N8280 X77.217 Y-57.946
N8290 X76.627 Y-58.051
N8300 X76.047 Y-58.14
N8310 X75.475 Y-58.217
N8320 X74.911 Y-58.283
N8330 X74.355 Y-58.339
N8340 X73.805 Y-58.388
N8350 X73.261 Y-58.43
N8360 X72.723 Y-58.466
N8370 X72.189 Y-58.497
N8380 X71.659 Y-58.524
N8390 X71.134 Y-58.548
N8400 X70.611 Y-58.568
N8410 X70.092 Y-58.585
N8420 X69.575 Y-58.6
N8430 X69.06 Y-58.613
N8440 X68.547 Y-58.625
N8450 X68.036 Y-58.635
N8460 X67.527 Y-58.643
N8470 X67.019 Y-58.651
N8480 X66.512 Y-58.657
N8490 X66.006 Y-58.663
N8500 X65.501 Y-58.668
N8510 X64.996 Y-58.672
N8520 X64.492 Y-58.675
N8530 X63.989 Y-58.679
N8540 X63.487 Y-58.681
N8550 X62.985 Y-58.684
N8560 X62.483 Y-58.686
N8570 X61.981 Y-58.688
N8580 X61.48 Y-58.689
N8590 X60.979 Y-58.691
N8600 X60.479 Y-58.692
N8610 X59.978 Y-58.693
N8620 X59.478 Y-58.694
N8630 X58.978 Y-58.695
N8640 X58.478
N8650 X57.978 Y-58.696
N8660 X57.478
N8670 X56.978 Y-58.697
N8680 X56.479
N8690 X55.979 Y-58.698
N8700 X55.479
N8710 X54.98
N8720 X54.481
N8730 X53.981 Y-58.699
N8740 X53.482
N8750 X52.982
N8760 X52.483
N8770 X51.984
N8780 X51.484
N8790 X50.985
N8800 X50.486
N8810 X49.987 Y-58.7
N8820 X49.487
N8830 X48.988
N8840 X48.489
N8850 X47.99
N8860 X47.491
N8870 X46.991
N8880 X46.492
N8890 X45.993
N8900 X45.494
N8910 X44.995
N8920 X44.495
N8930 X43.996
N8940 X43.497
N8950 X42.998
N8960 X42.499
N8970 X42.
N8980 X41.5
N8990 X41.001
N9000 X40.502
N9010 X40.003
N9020 X39.504
N9030 X39.004
N9040 X38.505
N9050 X38.006
N9060 X37.507
N9070 X37.008
N9080 X36.509
N9090 X36.009
N9100 X35.51
N9110 X35.011
N9120 X34.512
N9130 X34.013
N9140 X33.514
N9150 X33.014
N9160 X32.515
N9170 X32.016
N9180 X31.517
N9190 X31.018
N9200 X30.519
N9210 X30.019
N9220 X29.52
N9230 X29.021
N9240 X28.522
N9250 X28.023
N9260 X27.524
N9270 X27.024
N9280 X26.525
N9290 X26.026
N9300 X25.527
N9310 X25.028
N9320 X24.529
N9330 X24.029
N9340 X23.53
N9350 X23.031
N9360 X22.532
N9370 X22.033
N9380 X21.534
N9390 X21.034
N9400 X20.535
N9410 X20.036
N9420 X19.537
N9430 X19.038
N9440 X18.539
N9450 X18.039
N9460 X17.54
N9470 X17.041
N9480 X16.542
N9490 X16.043
N9500 X15.544
N9510 X15.044
N9520 X14.545
N9530 X14.046
N9540 X13.547
N9550 X13.048
N9560 X12.549
N9570 X12.05
N9580 X11.55
N9590 X11.051
N9600 X10.552
N9610 X10.053
N9620 X9.554
N9630 X9.055
N9640 X8.555
N9650 X8.056
N9660 X7.557
N9670 X7.058
N9680 X6.559
N9690 X6.06
N9700 X5.56
N9710 X5.061
N9720 X4.562
N9730 X4.063
N9740 X3.564
N9750 X3.065
N9760 X2.565
N9770 X2.066
N9780 X1.567
N9790 X1.068
N9800 X.569
N9810 X.07
N9820 X-.43
N9830 X-.929
N9840 X-1.428
N9850 X-1.927
N9860 X-2.426
N9870 X-2.925
N9880 X-3.425
N9890 X-3.924
N9900 X-4.423
N9910 X-4.922
N9920 X-5.421
N9930 X-5.92
N9940 X-6.42
N9950 X-6.919
N9960 X-7.418
N9970 X-7.917
N9980 X-8.416
N9990 X-8.915
N100 X-9.415
N110 X-9.914
N120 X-10.413
N130 X-10.912
N140 X-11.411
N150 X-11.91
N160 X-12.41
N170 X-12.909
N180 X-13.408
N190 X-13.907
N200 X-14.406
N210 X-14.905
N220 X-15.405
N230 X-15.904
N240 X-16.403
N250 X-16.902
N260 X-17.401
N270 X-17.9
N280 X-18.4
N290 X-18.899
N300 X-19.398
N310 X-19.897
N320 X-20.396
N330 X-20.895
N340 X-21.395
N350 X-21.894
N360 X-22.393
N370 X-22.892
N380 X-23.391
N390 X-23.89
N400 X-24.39
N410 X-24.889
N420 X-25.388
N430 X-25.887
N440 X-26.386
N450 X-26.885
N460 X-27.385
N470 X-27.884
N480 X-28.383
N490 X-28.882
N500 X-29.381
N510 X-29.88
N520 X-30.38
N530 X-30.879
N540 X-31.378
N550 X-31.877
N560 X-32.376
N570 X-32.875
N580 X-33.375
N590 X-33.874
N600 X-34.373
N610 X-34.872
N620 X-35.371
N630 X-35.87
N640 X-36.37
N650 X-36.869
N660 X-37.368
N670 X-37.867
N680 X-38.366
N690 X-38.865
N700 X-39.365
N710 X-39.864
N720 X-40.363
N730 X-40.862
N740 X-41.361
N750 X-41.86
N760 X-42.36
N770 X-42.859
N780 X-43.358
N790 X-43.857
N800 X-44.356
N810 X-44.855
N820 X-45.355
N830 X-45.854
N840 X-46.353
N850 X-46.852
N860 X-47.351
N870 X-47.85
N880 X-48.35
N890 X-48.849
N900 X-49.348
N910 X-49.847
N920 X-50.346
N930 X-50.845
N940 X-51.344
N950 X-51.844
N960 X-52.343
N970 X-52.842
N980 X-53.341
N990 X-53.84
N1000 X-54.339
N1010 X-54.839
N1020 X-55.338
N1030 X-55.837
N1040 X-56.336
N1050 X-56.835
N1060 X-57.334
N1070 X-57.834
N1080 X-58.333
N1090 X-58.832
N1100 X-59.331
N1110 X-59.83
N1120 X-60.329
N1130 X-60.829
N1140 X-61.328
N1150 X-61.827
N1160 X-62.326
N1170 X-62.825
N1180 X-63.324
N1190 X-63.824
N1200 X-64.323
N1210 X-64.822
N1220 X-65.321
N1230 X-65.82
N1240 X-66.319
N1250 X-66.819
N1260 X-67.318
N1270 X-67.817
N1280 X-68.316
N1290 X-68.815
N1300 X-69.314
N1310 X-69.814
N1320 X-70.313
N1330 X-70.812
N1340 X-71.311
N1350 X-71.81
N1360 X-72.309
N1370 X-72.809
N1380 X-73.308
N1390 X-73.807
N1400 X-74.306
N1410 X-74.805
N1420 X-75.304
N1430 X-75.804
N1440 X-76.303
N1450 X-76.89 Y-58.684
N1460 X-77.567 Y-58.587
N1470 X-78.264 Y-58.396
N1480 X-78.625 Y-58.259
N1490 X-78.983 Y-58.099
N1500 X-79.335 Y-57.916
N1510 X-79.678 Y-57.711
N1520 X-80.011 Y-57.487
N1530 X-80.331 Y-57.244
N1540 X-80.639 Y-56.985
N1550 X-80.885 Y-56.758
N1560 G3 X-81.241 Y-56.531 I-.814 J-.882
N1570 G2 X-81.694 Y-56.322 I2.366 J5.731
N1580 X-82.129 Y-56.077 I2.819 J5.522
N1590 X-82.543 Y-55.798 I3.254 J5.277
N1600 X-82.933 Y-55.487 I3.668 J4.998
N1610 X-83.259 Y-55.184 I4.058 J4.687
N1620 G1 X-83.612 Y-54.831
N1630 X-83.759 Y-54.684
N1640 G2 X-84.097 Y-54.317 I4.384 J4.384
N1650 X-84.405 Y-53.924 I4.722 J4.017
N1660 X-84.68 Y-53.508 I5.03 J3.624
N1670 X-84.921 Y-53.071 I5.305 J3.208
N1680 X-85.126 Y-52.616 I5.546 J2.771
N1690 X-85.294 Y-52.146 I5.751 J2.316
N1700 X-85.423 Y-51.664 I5.919 J1.846 F50.7
N1710 X-85.513 Y-51.173 I6.048 J1.364 F52.8
N1720 X-85.564 Y-50.677 I6.138 J.873 F54.9
N1730 X-85.575 Y-50.3 I6.189 J.377 F56.4
N1740 G1 Y-49.801 F58.5
N1750 Y-49.302 F60.6
N1760 Y-48.802 F62.7
N1770 Y-48.303 F64.8
N1780 Y-47.804 F66.8
N1790 Y-47.305 F68.9
N1800 Y-46.806 F71.
N1810 Y-46.307 F73.1
N1820 Y-45.807 F75.2
N1830 Y-45.308 F77.2
N1840 Y-44.809 F79.3
N1850 Y-44.31 F81.4
N1860 Y-43.811 F83.5
N1870 Y-43.312 F85.6
N1880 Y-42.812 F87.6
N1890 Y-42.313 F89.7
N1900 Y-41.814 F91.8
N1910 Y-41.315 F93.9
N1920 Y-40.816 F95.9
N1930 Y-40.317 F98.
N1940 Y-39.817 F100.
N1950 Y-39.318
N1960 Y-38.819
N1970 Y-38.32
N1980 Y-37.821
N1990 Y-37.322
N2000 Y-36.822
N2010 Y-36.323
N2020 Y-35.824
N2030 Y-35.325
N2040 Y-34.826
N2050 Y-34.327
N2060 Y-33.827
N2070 Y-33.328
N2080 Y-32.829
N2090 Y-32.33
N2100 Y-31.831
N2110 Y-31.332
N2120 Y-30.832
N2130 Y-30.333
N2140 Y-29.834
N2150 Y-29.335
N2160 Y-28.836
N2170 Y-28.337
N2180 Y-27.837
N2190 Y-27.338
N2200 Y-26.839
N2210 Y-26.34
N2220 Y-25.841
N2230 Y-25.342
N2240 Y-24.843
N2250 Y-24.343
N2260 Y-23.844
N2270 Y-23.345
N2280 Y-22.846
N2290 Y-22.347
N2300 Y-21.848
N2310 Y-21.348
N2320 Y-20.849
N2330 Y-20.35
N2340 Y-19.851
N2350 Y-19.352
N2360 Y-18.853
N2370 Y-18.353
N2380 Y-17.946
N2390 G2 X-85.555 Y-17.447 I6.2 J0.
N2400 X-85.495 Y-16.952 I6.18 J-.499
N2410 G1 X-85.437 Y-16.553
N2420 X-85.385 Y-16.139
N2430 X-85.339 Y-15.714
N2440 X-85.298 Y-15.279
N2450 X-85.261 Y-14.834
N2460 X-85.229 Y-14.383
N2470 X-85.2 Y-13.924
N2480 X-85.175 Y-13.46
N2490 X-85.153 Y-12.992
N2500 X-85.134 Y-12.519
N2510 X-85.117 Y-12.043
N2520 X-85.102 Y-11.564
N2530 X-85.089 Y-11.082
N2540 X-85.077 Y-10.598
N2550 X-85.067 Y-10.111
N2560 X-85.059 Y-9.623
N2570 X-85.051 Y-9.134
N2580 X-85.045 Y-8.643
N2590 X-85.039 Y-8.152
N2600 X-85.034 Y-7.659
N2610 X-85.03 Y-7.165
N2620 X-85.026 Y-6.671
N2630 X-85.022 Y-6.176
N2640 X-85.019 Y-5.681
N2650 X-85.017 Y-5.185
N2660 X-85.015 Y-4.688
N2670 X-85.013 Y-4.191
N2680 X-85.011 Y-3.694
N2690 X-85.01 Y-3.197
N2700 X-85.008 Y-2.699
N2710 X-85.007 Y-2.202
N2720 X-85.006 Y-1.704
N2730 Y-1.206
N2740 X-85.005 Y-.707
N2750 X-85.004 Y-.209
N2760 Y.29
N2770 X-85.003 Y.788
N2780 Y1.287
N2790 X-85.002 Y1.785
N2800 Y2.284
N2810 Y2.783
N2820 Y3.282
N2830 X-85.001 Y3.781
N2840 Y4.28
N2850 Y4.779
N2860 Y5.278
N2870 Y5.777
N2880 Y6.276
N2890 Y6.775
N2900 Y7.274
N2910 X-85. Y7.773
N2920 Y8.272
N2930 Y8.771
N2940 Y9.27
N2950 Y9.769
N2960 Y10.268
N2970 Y10.768
N2980 Y11.267
N2990 Y11.766
N3000 Y12.265
N3010 Y12.764
N3020 Y13.263
N3030 Y13.762
N3040 Y14.262
N3050 Y14.328
N3060 G3 X-85.093 Y14.791 I-1.2 J0.
N3070 G2 X-85.267 Y15.259 I5.718 J2.396
N3080 X-85.403 Y15.739 I5.892 J1.928
N3090 X-85.5 Y16.229 I6.028 J1.448
N3100 X-85.558 Y16.724 I6.125 J.958
N3110 X-85.575 Y17.187 I6.183 J.463
N3120 G1 Y17.687
N3130 Y18.186
N3140 Y18.685
N3150 Y19.184
N3160 Y19.683
N3170 Y20.182
N3180 Y20.682
N3190 Y21.181
N3200 Y21.68
N3210 Y22.179
N3220 Y22.678
N3230 Y23.177
N3240 Y23.677
N3250 Y24.176
N3260 Y24.675
N3270 Y25.174
N3280 Y25.673
N3290 Y26.172
N3300 Y26.672
N3310 Y27.171
N3320 Y27.67
N3330 Y28.169
N3340 Y28.668
N3350 Y29.167
N3360 Y29.667
N3370 Y30.166
N3380 Y30.665
N3390 Y31.164
N3400 Y31.663
N3410 Y32.162
N3420 Y32.662
N3430 Y33.161
N3440 Y33.66
N3450 Y34.159
N3460 Y34.658
N3470 Y35.157
N3480 Y35.657
N3490 Y36.156
N3500 Y36.655
N3510 Y37.154
N3520 Y37.653
N3530 Y38.152
N3540 Y38.651
N3550 Y39.151
N3560 Y39.65
N3570 Y40.149
N3580 Y40.648
N3590 Y41.147
N3600 Y41.646
N3610 Y42.146
N3620 Y42.645
N3630 Y43.144
N3640 Y43.643
N3650 Y44.142
N3660 Y44.641
N3670 Y45.141
N3680 Y45.64
N3690 Y46.088
N3700 G2 X-85.555 Y46.587 I6.2 J0.
N3710 X-85.495 Y47.082 I6.18 J-.499
N3720 X-85.484 Y47.144 I6.12 J-.994
N3730 G1 X-85.379 Y47.755
N3740 X-85.209 Y48.477
N3750 X-85.099 Y48.849
N3760 X-84.972 Y49.219
N3770 X-84.831 Y49.583
N3780 X-84.675 Y49.942
N3790 X-84.503 Y50.294
N3800 X-84.318 Y50.638
N3810 X-84.119 Y50.973
N3820 X-83.906 Y51.3
N3830 X-83.683 Y51.615
N3840 X-83.447 Y51.922
N3850 X-83.201 Y52.217
N3860 X-82.692 Y52.764
N3870 X-82.152 Y53.268
N3880 X-81.588 Y53.729
N3890 X-81.005 Y54.148
N3900 X-80.409 Y54.526
N3910 X-79.805 Y54.866
N3920 X-79.195 Y55.17
N3930 X-78.584 Y55.441
N3940 X-77.974 Y55.682
N3950 X-77.366 Y55.896
N3960 X-76.762 Y56.085
N3970 X-76.164 Y56.252
N3980 X-75.571 Y56.4
N3990 X-74.985 Y56.53
N4000 X-74.404 Y56.645
N4010 X-73.83 Y56.746
N4020 X-73.262 Y56.835
N4030 X-72.7 Y56.914
N4040 X-72.144 Y56.983
N4050 X-71.593 Y57.044
N4060 X-71.046 Y57.098
N4070 X-70.505 Y57.145
N4080 X-69.967 Y57.187
N4090 X-69.433 Y57.224
N4100 X-68.903 Y57.256
N4110 X-68.376 Y57.285
N4120 X-67.852 Y57.31
N4130 X-67.331 Y57.332
N4140 X-66.811 Y57.352
N4150 X-66.295 Y57.369
N4160 X-65.78 Y57.385
N4170 X-65.266 Y57.398
N4180 X-64.754 Y57.41
N4190 X-64.244 Y57.421
N4200 X-63.735 Y57.43
N4210 X-63.227 Y57.438
N4220 X-62.72 Y57.446
N4230 X-62.214 Y57.452
N4240 X-61.709 Y57.458
N4250 X-61.204 Y57.463
N4260 X-60.7 Y57.467
N4270 X-60.197 Y57.471
N4280 X-59.694 Y57.475
N4290 X-59.191 Y57.478
N4300 X-58.689 Y57.48
N4310 X-58.187 Y57.483
N4320 X-57.686 Y57.485
N4330 X-57.184 Y57.486
N4340 X-56.683 Y57.488
N4350 X-56.183 Y57.49
N4360 X-55.682 Y57.491
N4370 X-55.182 Y57.492
N4380 X-54.681 Y57.493
N4390 X-54.181 Y57.494
N4400 X-53.681
N4410 X-53.181 Y57.495
N4420 X-52.681 Y57.496
N4430 X-52.182
N4440 X-51.682 Y57.497
N4450 X-51.182
N4460 X-50.683
N4470 X-50.183 Y57.498
N4480 X-49.684
N4490 X-49.184
N4500 X-48.685
N4510 X-48.186 Y57.499
N4520 X-47.686
N4530 X-47.187
N4540 X-46.688
N4550 X-46.188
N4560 X-45.689
N4570 X-45.19
N4580 X-44.691
N4590 X-44.191
N4600 X-43.692 Y57.5
N4610 X-43.193
N4620 X-42.694
N4630 X-42.194
N4640 X-41.695
N4650 X-41.196
N4660 X-40.697
N4670 X-40.198
N4680 X-39.698
N4690 X-39.199
N4700 X-38.7
N4710 X-38.201
N4720 X-37.702
N4730 X-37.202
N4740 X-36.703
N4750 X-36.204
N4760 X-35.705
N4770 X-35.206
N4780 X-34.707
N4790 X-34.207
N4800 X-33.708
N4810 X-33.209
N4820 X-32.71
N4830 X-32.211
N4840 X-31.712
N4850 X-31.212
N4860 X-30.713
N4870 X-30.214
N4880 X-29.715
N4890 X-29.216
N4900 X-28.717
N4910 X-28.217
N4920 X-27.718
N4930 X-27.219
N4940 X-26.72
N4950 X-26.221
N4960 X-25.722
N4970 X-25.222
N4980 X-24.723
N4990 X-24.224
N5000 X-23.725
N5010 X-23.226
N5020 X-22.727
N5030 X-22.227
N5040 X-21.728
N5050 X-21.229
N5060 X-20.73
N5070 X-20.231
N5080 X-19.732
N5090 X-19.232
N5100 X-18.733
N5110 X-18.234
N5120 X-17.735
N5130 X-17.236
N5140 X-16.737
N5150 X-16.237
N5160 X-15.738
N5170 X-15.239
N5180 X-14.74
N5190 X-14.241
N5200 X-13.742
N5210 X-13.242
N5220 X-12.743
N5230 X-12.244
N5240 X-11.745
N5250 X-11.246
N5260 X-10.747
N5270 X-10.247
N5280 X-9.748
N5290 X-9.249
N5300 X-8.75
N5310 X-8.251
N5320 X-7.752
N5330 X-7.252
N5340 X-6.753
N5350 X-6.254
N5360 X-5.755
N5370 X-5.256
N5380 X-4.757
N5390 X-4.257
N5400 X-3.758
N5410 X-3.259
N5420 X-2.76
N5430 X-2.261
N5440 X-1.762
N5450 X-1.262
N5460 X-.763
N5470 X-.264
N5480 X.235
N5490 X.734
N5500 X1.233
N5510 X1.733
N5520 X2.232
N5530 X2.731
N5540 X3.23
N5550 X3.729
N5560 X4.228
N5570 X4.728
N5580 X5.227
N5590 X5.726
N5600 X6.225
N5610 X6.724
N5620 X7.223
N5630 X7.723
N5640 X8.222
N5650 X8.721
N5660 X9.22
N5670 X9.719
N5680 X10.218
N5690 X10.718
N5700 X11.217
N5710 X11.716
N5720 X12.215
N5730 X12.714
N5740 X13.213
N5750 X13.713
N5760 X14.212
N5770 X14.711
N5780 X15.21
N5790 X15.709
N5800 X16.208
N5810 X16.708
N5820 X17.207
N5830 X17.706
N5840 X18.205
N5850 X18.704
N5860 X19.203
N5870 X19.703
N5880 X20.202
N5890 X20.701
N5900 X21.2
N5910 X21.699
N5920 X22.198
N5930 X22.698
N5940 X23.197
N5950 X23.696
N5960 X24.195
N5970 X24.694
N5980 X25.193
N5990 X25.693
N6000 X26.192
N6010 X26.691
N6020 X27.19
N6030 X27.689
N6040 X28.188
N6050 X28.688
N6060 X29.187
N6070 X29.686
N6080 X30.185
N6090 X30.684
N6100 X31.183
N6110 X31.683
N6120 X32.182
N6130 X32.681
N6140 X33.18
N6150 X33.679
N6160 X34.178
N6170 X34.677
N6180 X35.177
N6190 X35.676
N6200 X36.175
N6210 X36.674
N6220 X37.173
N6230 X37.672
N6240 X38.172
N6250 X38.671
N6260 X39.17
N6270 X39.669
N6280 X40.168
N6290 X40.667
N6300 X41.167
N6310 X41.666
N6320 X42.165
N6330 X42.664
N6340 X43.163
N6350 X43.662
N6360 X44.162
N6370 X44.661
N6380 X45.16
N6390 X45.659
N6400 X46.158
N6410 X46.657
N6420 X47.157
N6430 X47.656
N6440 X48.155
N6450 X48.654
N6460 X49.153
N6470 X49.652
N6480 X50.152
N6490 X50.651
N6500 X51.15
N6510 X51.649
N6520 X52.148
N6530 X52.647
N6540 X53.147
N6550 X53.646
N6560 X54.145
N6570 X54.644
N6580 X55.143
N6590 X55.642
N6600 X56.142
N6610 X56.641
N6620 X57.14
N6630 X57.639
N6640 X58.138
N6650 X58.637
N6660 X59.137
N6670 X59.636
N6680 X60.135
N6690 X60.634
N6700 X61.133
N6710 X61.632
N6720 X62.132
N6730 X62.631
N6740 X63.13
N6750 X63.629
N6760 X64.128
N6770 X64.627
N6780 X65.127
N6790 X65.626
N6800 X66.125
N6810 X66.624
N6820 X67.123
N6830 X67.622
N6840 X68.122
N6850 X68.621
N6860 X69.12
N6870 X69.619
N6880 X70.118
N6890 X70.617
N6900 X71.117
N6910 X71.616
N6920 X72.115
N6930 X72.614
N6940 X73.116
N6950 X73.638 Y57.498
N6960 X74.247 Y57.489
N6970 X74.628 Y57.469
N6980 X75.018 Y57.434
N6990 X75.411 Y57.381
N7000 X75.803 Y57.31
N7010 X76.191 Y57.22
N7020 X76.575 Y57.112
N7030 X76.953 Y56.987
N7040 X77.325 Y56.844
N7050 X77.69 Y56.685
N7060 X78.045 Y56.509
N7070 X78.392 Y56.318
N7080 X78.729 Y56.112
N7090 X79.055 Y55.894
N7100 X79.371 Y55.662
N7110 X79.675 Y55.419
N7120 X79.968 Y55.166
N7130 X80.248 Y54.903
N7140 X80.764 Y54.364
N7150 X81.235 Y53.799
N7160 X81.661 Y53.214
N7170 X82.045 Y52.615
N7180 X82.388 Y52.007
N7190 X82.695 Y51.395
N7200 X82.968 Y50.78
N7210 X83.209 Y50.168
N7220 X83.423 Y49.558
N7230 X83.611 Y48.953
N7240 X83.777 Y48.353
N7250 X83.923 Y47.759
N7260 X84.052 Y47.172
N7270 X84.166 Y46.591
N7280 X84.265 Y46.017
N7290 X84.353 Y45.449
N7300 X84.43 Y44.887
N7310 X84.498 Y44.331
N7320 X84.557 Y43.78
N7330 X84.61 Y43.234
N7340 X84.656 Y42.693
N7350 X84.697 Y42.156
N7360 X84.733 Y41.622
N7370 X84.752 Y41.31
N7380 G3 X84.884 Y40.832 I1.198 J.073
N7390 G2 X85.095 Y40.38 I-5.509 J-2.845
N7400 X85.268 Y39.912 I-5.72 J-2.393
N7410 X85.404 Y39.432 I-5.893 J-1.925
N7420 X85.501 Y38.943 I-6.029 J-1.445
N7430 X85.558 Y38.447 I-6.126 J-.956
N7440 X85.575 Y37.987 I-6.183 J-.46
N7450 G1 Y37.488
N7460 Y36.989
N7470 Y36.49
N7480 Y35.99
N7490 Y35.491
N7500 Y34.992
N7510 Y34.493
N7520 Y33.994
N7530 Y33.495
N7540 Y32.995
N7550 Y32.496
N7560 Y31.997
N7570 Y31.498
N7580 Y30.999
N7590 Y30.5
N7600 Y30.
N7610 Y29.501
N7620 Y29.002
N7630 Y28.503
N7640 Y28.004
N7650 Y27.505
N7660 Y27.005
N7670 Y26.506
N7680 Y26.007
N7690 Y25.508
N7700 Y25.009
N7710 Y24.51
N7720 Y24.01
N7730 Y23.511
N7740 Y23.012
N7750 Y22.513
N7760 Y22.014
N7770 Y21.515
N7780 Y21.015
N7790 Y20.516
N7800 Y20.017
N7810 Y19.518
N7820 Y19.019
N7830 Y18.52
N7840 Y18.02
N7850 Y17.521
N7860 Y17.022
N7870 Y16.523
N7880 Y16.024
N7890 Y15.525
N7900 Y15.025
N7910 Y14.526
N7920 Y14.027
N7930 Y13.528
N7940 Y13.029
N7950 Y12.53
N7960 Y12.03
N7970 Y11.531
N7980 Y11.032
N7990 Y10.533
N8000 Y10.034
N8010 Y9.535
N8020 Y9.035
N8030 Y8.536
N8040 Y8.037
N8050 Y7.538
N8060 Y7.039
N8070 Y6.54
N8080 Y6.041
N8090 Y5.541
N8100 Y5.042
N8110 Y4.543
N8120 Y4.044
N8130 Y3.545
N8140 Y3.046
N8150 Y2.546
N8160 Y2.047
N8170 Y1.548
N8180 Y1.049
N8190 Y.55
N8200 Y.051
N8210 Y-.449
N8220 Y-.948
N8230 Y-1.447
N8240 Y-1.946
N8250 Y-2.445
N8260 Y-2.944
N8270 Y-3.444
N8280 Y-3.943
N8290 Y-4.442
N8300 Y-4.941
N8310 Y-5.44
N8320 Y-5.939
N8330 Y-6.439
N8340 Y-6.938
N8350 Y-7.437
N8360 Y-7.936
N8370 Y-8.435
N8380 Y-8.934
N8390 Y-9.434
N8400 Y-9.933
N8410 Y-10.432
N8420 Y-10.931
N8430 Y-11.43
N8440 Y-11.929
N8450 Y-12.429
N8460 Y-12.928
N8470 Y-13.427
N8480 Y-13.926
N8490 Y-14.425
N8500 Y-14.924
N8510 Y-15.424
N8520 Y-15.923
N8530 Y-16.422
N8540 Y-16.921
N8550 Y-17.42
N8560 Y-17.919
N8570 Y-18.419
N8580 Y-18.918
N8590 Y-19.417
N8600 Y-19.916
N8610 Y-20.415
N8620 Y-20.914
N8630 Y-21.414
N8640 Y-21.913
N8650 Y-22.412
N8660 Y-22.911
N8670 Y-23.41
N8680 Y-23.909
N8690 Y-24.409
N8700 Y-24.908
N8710 Y-25.407
N8720 Y-25.906
N8730 Y-26.405
N8740 Y-26.904
N8750 Y-27.404
N8760 Y-27.903
N8770 Y-28.402
N8780 Y-28.901
N8790 Y-29.4
N8800 Y-29.899
N8810 Y-30.399
N8820 Y-30.898
N8830 Y-31.397
N8840 Y-31.896
N8850 Y-32.395
N8860 Y-32.894
N8870 Y-33.394
N8880 Y-33.893
N8890 Y-34.392
N8900 Y-34.891
N8910 Y-35.39
N8920 Y-35.889
N8930 Y-36.389
N8940 Y-36.888
N8950 Y-37.387
N8960 Y-37.886
N8970 Y-38.385
N8980 Y-38.884
N8990 Y-39.384
N9000 Y-39.883
N9010 Y-40.382
N9020 Y-40.881
N9030 Y-41.38
N9040 Y-41.879
N9050 Y-42.379
N9060 Y-42.878
N9070 Y-43.377
N9080 Y-43.876
N9090 Y-44.375
N9100 Y-44.874
N9110 Y-45.374
N9120 Y-45.873
N9130 Y-46.372
N9140 Y-46.871
N9150 Y-47.37
N9160 Y-47.869
N9170 Y-48.369
N9180 Y-48.868
N9190 Y-49.367
N9200 Y-49.866
N9210 Y-50.3
N9220 G2 X85.555 Y-50.799 I-6.2 J0.
N9230 X85.495 Y-51.294 I-6.18 J.499
N9240 X85.395 Y-51.783 I-6.12 J.994
N9250 X85.256 Y-52.262 I-6.02 J1.483
N9260 X85.079 Y-52.729 I-5.881 J1.962
N9270 X84.866 Y-53.18 I-5.704 J2.429
N9280 X84.616 Y-53.612 I-5.491 J2.88
N9290 X84.333 Y-54.023 I-5.241 J3.312
N9300 X84.017 Y-54.409 I-4.958 J3.723
N9310 X83.759 Y-54.684 I-4.642 J4.109
N9320 G1 X83.406 Y-55.037
N9330 X83.259 Y-55.184
N9340 G2 X82.892 Y-55.522 I-4.384 J4.384
N9350 X82.499 Y-55.83 I-4.017 J4.722
N9360 X82.083 Y-56.105 I-3.624 J5.03
N9370 X81.646 Y-56.346 I-3.208 J5.305
N9380 X81.191 Y-56.551 I-2.771 J5.546
N9390 X80.721 Y-56.719 I-2.316 J5.751
N9400 X80.239 Y-56.848 I-1.846 J5.919
N9410 X79.748 Y-56.938 I-1.364 J6.048
N9420 X79.252 Y-56.988 I-.873 J6.138
N9430 X78.875 Y-57. I-.377 J6.188
N9440 G1 X78.717
N9450 X78.295 Y-57.005
N9460 X77.852 Y-57.017
N9470 X77.392 Y-57.034
N9480 X76.919 Y-57.054
N9490 X76.436 Y-57.077
N9500 X75.945 Y-57.102
N9510 X75.449 Y-57.127
N9520 X74.948 Y-57.153
N9530 X74.444 Y-57.179
N9540 X73.937 Y-57.203
N9550 X73.429 Y-57.227
N9560 X72.919 Y-57.25
N9570 X72.409 Y-57.271
N9580 X71.898 Y-57.292
N9590 X71.388 Y-57.31
N9600 X70.877 Y-57.328
N9610 X70.367 Y-57.344
N9620 X69.858 Y-57.359
N9630 X69.348 Y-57.372
N9640 X68.84 Y-57.385
N9650 X68.331 Y-57.396
N9660 X67.824 Y-57.407
N9670 X67.317 Y-57.416
N9680 X66.81 Y-57.425
N9690 X66.304 Y-57.432
N9700 X65.799 Y-57.439
N9710 X65.294 Y-57.446
N9720 X64.79 Y-57.451
N9730 X64.286 Y-57.457
N9740 X63.782 Y-57.461
N9750 X63.279 Y-57.465
N9760 X62.777 Y-57.469
N9770 X62.274 Y-57.472
N9780 X61.772 Y-57.475
N9790 X61.27 Y-57.478
N9800 X60.769 Y-57.48
N9810 X60.267 Y-57.483
N9820 X59.766 Y-57.485
N9830 X59.265 Y-57.486
N9840 X58.765 Y-57.488
N9850 X58.264 Y-57.489
N9860 X57.764 Y-57.49
N9870 X57.263 Y-57.491
N9880 X56.763 Y-57.492
N9890 X56.263 Y-57.493
N9900 X55.763 Y-57.494
N9910 X55.263 Y-57.495
N9920 X54.764
N9930 X54.264 Y-57.496
N9940 X53.764
N9950 X53.265 Y-57.497
N9960 X52.765
N9970 X52.265
N9980 X51.766 Y-57.498
N9990 X51.267
N100 X50.767
N110 X50.268
N120 X49.768 Y-57.499
N130 X49.269
N140 X48.77
N150 X48.27
N160 X47.771
N170 X47.272
N180 X46.773
N190 X46.273
N200 X45.774
N210 X45.275 Y-57.5
N220 X44.776
N230 X44.276
N240 X43.777
N250 X43.278
N260 X42.779
N270 X42.28
N280 X41.78
N290 X41.281
N300 X40.782
N310 X40.283
N320 X39.784
N330 X39.284
N340 X38.785
N350 X38.286
N360 X37.787
N370 X37.288
N380 X36.789
N390 X36.289
N400 X35.79
N410 X35.291
N420 X34.792
N430 X34.293
N440 X33.793
N450 X33.294
N460 X32.795
N470 X32.296
N480 X31.797
N490 X31.298
N500 X30.798
N510 X30.299
N520 X29.8
N530 X29.301
N540 X28.802
N550 X28.303
N560 X27.803
N570 X27.304
N580 X26.805
N590 X26.306
N600 X25.807
N610 X25.308
N620 X24.808
N630 X24.309
N640 X23.81
N650 X23.311
N660 X22.812
N670 X22.313
N680 X21.813
N690 X21.314
N700 X20.815
N710 X20.316
N720 X19.817
N730 X19.318
N740 X18.819
N750 X18.319
N760 X17.82
N770 X17.321
N780 X16.822
N790 X16.323
N800 X15.824
N810 X15.324
N820 X14.825
N830 X14.326
N840 X13.827
N850 X13.328
N860 X12.829
N870 X12.329
N880 X11.83
N890 X11.331
N900 X10.832
N910 X10.333
N920 X9.834
N930 X9.334
N940 X8.835
N950 X8.336
N960 X7.837
N970 X7.338
N980 X6.839
N990 X6.339
N1000 X5.84
N1010 X5.341
N1020 X4.842
N1030 X4.343
N1040 X3.844
N1050 X3.344
N1060 X2.845
N1070 X2.346
N1080 X1.847
N1090 X1.348
N1100 X.849
N1110 X.349
N1120 X-.15
N1130 X-.649
N1140 X-1.148
N1150 X-1.647
N1160 X-2.146
N1170 X-2.646
N1180 X-3.145
N1190 X-3.644
N1200 X-4.143
N1210 X-4.642
N1220 X-5.141
N1230 X-5.641
N1240 X-6.14
N1250 X-6.639
N1260 X-7.138
N1270 X-7.637
N1280 X-8.136
N1290 X-8.636
N1300 X-9.135
N1310 X-9.634
N1320 X-10.133
N1330 X-10.632
N1340 X-11.131
N1350 X-11.631
N1360 X-12.13
N1370 X-12.629
N1380 X-13.128
N1390 X-13.627
N1400 X-14.126
N1410 X-14.626
N1420 X-15.125
N1430 X-15.624
N1440 X-16.123
N1450 X-16.622
N1460 X-17.121
N1470 X-17.621
N1480 X-18.12
N1490 X-18.619
N1500 X-19.118
N1510 X-19.617
N1520 X-20.116
N1530 X-20.616
N1540 X-21.115
N1550 X-21.614
N1560 X-22.113
N1570 X-22.612
N1580 X-23.111
N1590 X-23.611
N1600 X-24.11
N1610 X-24.609
N1620 X-25.108
N1630 X-25.607
N1640 X-26.106
N1650 X-26.606
N1660 X-27.105
N1670 X-27.604
N1680 X-28.103
N1690 X-28.602
N1700 X-29.101
N1710 X-29.601
N1720 X-30.1
N1730 X-30.599
N1740 X-31.098
N1750 X-31.597
N1760 X-32.096
N1770 X-32.596
N1780 X-33.095
N1790 X-33.594
N1800 X-34.093
N1810 X-34.592
N1820 X-35.091
N1830 X-35.591
N1840 X-36.09
N1850 X-36.589
N1860 X-37.088
N1870 X-37.587
N1880 X-38.086
N1890 X-38.586
N1900 X-39.085
N1910 X-39.584
N1920 X-40.083
N1930 X-40.582
N1940 X-41.081
N1950 X-41.581
N1960 X-42.08
N1970 X-42.579
N1980 X-43.078
N1990 X-43.577
N2000 X-44.076
N2010 X-44.575
N2020 X-45.075
N2030 X-45.574
N2040 X-46.073
N2050 X-46.572
N2060 X-47.071
N2070 X-47.57
N2080 X-48.07
N2090 X-48.569
N2100 X-49.068
N2110 X-49.567
N2120 X-50.066
N2130 X-50.565
N2140 X-51.065
N2150 X-51.564
N2160 X-52.063
N2170 X-52.562
N2180 X-53.061
N2190 X-53.56
N2200 X-54.06
N2210 X-54.559
N2220 X-55.058
N2230 X-55.557
N2240 X-56.056
N2250 X-56.555
N2260 X-57.055
N2270 X-57.554
N2280 X-58.053
N2290 X-58.552
N2300 X-59.051
N2310 X-59.55
N2320 X-60.05
N2330 X-60.549
N2340 X-61.048
N2350 X-61.547
N2360 X-62.046
N2370 X-62.545
N2380 X-63.045
N2390 X-63.544
N2400 X-64.043
N2410 X-64.542
N2420 X-65.041
N2430 X-65.54
N2440 X-66.04
N2450 X-66.539
N2460 X-67.038
N2470 X-67.537
N2480 X-68.036
N2490 X-68.535
N2500 X-69.035
N2510 X-69.534
N2520 X-70.033
N2530 X-70.532
N2540 X-71.031
N2550 X-71.53
N2560 X-72.03
N2570 X-72.529
N2580 X-73.157 Y-57.493
N2590 X-73.547 Y-57.471
N2600 X-73.934 Y-57.432
N2610 X-74.663 Y-57.32
N2620 X-75.347 Y-57.171
N2630 X-75.849 Y-57.039
N2640 G3 X-76.153 Y-57. I-.304 J-1.161
N2650 G1 X-76.653
N2660 X-77.152
N2670 X-77.651
N2680 X-78.15
N2690 X-78.649
N2700 X-78.875
N2710 G2 X-79.374 Y-56.98 I0. J6.2
N2720 X-79.869 Y-56.92 I.499 J6.18
N2730 X-80.358 Y-56.82 I.994 J6.12
N2740 X-80.837 Y-56.681 I1.483 J6.02
N2750 X-81.304 Y-56.504 I1.962 J5.881
N2760 X-81.755 Y-56.291 I2.429 J5.704
N2770 G3 X-82.833 Y-55.987 Z-23.485 I-1.254 J-2.391
N2780 G1 X-83.834 Y-55.922 Z-23.472
N2790 G2 X-85.422 Y-55.55 Z-23.45 I.324 J4.96
N2800 X-88.48 Y-50.962 I1.912 J4.588 F10000.
N2810 X-88.476 Y-50.788 I4.97 J0.
N2820 G1 X-87.543 Y-24.245
N2830 G2 X-86.954 Y-21.178 I10.136 J-.356
N2840 X-86.504 Y-20.116 Z-23.465 I9.547 J-3.423 F100.
N2850 G1 X-85.846 Y-18.782 Z-23.485
N2860 G3 X-85.57 Y-17.696 Z-23.5 I-2.422 J1.194
N2870 G2 X-85.495 Y-16.952 I6.195 J-.25
N2880 X-85.395 Y-16.463 I6.12 J-.994
N2890 X-85.256 Y-15.984 I6.02 J-1.483
N2900 X-85.079 Y-15.517 I5.881 J-1.962
N2910 X-85.011 Y-15.363 I5.704 J-2.429
N2920 G1 X-84.914 Y-15.116
N2930 X-84.818 Y-14.837
N2940 X-84.725 Y-14.531
N2950 X-84.637 Y-14.201
N2960 X-84.555 Y-13.849
N2970 X-84.478 Y-13.479
N2980 X-84.408 Y-13.093
N2990 X-84.344 Y-12.693
N3000 X-84.285 Y-12.28
N3010 X-84.233 Y-11.856
N3020 X-84.185 Y-11.424
N3030 X-84.142 Y-10.983
N3040 X-84.104 Y-10.535
N3050 X-84.069 Y-10.08
N3060 X-84.039 Y-9.62
N3070 X-84.011 Y-9.156
N3080 X-83.987 Y-8.687
N3090 X-83.965 Y-8.215
N3100 X-83.946 Y-7.739
N3110 X-83.929 Y-7.261
N3120 X-83.914 Y-6.78
N3130 X-83.901 Y-6.297
N3140 X-83.889 Y-5.812
N3150 X-83.878 Y-5.325
N3160 X-83.869 Y-4.837
N3170 X-83.861 Y-4.347
N3180 X-83.854 Y-3.856
N3190 X-83.847 Y-3.365
N3200 X-83.842 Y-2.872
N3210 X-83.837 Y-2.379
N3220 X-83.832 Y-1.885
N3230 X-83.828 Y-1.39
N3240 X-83.825 Y-.895
N3250 X-83.822 Y-.399
N3260 X-83.819 Y.097
N3270 X-83.817 Y.593
N3280 X-83.815 Y1.09
N3290 X-83.813 Y1.587
N3300 X-83.812 Y2.085
N3310 X-83.81 Y2.582
N3320 X-83.809 Y3.08
N3330 X-83.808 Y3.578
N3340 X-83.807 Y4.076
N3350 X-83.806 Y4.574
N3360 X-83.805 Y5.072
N3370 Y5.571
N3380 X-83.804 Y6.069
N3390 Y6.568
N3400 X-83.803 Y7.066
N3410 Y7.565
N3420 X-83.802 Y8.064
N3430 Y8.563
N3440 Y9.062
N3450 Y9.56
N3460 X-83.801 Y10.059
N3470 Y10.558
N3480 Y11.048
N3490 X-83.804 Y11.5
N3500 X-83.812 Y11.913
N3510 X-83.822 Y12.162
N3520 G3 X-83.942 Y12.643 I-1.199 J-.045
N3530 X-84.041 Y12.809 I-1.079 J-.526
N3540 G2 X-84.312 Y13.228 I5.065 J3.577
N3550 X-84.528 Y13.625 I5.336 J3.158
N3560 G1 X-84.75 Y14.072
N3570 X-84.927 Y14.427
N3580 G2 X-85.131 Y14.882 I5.552 J2.76
N3590 X-85.297 Y15.353 I5.756 J2.305
N3600 G3 X-87.876 Y17.254 Z-23.455 I-2.579 J-.799
N3610 X-88.215 Y17.232 Z-23.45 I0. J-2.7
N3620 X-90.575 Y14.554 I.339 J-2.678 F10000.
N3630 G1 Y14.551
N3640 X-90.554 Y-15.242
N3650 G3 X-88.215 Y-17.916 I2.7 J.002
N3660 X-87.854 Y-17.94 Z-23.455 I.361 J2.676 F100.
N3670 X-85.281 Y-16.061 Z-23.5 I0. J2.7
N3680 G2 X-85.011 Y-15.363 I5.906 J-1.885
N3690 X-84.785 Y-14.918 I5.636 J-2.583
N3700 X-84.6 Y-14.608 I5.41 J-3.028
N3710 G1 X-84.331 Y-14.187
N3720 X-84.216 Y-13.97
N3730 X-84.101 Y-13.724
N3740 X-83.987 Y-13.453
N3750 X-83.877 Y-13.159
N3760 X-83.772 Y-12.843
N3770 X-83.671 Y-12.508
N3780 X-83.577 Y-12.156
N3790 X-83.489 Y-11.787
N3800 X-83.407 Y-11.405
N3810 X-83.331 Y-11.011
N3820 X-83.261 Y-10.605
N3830 X-83.197 Y-10.189
N3840 X-83.138 Y-9.764
N3850 X-83.085 Y-9.331
N3860 X-83.036 Y-8.891
N3870 X-82.992 Y-8.444
N3880 X-82.952 Y-7.992
N3890 X-82.915 Y-7.535
N3900 X-82.882 Y-7.073
N3910 X-82.853 Y-6.608
N3920 X-82.826 Y-6.138
N3930 X-82.802 Y-5.666
N3940 X-82.781 Y-5.191
N3950 X-82.761 Y-4.713
N3960 X-82.744 Y-4.232
N3970 X-82.728 Y-3.75
N3980 X-82.715 Y-3.266
N3990 X-82.702 Y-2.781
N4000 X-82.691 Y-2.293
N4010 X-82.681 Y-1.805
N4020 X-82.672 Y-1.315
N4030 X-82.664 Y-.825
N4040 X-82.657 Y-.333
N4050 X-82.651 Y.159
N4060 X-82.645 Y.652
N4070 X-82.64 Y1.146
N4080 X-82.636 Y1.64
N4090 X-82.632 Y2.135
N4100 X-82.628 Y2.631
N4110 X-82.625 Y3.127
N4120 X-82.622 Y3.623
N4130 X-82.62 Y4.119
N4140 X-82.617 Y4.616
N4150 X-82.615 Y5.113
N4160 X-82.614 Y5.61
N4170 X-82.612 Y6.108
N4180 X-82.611 Y6.605
N4190 X-82.61 Y7.103
N4200 X-82.609 Y7.6
N4210 X-82.608 Y8.093
N4220 Y8.578
N4230 X-82.611 Y9.048
N4240 X-82.618 Y9.483
N4250 X-82.631 Y9.881
N4260 X-82.651 Y10.245
N4270 X-82.681 Y10.579
N4280 X-82.719 Y10.885
N4290 X-82.75 Y11.082
N4300 G3 X-82.928 Y11.545 I-1.185 J-.189
N4310 X-83.131 Y11.784 I-1.007 J-.652
N4320 G2 X-83.488 Y12.133 I4.155 J4.602
N4330 X-83.815 Y12.509 I4.512 J4.253
N4340 X-84.111 Y12.911 I4.839 J3.877
N4350 G3 X-86.347 Y14.098 Z-23.465 I-2.236 J-1.513
N4360 X-87.449 Y13.863 Z-23.45 I0. J-2.7
N4370 X-89.046 Y11.476 I1.102 J-2.465 F10000.
N4380 G1 X-89.76 Y-13.382
N4390 G3 X-89.761 Y-13.46 I2.698 J-.078
N4400 X-87.997 Y-15.992 I2.699 J0.
N4410 X-87.062 Y-16.159 Z-23.463 I.935 J2.532 F100.
N4420 X-84.73 Y-14.821 Z-23.5 I0. J2.699
N4430 G2 X-84.6 Y-14.608 I5.355 J-3.125
N4440 G1 X-84.331 Y-14.187
N4450 X-84.146 Y-13.898
N4460 G2 X-83.86 Y-13.488 I5.225 J-3.338
N4470 X-83.617 Y-13.188 I4.939 J-3.748
N4480 G1 X-83.494 Y-13.004
N4490 X-83.368 Y-12.793
N4500 X-83.241 Y-12.556
N4510 X-83.115 Y-12.295
N4520 X-82.993 Y-12.013
N4530 X-82.875 Y-11.709
N4540 X-82.761 Y-11.388
N4550 X-82.653 Y-11.049
N4560 X-82.551 Y-10.694
N4570 X-82.455 Y-10.326
N4580 X-82.366 Y-9.944
N4590 X-82.282 Y-9.552
N4600 X-82.205 Y-9.148
N4610 X-82.133 Y-8.736
N4620 X-82.067 Y-8.314
N4630 X-82.005 Y-7.886
N4640 X-81.949 Y-7.45
N4650 X-81.898 Y-7.008
N4660 X-81.851 Y-6.56
N4670 X-81.808 Y-6.107
N4680 X-81.769 Y-5.65
N4690 X-81.733 Y-5.189
N4700 X-81.701 Y-4.723
N4710 X-81.671 Y-4.255
N4720 X-81.645 Y-3.783
N4730 X-81.62 Y-3.309
N4740 X-81.598 Y-2.832
N4750 X-81.578 Y-2.353
N4760 X-81.56 Y-1.873
N4770 X-81.544 Y-1.39
N4780 X-81.53 Y-.905
N4790 X-81.516 Y-.42
N4800 X-81.504 Y.068
N4810 X-81.494 Y.556
N4820 X-81.484 Y1.046
N4830 X-81.475 Y1.536
N4840 X-81.468 Y2.027
N4850 X-81.461 Y2.519
N4860 X-81.454 Y3.012
N4870 X-81.449 Y3.506
N4880 X-81.443 Y4.
N4890 X-81.439 Y4.494
N4900 X-81.435 Y4.988
N4910 X-81.432 Y5.479
N4920 X-81.429 Y5.967
N4930 Y6.446
N4940 X-81.431 Y6.915
N4950 X-81.436 Y7.37
N4960 X-81.447 Y7.812
N4970 X-81.462 Y8.239
N4980 X-81.484 Y8.643
N4990 X-81.513 Y9.014
N5000 X-81.549 Y9.352
N5010 X-81.593 Y9.663
N5020 X-81.646 Y9.948
N5030 X-81.705 Y10.208
N5040 X-81.759 Y10.405
N5050 G3 X-81.986 Y10.845 I-1.157 J-.318
N5060 X-82.192 Y11.044 I-.93 J-.758
N5070 G1 X-82.59 Y11.345
N5080 X-82.718 Y11.442
N5090 G2 X-83.103 Y11.759 I3.742 J4.944
N5100 X-83.462 Y12.106 I4.127 J4.627
N5110 G3 X-85.416 Y12.942 Z-23.471 I-1.954 J-1.864
N5120 X-86.912 Y12.49 Z-23.45 I0. J-2.7
N5130 X-88.114 Y10.35 I1.496 J-2.248 F10000.
N5140 G1 X-89.011 Y-12.172
N5150 G3 X-89.013 Y-12.279 I2.698 J-.107
N5160 X-87.405 Y-14.749 I2.7 J0.
N5170 X-86.313 Y-14.98 Z-23.465 I1.092 J2.47 F100.
N5180 X-84.071 Y-13.783 Z-23.5 I0. J2.701
N5190 G2 X-83.617 Y-13.188 I5.15 J-3.453
N5200 X-83.276 Y-12.823 I4.696 J-4.048
N5210 X-83.005 Y-12.571 I4.355 J-4.413
N5220 G1 X-82.877 Y-12.424
N5230 X-82.742 Y-12.251
N5240 X-82.605 Y-12.053
N5250 X-82.466 Y-11.832
N5260 X-82.327 Y-11.588
N5270 X-82.191 Y-11.323
N5280 X-82.058 Y-11.038
N5290 X-81.93 Y-10.735
N5300 X-81.806 Y-10.415
N5310 X-81.689 Y-10.079
N5320 X-81.577 Y-9.728
N5330 X-81.471 Y-9.365
N5340 X-81.371 Y-8.989
N5350 X-81.278 Y-8.602
N5360 X-81.19 Y-8.205
N5370 X-81.109 Y-7.799
N5380 X-81.033 Y-7.384
N5390 X-80.962 Y-6.962
N5400 X-80.897 Y-6.532
N5410 X-80.837 Y-6.097
N5420 X-80.781 Y-5.655
N5430 X-80.73 Y-5.208
N5440 X-80.683 Y-4.757
N5450 X-80.639 Y-4.301
N5460 X-80.6 Y-3.841
N5470 X-80.563 Y-3.378
N5480 X-80.53 Y-2.911
N5490 X-80.499 Y-2.441
N5500 X-80.471 Y-1.969
N5510 X-80.446 Y-1.494
N5520 X-80.423 Y-1.017
N5530 X-80.402 Y-.538
N5540 X-80.383 Y-.057
N5550 X-80.365 Y.426
N5560 X-80.349 Y.91
N5570 X-80.335 Y1.395
N5580 X-80.322 Y1.882
N5590 X-80.31 Y2.369
N5600 X-80.3 Y2.855
N5610 X-80.291 Y3.341
N5620 X-80.284 Y3.824
N5630 X-80.278 Y4.303
N5640 X-80.275 Y4.777
N5650 Y5.245
N5660 X-80.278 Y5.704
N5670 X-80.286 Y6.153
N5680 X-80.299 Y6.59
N5690 X-80.317 Y7.012
N5700 X-80.342 Y7.42
N5710 X-80.374 Y7.812
N5720 X-80.414 Y8.189
N5730 X-80.461 Y8.535
N5740 X-80.514 Y8.852
N5750 X-80.574 Y9.142
N5760 X-80.642 Y9.408
N5770 X-80.709 Y9.631
N5780 G3 X-80.946 Y10.066 I-1.149 J-.345
N5790 X-81.134 Y10.243 I-.912 J-.78
N5800 G1 X-81.532 Y10.544
N5810 X-81.93 Y10.845
N5820 X-82.328 Y11.147
N5830 X-82.718 Y11.442
N5840 G3 X-84.347 Y11.989 Z-23.477 I-1.629 J-2.153
N5850 X-86.185 Y11.268 Z-23.45 I0. J-2.7
N5860 X-87.043 Y9.446 I1.838 J-1.979 F10000.
N5870 G1 X-88.243 Y-11.137
N5880 G3 X-88.248 Y-11.294 I2.695 J-.157
N5890 X-86.974 Y-13.587 I2.7 J0.
N5900 X-85.548 Y-13.994 Z-23.47 I1.426 J2.293 F100.
N5910 X-83.537 Y-13.097 Z-23.5 I0. J2.7
N5920 G2 X-83.005 Y-12.571 I4.616 J-4.139
N5930 X-82.617 Y-12.258 I4.084 J-4.665
N5940 X-82.477 Y-12.157 I3.696 J-4.978
N5950 G1 X-82.353 Y-12.053
N5960 X-82.219 Y-11.925
N5970 X-82.077 Y-11.774
N5980 X-81.93 Y-11.599
N5990 X-81.78 Y-11.402
N6000 X-81.63 Y-11.182
N6010 X-81.48 Y-10.942
N6020 X-81.333 Y-10.682
N6030 X-81.189 Y-10.404
N6040 X-81.049 Y-10.108
N6050 X-80.914 Y-9.795
N6060 X-80.784 Y-9.468
N6070 X-80.66 Y-9.126
N6080 X-80.543 Y-8.772
N6090 X-80.431 Y-8.405
N6100 X-80.325 Y-8.028
N6110 X-80.226 Y-7.64
N6120 X-80.132 Y-7.243
N6130 X-80.045 Y-6.837
N6140 X-79.963 Y-6.424
N6150 X-79.887 Y-6.003
N6160 X-79.815 Y-5.576
N6170 X-79.749 Y-5.142
N6180 X-79.688 Y-4.703
N6190 X-79.631 Y-4.259
N6200 X-79.578 Y-3.81
N6210 X-79.529 Y-3.357
N6220 X-79.484 Y-2.9
N6230 X-79.443 Y-2.439
N6240 X-79.405 Y-1.975
N6250 X-79.37 Y-1.509
N6260 X-79.337 Y-1.039
N6270 X-79.308 Y-.567
N6280 X-79.281 Y-.093
N6290 X-79.256 Y.382
N6300 X-79.234 Y.858
N6310 X-79.214 Y1.334
N6320 X-79.196 Y1.81
N6330 X-79.181 Y2.284
N6340 X-79.169 Y2.756
N6350 X-79.159 Y3.225
N6360 X-79.153 Y3.689
N6370 X-79.151 Y4.148
N6380 X-79.153 Y4.6
N6390 X-79.16 Y5.044
N6400 X-79.173 Y5.48
N6410 X-79.191 Y5.906
N6420 X-79.215 Y6.319
N6430 X-79.247 Y6.719
N6440 X-79.286 Y7.105
N6450 X-79.332 Y7.476
N6460 X-79.385 Y7.818
N6470 X-79.445 Y8.13
N6480 X-79.51 Y8.416
N6490 X-79.583 Y8.677
N6500 X-79.631 Y8.83
N6510 G3 X-79.875 Y9.261 I-1.144 J-.364
N6520 X-80.05 Y9.423 I-.9 J-.795
N6530 G1 X-80.448 Y9.724
N6540 X-80.846 Y10.025
N6550 X-81.245 Y10.327
N6560 X-81.643 Y10.628
N6570 G3 X-83.272 Y11.175 Z-23.477 I-1.629 J-2.153
N6580 X-85.109 Y10.454 Z-23.45 I0. J-2.7
N6590 X-85.963 Y8.7 I1.837 J-1.979 F10000.
N6600 G1 X-87.558 Y-10.388
N6610 G3 X-87.567 Y-10.613 I2.691 J-.225
N6620 X-86.532 Y-12.738 I2.7 J0.
N6630 X-84.867 Y-13.313 Z-23.474 I1.665 J2.125 F100.
N6640 X-83.063 Y-12.622 Z-23.5 I0. J2.7
N6650 G2 X-82.477 Y-12.157 I4.142 J-4.614
N6660 X-82.057 Y-11.887 I3.556 J-5.079
N6670 X-81.868 Y-11.781 I3.136 J-5.349
N6680 G1 X-81.74 Y-11.692
N6690 X-81.6 Y-11.583
N6700 X-81.452 Y-11.451
N6710 X-81.297 Y-11.298
N6720 X-81.139 Y-11.124
N6730 X-80.978 Y-10.929
N6740 X-80.817 Y-10.713
N6750 X-80.657 Y-10.478
N6760 X-80.499 Y-10.224
N6770 X-80.344 Y-9.953
N6780 X-80.193 Y-9.665
N6790 X-80.047 Y-9.361
N6800 X-79.906 Y-9.043
N6810 X-79.77 Y-8.711
N6820 X-79.641 Y-8.366
N6830 X-79.517 Y-8.009
N6840 X-79.399 Y-7.641
N6850 X-79.288 Y-7.262
N6860 X-79.183 Y-6.875
N6870 X-79.083 Y-6.478
N6880 X-78.99 Y-6.074
N6890 X-78.902 Y-5.661
N6900 X-78.819 Y-5.242
N6910 X-78.742 Y-4.817
N6920 X-78.67 Y-4.386
N6930 X-78.603 Y-3.949
N6940 X-78.54 Y-3.508
N6950 X-78.482 Y-3.062
N6960 X-78.428 Y-2.612
N6970 X-78.378 Y-2.158
N6980 X-78.331 Y-1.701
N6990 X-78.289 Y-1.242
N7000 X-78.25 Y-.781
N7010 X-78.214 Y-.318
N7020 X-78.182 Y.146
N7030 X-78.153 Y.61
N7040 X-78.128 Y1.073
N7050 X-78.106 Y1.535
N7060 X-78.088 Y1.995
N7070 X-78.075 Y2.453
N7080 X-78.066 Y2.906
N7090 X-78.061 Y3.356
N7100 X-78.062 Y3.8
N7110 X-78.068 Y4.238
N7120 X-78.079 Y4.668
N7130 X-78.098 Y5.09
N7140 X-78.123 Y5.501
N7150 X-78.155 Y5.899
N7160 X-78.194 Y6.283
N7170 X-78.241 Y6.652
N7180 X-78.295 Y6.994
N7190 X-78.355 Y7.308
N7200 X-78.422 Y7.594
N7210 X-78.495 Y7.856
N7220 X-78.543 Y8.008
N7230 G3 X-78.788 Y8.438 I-1.143 J-.366
N7240 X-78.962 Y8.599 I-.898 J-.796
N7250 G1 X-79.36 Y8.9
N7260 X-79.758 Y9.202
N7270 X-80.156 Y9.503
N7280 X-80.554 Y9.804
N7290 G3 X-82.184 Y10.351 Z-23.477 I-1.63 J-2.153
N7300 X-84.021 Y9.63 Z-23.45 I0. J-2.7
N7310 X-84.868 Y7.938 I1.837 J-1.979 F10000.
N7320 G1 X-86.749 Y-9.686
N7330 G3 X-86.764 Y-9.972 I2.685 J-.286
N7340 X-85.963 Y-11.891 I2.7 J0.
N7350 X-84.064 Y-12.672 Z-23.478 I1.899 J1.919 F100.
N7360 X-82.504 Y-12.176 Z-23.5 I0. J2.7
N7370 G2 X-81.868 Y-11.781 I3.583 J-5.06
N7380 X-81.526 Y-11.61 I2.947 J-5.455
N7390 G1 X-81.151 Y-11.436
N7400 X-81.009 Y-11.344
N7410 X-80.857 Y-11.233
N7420 X-80.697 Y-11.101
N7430 X-80.532 Y-10.949
N7440 X-80.363 Y-10.777
N7450 X-80.192 Y-10.585
N7460 X-80.021 Y-10.374
N7470 X-79.851 Y-10.144
N7480 X-79.682 Y-9.897
N7490 X-79.517 Y-9.633
N7500 X-79.355 Y-9.352
N7510 X-79.198 Y-9.056
N7520 X-79.046 Y-8.746
N7530 X-78.899 Y-8.422
N7540 X-78.758 Y-8.086
N7550 X-78.623 Y-7.738
N7560 X-78.494 Y-7.378
N7570 X-78.371 Y-7.009
N7580 X-78.254 Y-6.63
N7590 X-78.143 Y-6.242
N7600 X-78.037 Y-5.846
N7610 X-77.938 Y-5.442
N7620 X-77.845 Y-5.031
N7630 X-77.757 Y-4.614
N7640 X-77.674 Y-4.191
N7650 X-77.597 Y-3.763
N7660 X-77.524 Y-3.329
N7670 X-77.457 Y-2.892
N7680 X-77.394 Y-2.451
N7690 X-77.336 Y-2.006
N7700 X-77.282 Y-1.559
N7710 X-77.233 Y-1.11
N7720 X-77.188 Y-.66
N7730 X-77.148 Y-.209
N7740 X-77.113 Y.243
N7750 X-77.082 Y.694
N7760 X-77.056 Y1.143
N7770 X-77.034 Y1.591
N7780 X-77.018 Y2.037
N7790 X-77.007 Y2.479
N7800 X-77.002 Y2.917
N7810 X-77.003 Y3.349
N7820 X-77.01 Y3.775
N7830 X-77.024 Y4.194
N7840 X-77.045 Y4.602
N7850 X-77.073 Y4.999
N7860 X-77.109 Y5.383
N7870 X-77.153 Y5.755
N7880 X-77.204 Y6.103
N7890 X-77.262 Y6.421
N7900 X-77.326 Y6.712
N7910 X-77.396 Y6.978
N7920 X-77.459 Y7.18
N7930 G3 X-77.7 Y7.613 I-1.146 J-.356
N7940 X-77.881 Y7.781 I-.905 J-.789
N7950 G1 X-78.279 Y8.082
N7960 X-78.677 Y8.383
N7970 X-79.075 Y8.685
N7980 X-79.473 Y8.986
N7990 G3 X-81.102 Y9.533 Z-23.477 I-1.629 J-2.153
N8000 X-82.94 Y8.812 Z-23.45 I0. J-2.7
N8010 X-83.782 Y7.162 I1.838 J-1.979 F10000.
N8020 G1 X-85.772 Y-9.045
N8030 G3 X-85.792 Y-9.374 I2.68 J-.329
N8040 X-85.221 Y-11.034 I2.7 J0.
N8050 X-83.092 Y-12.074 Z-23.483 I2.129 J1.66 F100.
N8060 X-81.827 Y-11.759 Z-23.5 I0. J2.7
N8070 G2 X-81.526 Y-11.61 I2.906 J-5.477
N8080 G1 X-81.151 Y-11.436
N8090 X-80.698 Y-11.226
N8100 X-80.326 Y-11.054
N8110 X-80.175 Y-10.959
N8120 X-80.014 Y-10.845
N8130 X-79.845 Y-10.71
N8140 X-79.671 Y-10.556
N8150 X-79.494 Y-10.382
N8160 X-79.315 Y-10.188
N8170 X-79.136 Y-9.976
N8180 X-78.958 Y-9.746
N8190 X-78.781 Y-9.499
N8200 X-78.608 Y-9.235
N8210 X-78.439 Y-8.956
N8220 X-78.274 Y-8.662
N8230 X-78.114 Y-8.354
N8240 X-77.96 Y-8.033
N8250 X-77.811 Y-7.7
N8260 X-77.668 Y-7.355
N8270 X-77.531 Y-7.
N8280 X-77.4 Y-6.635
N8290 X-77.275 Y-6.261
N8300 X-77.156 Y-5.878
N8310 X-77.044 Y-5.487
N8320 X-76.937 Y-5.089
N8330 X-76.836 Y-4.684
N8340 X-76.741 Y-4.273
N8350 X-76.651 Y-3.856
N8360 X-76.568 Y-3.435
N8370 X-76.489 Y-3.009
N8380 X-76.417 Y-2.579
N8390 X-76.349 Y-2.147
N8400 X-76.287 Y-1.712
N8410 X-76.23 Y-1.275
N8420 X-76.179 Y-.836
N8430 X-76.133 Y-.397
N8440 X-76.092 Y.042
N8450 X-76.058 Y.481
N8460 X-76.028 Y.919
N8470 X-76.005 Y1.354
N8480 X-75.988 Y1.787
N8490 X-75.977 Y2.216
N8500 X-75.973 Y2.641
N8510 X-75.976 Y3.06
N8520 X-75.986 Y3.472
N8530 X-76.003 Y3.874
N8540 X-76.029 Y4.266
N8550 X-76.063 Y4.644
N8560 X-76.105 Y5.009
N8570 X-76.154 Y5.349
N8580 X-76.21 Y5.661
N8590 X-76.273 Y5.945
N8600 X-76.342 Y6.206
N8610 X-76.395 Y6.374
N8620 G3 X-76.636 Y6.807 I-1.146 J-.355
N8630 X-76.817 Y6.975 I-.905 J-.788
N8640 G1 X-77.215 Y7.277
N8650 X-77.613 Y7.578
N8660 X-78.011 Y7.879
N8670 X-78.409 Y8.18
N8680 G3 X-80.038 Y8.727 Z-23.477 I-1.629 J-2.153
N8690 X-81.875 Y8.006 Z-23.45 I0. J-2.7
N8700 X-82.712 Y6.404 I1.837 J-1.979 F10000.
N8710 G1 X-84.814 Y-8.543
N8720 G3 X-84.84 Y-8.919 I2.674 J-.376
N8730 X-84.356 Y-10.461 I2.7 J0.
N8740 X-82.14 Y-11.619 Z-23.484 I2.216 J1.542 F100.
N8750 X-81.006 Y-11.369 Z-23.5 I0. J2.7
N8760 G1 X-80.326 Y-11.054
N8770 X-79.873 Y-10.844
N8780 X-79.421 Y-10.635
N8790 X-79.264 Y-10.538
N8800 X-79.097 Y-10.421
N8810 X-78.923 Y-10.284
N8820 X-78.744 Y-10.128
N8830 X-78.561 Y-9.952
N8840 X-78.377 Y-9.757
N8850 X-78.192 Y-9.544
N8860 X-78.009 Y-9.313
N8870 X-77.827 Y-9.065
N8880 X-77.649 Y-8.801
N8890 X-77.474 Y-8.522
N8900 X-77.304 Y-8.228
N8910 X-77.139 Y-7.921
N8920 X-76.979 Y-7.602
N8930 X-76.824 Y-7.27
N8940 X-76.676 Y-6.927
N8950 X-76.533 Y-6.574
N8960 X-76.397 Y-6.212
N8970 X-76.267 Y-5.84
N8980 X-76.143 Y-5.461
N8990 X-76.025 Y-5.074
N9000 X-75.913 Y-4.68
N9010 X-75.808 Y-4.28
N9020 X-75.709 Y-3.875
N9030 X-75.616 Y-3.464
N9040 X-75.529 Y-3.049
N9050 X-75.449 Y-2.631
N9060 X-75.374 Y-2.21
N9070 X-75.305 Y-1.786
N9080 X-75.243 Y-1.36
N9090 X-75.187 Y-.933
N9100 X-75.137 Y-.505
N9110 X-75.093 Y-.078
N9120 X-75.056 Y.349
N9130 X-75.025 Y.774
N9140 X-75.002 Y1.197
N9150 X-74.985 Y1.617
N9160 X-74.976 Y2.032
N9170 X-74.974 Y2.441
N9180 X-74.98 Y2.843
N9190 X-74.995 Y3.236
N9200 X-75.018 Y3.618
N9210 X-75.05 Y3.987
N9220 X-75.09 Y4.342
N9230 X-75.138 Y4.668
N9240 X-75.193 Y4.966
N9250 X-75.255 Y5.239
N9260 X-75.324 Y5.49
N9270 X-75.355 Y5.59
N9280 G3 X-75.598 Y6.022 I-1.145 J-.359
N9290 X-75.776 Y6.188 I-.902 J-.791
N9300 G1 X-76.174 Y6.489
N9310 X-76.572 Y6.79
N9320 X-76.97 Y7.092
N9330 X-77.368 Y7.393
N9340 G3 X-78.997 Y7.94 Z-23.477 I-1.629 J-2.153
N9350 X-80.835 Y7.218 Z-23.45 I0. J-2.7
N9360 X-81.662 Y5.674 I1.838 J-1.978 F10000.
N9370 G1 X-83.899 Y-8.065
N9380 G3 X-83.934 Y-8.499 I2.665 J-.434
N9390 X-83.45 Y-10.042 I2.7 J0.
N9400 X-81.234 Y-11.199 Z-23.484 I2.216 J1.543 F100.
N9410 X-80.1 Y-10.949 Z-23.5 I0. J2.7
N9420 G1 X-79.421 Y-10.635
N9430 X-78.968 Y-10.425
N9440 X-78.515 Y-10.215
N9450 X-78.357 Y-10.123
N9460 X-78.189 Y-10.011
N9470 X-78.014 Y-9.879
N9480 X-77.832 Y-9.728
N9490 X-77.646 Y-9.557
N9500 X-77.458 Y-9.366
N9510 X-77.27 Y-9.158
N9520 X-77.082 Y-8.932
N9530 X-76.896 Y-8.689
N9540 X-76.713 Y-8.429
N9550 X-76.533 Y-8.155
N9560 X-76.357 Y-7.867
N9570 X-76.187 Y-7.564
N9580 X-76.021 Y-7.25
N9590 X-75.861 Y-6.924
N9600 X-75.708 Y-6.586
N9610 X-75.56 Y-6.239
N9620 X-75.418 Y-5.883
N9630 X-75.283 Y-5.517
N9640 X-75.155 Y-5.144
N9650 X-75.033 Y-4.764
N9660 X-74.917 Y-4.377
N9670 X-74.808 Y-3.985
N9680 X-74.706 Y-3.587
N9690 X-74.61 Y-3.184
N9700 X-74.521 Y-2.778
N9710 X-74.439 Y-2.368
N9720 X-74.363 Y-1.956
N9730 X-74.295 Y-1.542
N9740 X-74.233 Y-1.126
N9750 X-74.178 Y-.71
N9760 X-74.13 Y-.293
N9770 X-74.09 Y.122
N9780 X-74.057 Y.535
N9790 X-74.032 Y.945
N9800 X-74.015 Y1.352
N9810 X-74.006 Y1.753
N9820 Y2.147
N9830 X-74.014 Y2.532
N9840 X-74.032 Y2.906
N9850 X-74.059 Y3.268
N9860 X-74.095 Y3.613
N9870 X-74.139 Y3.931
N9880 X-74.19 Y4.222
N9890 X-74.249 Y4.489
N9900 X-74.315 Y4.734
N9910 X-74.341 Y4.818
N9920 G3 X-74.582 Y5.251 I-1.147 J-.353
N9930 X-74.764 Y5.422 I-.906 J-.786
N9940 G1 X-75.162 Y5.723
N9950 X-75.56 Y6.024
N9960 X-75.958 Y6.326
N9970 X-76.356 Y6.627
N9980 G3 X-77.986 Y7.174 Z-23.477 I-1.63 J-2.153
N9990 X-79.823 Y6.453 Z-23.45 I0. J-2.7
N100 X-80.64 Y4.969 I1.837 J-1.979 F10000.
N110 G1 X-82.983 Y-7.584
N120 G3 X-83.029 Y-8.08 I2.654 J-.496
N130 X-82.544 Y-9.622 I2.7 J0.
N140 X-80.329 Y-10.779 Z-23.484 I2.215 J1.542 F100.
N150 X-79.194 Y-10.53 Z-23.5 I0. J2.699
N160 G1 X-78.515 Y-10.215
N170 X-78.062 Y-10.005
N180 X-77.609 Y-9.796
N190 X-77.455 Y-9.713
N200 X-77.29 Y-9.611
N210 X-77.115 Y-9.489
N220 X-76.934 Y-9.347
N230 X-76.747 Y-9.186
N240 X-76.557 Y-9.005
N250 X-76.366 Y-8.806
N260 X-76.175 Y-8.589
N270 X-75.986 Y-8.355
N280 X-75.798 Y-8.104
N290 X-75.614 Y-7.839
N300 X-75.434 Y-7.559
N310 X-75.259 Y-7.265
N320 X-75.089 Y-6.959
N330 X-74.924 Y-6.641
N340 X-74.765 Y-6.313
N350 X-74.613 Y-5.974
N360 X-74.466 Y-5.625
N370 X-74.327 Y-5.268
N380 X-74.194 Y-4.903
N390 X-74.068 Y-4.531
N400 X-73.949 Y-4.152
N410 X-73.837 Y-3.768
N420 X-73.732 Y-3.379
N430 X-73.634 Y-2.985
N440 X-73.543 Y-2.588
N450 X-73.46 Y-2.188
N460 X-73.384 Y-1.786
N470 X-73.316 Y-1.382
N480 X-73.256 Y-.977
N490 X-73.204 Y-.573
N500 X-73.159 Y-.17
N510 X-73.123 Y.231
N520 X-73.096 Y.628
N530 X-73.078 Y1.021
N540 X-73.068 Y1.408
N550 X-73.069 Y1.786
N560 X-73.078 Y2.152
N570 X-73.098 Y2.508
N580 X-73.127 Y2.848
N590 X-73.165 Y3.162
N600 X-73.211 Y3.45
N610 X-73.265 Y3.714
N620 X-73.327 Y3.957
N630 X-73.358 Y4.063
N640 G3 X-73.593 Y4.499 I-1.151 J-.339
N650 X-73.785 Y4.681 I-.916 J-.775
N660 G1 X-74.183 Y4.982
N670 X-74.581 Y5.283
N680 X-74.979 Y5.585
N690 X-75.377 Y5.886
N700 G3 X-77.007 Y6.433 Z-23.477 I-1.63 J-2.153
N710 X-78.844 Y5.712 Z-23.45 I0. J-2.7
N720 X-79.648 Y4.293 I1.837 J-1.979 F10000.
N730 G1 X-82.064 Y-7.1
N740 G3 X-82.123 Y-7.66 I2.641 J-.56
N750 X-81.638 Y-9.203 I2.7 J0.
N760 X-79.423 Y-10.359 Z-23.484 I2.215 J1.543 F100.
N770 X-78.288 Y-10.11 Z-23.5 I0. J2.699
N780 G1 X-77.609 Y-9.796
N790 X-77.156 Y-9.586
N800 X-76.703 Y-9.376
N810 X-76.623 Y-9.339
N820 X-76.471 Y-9.259
N830 X-76.306 Y-9.16
N840 X-76.131 Y-9.042
N850 X-75.949 Y-8.903
N860 X-75.762 Y-8.745
N870 X-75.571 Y-8.567
N880 X-75.379 Y-8.372
N890 X-75.186 Y-8.158
N900 X-74.995 Y-7.927
N910 X-74.806 Y-7.68
N920 X-74.62 Y-7.418
N930 X-74.438 Y-7.141
N940 X-74.261 Y-6.852
N950 X-74.089 Y-6.549
N960 X-73.923 Y-6.235
N970 X-73.763 Y-5.91
N980 X-73.609 Y-5.575
N990 X-73.462 Y-5.231
N1000 X-73.322 Y-4.879
N1010 X-73.189 Y-4.52
N1020 X-73.063 Y-4.153
N1030 X-72.945 Y-3.781
N1040 X-72.835 Y-3.403
N1050 X-72.732 Y-3.021
N1060 X-72.637 Y-2.636
N1070 X-72.55 Y-2.248
N1080 X-72.472 Y-1.858
N1090 X-72.401 Y-1.466
N1100 X-72.34 Y-1.075
N1110 X-72.287 Y-.685
N1120 X-72.243 Y-.297
N1130 X-72.208 Y.089
N1140 X-72.183 Y.469
N1150 X-72.168 Y.843
N1160 X-72.163 Y1.208
N1170 X-72.168 Y1.564
N1180 X-72.184 Y1.909
N1190 X-72.209 Y2.235
N1200 X-72.244 Y2.534
N1210 X-72.288 Y2.809
N1220 X-72.339 Y3.062
N1230 X-72.399 Y3.294
N1240 X-72.415 Y3.347
N1250 G3 X-72.649 Y3.784 I-1.151 J-.336
N1260 X-72.842 Y3.967 I-.917 J-.773
N1270 G1 X-73.24 Y4.269
N1280 X-73.638 Y4.57
N1290 X-74.036 Y4.871
N1300 X-74.434 Y5.172
N1310 G3 X-76.064 Y5.719 Z-23.477 I-1.63 J-2.153
N1320 X-77.901 Y4.998 Z-23.45 I0. J-2.7
N1330 X-78.694 Y3.63 I1.837 J-1.979 F10000.
N1340 G1 X-81.067 Y-6.593
N1350 G3 X-81.137 Y-7.204 I2.63 J-.611
N1360 X-80.653 Y-8.746 I2.7 J0.
N1370 X-78.437 Y-9.904 Z-23.484 I2.216 J1.542 F100.
N1380 X-77.303 Y-9.654 Z-23.5 I0. J2.7
N1390 G1 X-76.623 Y-9.339
N1400 X-76.17 Y-9.13
N1410 X-75.717 Y-8.92
N1420 X-75.551 Y-8.843
N1430 X-75.392 Y-8.756
N1440 X-75.221 Y-8.649
N1450 X-75.042 Y-8.523
N1460 X-74.857 Y-8.377
N1470 X-74.667 Y-8.212
N1480 X-74.474 Y-8.028
N1490 X-74.281 Y-7.826
N1500 X-74.088 Y-7.607
N1510 X-73.898 Y-7.371
N1520 X-73.71 Y-7.12
N1530 X-73.526 Y-6.854
N1540 X-73.346 Y-6.575
N1550 X-73.171 Y-6.283
N1560 X-73.003 Y-5.98
N1570 X-72.84 Y-5.665
N1580 X-72.684 Y-5.341
N1590 X-72.535 Y-5.007
N1600 X-72.393 Y-4.665
N1610 X-72.259 Y-4.315
N1620 X-72.132 Y-3.959
N1630 X-72.014 Y-3.597
N1640 X-71.903 Y-3.23
N1650 X-71.801 Y-2.859
N1660 X-71.708 Y-2.485
N1670 X-71.623 Y-2.108
N1680 X-71.547 Y-1.731
N1690 X-71.481 Y-1.353
N1700 X-71.424 Y-.976
N1710 X-71.378 Y-.601
N1720 X-71.341 Y-.23
N1730 X-71.314 Y.136
N1740 X-71.299 Y.493
N1750 X-71.294 Y.84
N1760 X-71.3 Y1.177
N1770 X-71.317 Y1.499
N1780 X-71.344 Y1.795
N1790 X-71.381 Y2.068
N1800 X-71.426 Y2.318
N1810 X-71.48 Y2.55
N1820 X-71.505 Y2.642
N1830 G3 X-71.731 Y3.083 I-1.158 J-.316
N1840 X-71.938 Y3.283 I-.932 J-.757
N1850 G1 X-72.336 Y3.584
N1860 X-72.734 Y3.886
N1870 X-73.132 Y4.187
N1880 X-73.53 Y4.488
N1890 G3 X-75.16 Y5.035 Z-23.477 I-1.63 J-2.153
N1900 X-76.997 Y4.314 Z-23.45 I0. J-2.7
N1910 X-77.783 Y2.975 I1.837 J-1.979 F10000.
N1920 G1 X-79.988 Y-6.068
N1930 G3 X-80.065 Y-6.707 I2.623 J-.639
N1940 X-79.581 Y-8.25 I2.7 J0.
N1950 X-77.365 Y-9.407 Z-23.484 I2.216 J1.543 F100.
N1960 X-76.231 Y-9.158 Z-23.5 I0. J2.7
N1970 G1 X-75.551 Y-8.843
N1980 X-75.098 Y-8.633
N1990 X-74.645 Y-8.423
N2000 X-74.548 Y-8.378
N2010 X-74.393 Y-8.297
N2020 X-74.226 Y-8.196
N2030 X-74.05 Y-8.075
N2040 X-73.866 Y-7.935
N2050 X-73.678 Y-7.775
N2060 X-73.487 Y-7.597
N2070 X-73.295 Y-7.401
N2080 X-73.103 Y-7.187
N2090 X-72.913 Y-6.957
N2100 X-72.726 Y-6.711
N2110 X-72.542 Y-6.451
N2120 X-72.363 Y-6.177
N2130 X-72.19 Y-5.891
N2140 X-72.022 Y-5.593
N2150 X-71.861 Y-5.284
N2160 X-71.707 Y-4.965
N2170 X-71.56 Y-4.638
N2180 X-71.421 Y-4.302
N2190 X-71.291 Y-3.96
N2200 X-71.168 Y-3.611
N2210 X-71.055 Y-3.258
N2220 X-70.95 Y-2.901
N2230 X-70.855 Y-2.541
N2240 X-70.77 Y-2.179
N2250 X-70.694 Y-1.817
N2260 X-70.629 Y-1.455
N2270 X-70.574 Y-1.095
N2280 X-70.529 Y-.739
N2290 X-70.496 Y-.388
N2300 X-70.474 Y-.045
N2310 X-70.464 Y.289
N2320 X-70.465 Y.616
N2330 X-70.477 Y.923
N2340 X-70.5 Y1.205
N2350 X-70.533 Y1.465
N2360 X-70.575 Y1.705
N2370 X-70.626 Y1.927
N2380 X-70.64 Y1.981
N2390 G3 X-70.863 Y2.424 I-1.16 J-.307
N2400 X-71.076 Y2.63 I-.937 J-.75
N2410 G1 X-71.474 Y2.932
N2420 X-71.872 Y3.233
N2430 X-72.27 Y3.534
N2440 X-72.668 Y3.835
N2450 G3 X-74.297 Y4.382 Z-23.477 I-1.629 J-2.152
N2460 X-76.135 Y3.661 Z-23.45 I0. J-2.699
N2470 X-76.91 Y2.363 I1.838 J-1.978 F10000.
N2480 G1 X-78.974 Y-5.562
N2490 G3 X-79.061 Y-6.243 I2.612 J-.681
N2500 X-78.578 Y-7.786 I2.699 J0.
N2510 X-76.362 Y-8.943 Z-23.484 I2.216 J1.543 F100.
N2520 X-75.227 Y-8.693 Z-23.5 I0. J2.7
N2530 G1 X-74.548 Y-8.378
N2540 X-74.095 Y-8.169
N2550 X-73.642 Y-7.959
N2560 X-73.477 Y-7.883
N2570 X-73.318 Y-7.796
N2580 X-73.149 Y-7.69
N2590 X-72.97 Y-7.564
N2600 X-72.786 Y-7.419
N2610 X-72.598 Y-7.255
N2620 X-72.408 Y-7.073
N2630 X-72.218 Y-6.874
N2640 X-72.029 Y-6.657
N2650 X-71.842 Y-6.425
N2660 X-71.659 Y-6.178
N2670 X-71.48 Y-5.918
N2680 X-71.307 Y-5.644
N2690 X-71.139 Y-5.359
N2700 X-70.979 Y-5.063
N2710 X-70.825 Y-4.757
N2720 X-70.68 Y-4.442
N2730 X-70.542 Y-4.119
N2740 X-70.413 Y-3.79
N2750 X-70.293 Y-3.454
N2760 X-70.183 Y-3.115
N2770 X-70.083 Y-2.771
N2780 X-69.992 Y-2.426
N2790 X-69.912 Y-2.08
N2800 X-69.843 Y-1.734
N2810 X-69.786 Y-1.39
N2820 X-69.739 Y-1.05
N2830 X-69.705 Y-.716
N2840 X-69.683 Y-.391
N2850 X-69.673 Y-.074
N2860 X-69.675 Y.228
N2870 X-69.688 Y.508
N2880 X-69.712 Y.766
N2890 X-69.745 Y1.004
N2900 X-69.788 Y1.225
N2910 X-69.814 Y1.332
N2920 G3 X-70.026 Y1.78 I-1.167 J-.278
N2930 X-70.257 Y2.011 I-.955 J-.726
N2940 G1 X-70.655 Y2.312
N2950 X-71.053 Y2.613
N2960 X-71.451 Y2.914
N2970 G3 X-73.081 Y3.462 Z-23.477 I-1.63 J-2.152
N2980 X-74.918 Y2.74 Z-23.45 I0. J-2.7
N2990 X-75.637 Y1.63 I1.837 J-1.978 F10000.
N3000 G1 X-77.848 Y-4.879
N3010 G3 X-77.991 Y-5.747 I2.557 J-.868
N3020 X-77.507 Y-7.29 I2.7 J0.
N3030 X-75.291 Y-8.447 Z-23.484 I2.216 J1.543 F100.
N3040 X-74.157 Y-8.197 Z-23.5 I0. J2.7
N3050 G1 X-73.477 Y-7.883
N3060 X-73.024 Y-7.673
N3070 X-72.571 Y-7.463
N3080 X-72.494 Y-7.427
N3090 X-72.342 Y-7.348
N3100 X-72.178 Y-7.25
N3110 X-72.005 Y-7.132
N3120 X-71.826 Y-6.995
N3130 X-71.642 Y-6.839
N3140 X-71.456 Y-6.665
N3150 X-71.269 Y-6.473
N3160 X-71.083 Y-6.265
N3170 X-70.899 Y-6.041
N3180 X-70.719 Y-5.802
N3190 X-70.544 Y-5.549
N3200 X-70.375 Y-5.283
N3210 X-70.211 Y-5.006
N3220 X-70.055 Y-4.718
N3230 X-69.907 Y-4.421
N3240 X-69.768 Y-4.115
N3250 X-69.637 Y-3.802
N3260 X-69.516 Y-3.484
N3270 X-69.406 Y-3.162
N3280 X-69.305 Y-2.836
N3290 X-69.216 Y-2.509
N3300 X-69.138 Y-2.181
N3310 X-69.072 Y-1.855
N3320 X-69.017 Y-1.532
N3330 X-68.976 Y-1.215
N3340 X-68.946 Y-.905
N3350 X-68.929 Y-.6
N3360 X-68.924 Y-.312
N3370 X-68.932 Y-.046
N3380 X-68.95 Y.201
N3390 X-68.979 Y.43
N3400 X-69.018 Y.643
N3410 X-69.038 Y.731
N3420 G3 X-69.243 Y1.182 I-1.171 J-.262
N3430 X-69.485 Y1.426 I-.966 J-.713
N3440 G1 X-69.883 Y1.727
N3450 X-70.281 Y2.029
N3460 X-70.679 Y2.33
N3470 G3 X-72.308 Y2.877 Z-23.477 I-1.629 J-2.153
N3480 X-74.145 Y2.155 Z-23.45 I0. J-2.7
N3490 X-74.844 Y1.104 I1.837 J-1.978 F10000.
N3500 G1 X-76.844 Y-4.365
N3510 G3 X-77.008 Y-5.292 I2.536 J-.927
N3520 X-76.524 Y-6.834 I2.7 J0.
N3530 X-74.308 Y-7.992 Z-23.484 I2.216 J1.542 F100.
N3540 X-73.173 Y-7.742 Z-23.5 I0. J2.7
N3550 G1 X-72.494 Y-7.427
N3560 X-72.041 Y-7.218
N3570 X-71.588 Y-7.008
N3580 X-71.461 Y-6.949
N3590 X-71.308 Y-6.867
N3600 X-71.145 Y-6.766
N3610 X-70.974 Y-6.646
N3620 X-70.797 Y-6.508
N3630 X-70.617 Y-6.351
N3640 X-70.435 Y-6.176
N3650 X-70.253 Y-5.985
N3660 X-70.074 Y-5.777
N3670 X-69.898 Y-5.555
N3680 X-69.726 Y-5.319
N3690 X-69.56 Y-5.07
N3700 X-69.4 Y-4.809
N3710 X-69.247 Y-4.537
N3720 X-69.103 Y-4.256
N3730 X-68.968 Y-3.967
N3740 X-68.842 Y-3.671
N3750 X-68.726 Y-3.37
N3760 X-68.622 Y-3.064
N3770 X-68.528 Y-2.756
N3780 X-68.446 Y-2.447
N3790 X-68.377 Y-2.14
N3800 X-68.32 Y-1.836
N3810 X-68.276 Y-1.537
N3820 X-68.246 Y-1.245
N3830 X-68.228 Y-.962
N3840 X-68.222 Y-.699
N3850 X-68.23 Y-.454
N3860 X-68.248 Y-.227
N3870 X-68.276 Y-.015
N3880 X-68.305 Y.141
N3890 G3 X-68.495 Y.599 I-1.18 J-.22
N3900 X-68.761 Y.878 I-.99 J-.678
N3910 G1 X-69.159 Y1.18
N3920 X-69.557 Y1.481
N3930 X-69.955 Y1.782
N3940 G3 X-71.584 Y2.329 Z-23.477 I-1.629 J-2.153
N3950 X-73.422 Y1.608 Z-23.45 I0. J-2.7
N3960 X-74.108 Y.589 I1.838 J-1.979 F10000.
N3970 G1 X-75.799 Y-3.853
N3980 G3 X-75.976 Y-4.814 I2.524 J-.961
N3990 X-75.491 Y-6.356 I2.701 J0.
N4000 X-73.275 Y-7.514 Z-23.484 I2.216 J1.542 F100.
N4010 X-72.141 Y-7.264 Z-23.5 I0. J2.7
N4020 G1 X-71.461 Y-6.949
N4030 X-71.008 Y-6.739
N4040 X-70.555 Y-6.53
N4050 X-70.542 Y-6.523
N4060 X-70.399 Y-6.451
N4070 X-70.244 Y-6.361
N4080 X-70.081 Y-6.252
N4090 X-69.912 Y-6.124
N4100 X-69.738 Y-5.978
N4110 X-69.563 Y-5.814
N4120 X-69.387 Y-5.634
N4130 X-69.214 Y-5.438
N4140 X-69.044 Y-5.226
N4150 X-68.878 Y-5.001
N4160 X-68.719 Y-4.763
N4170 X-68.567 Y-4.514
N4180 X-68.423 Y-4.256
N4190 X-68.288 Y-3.988
N4200 X-68.163 Y-3.714
N4210 X-68.048 Y-3.435
N4220 X-67.945 Y-3.151
N4230 X-67.853 Y-2.865
N4240 X-67.773 Y-2.579
N4250 X-67.707 Y-2.295
N4260 X-67.654 Y-2.015
N4270 X-67.613 Y-1.738
N4280 X-67.586 Y-1.469
N4290 X-67.572 Y-1.218
N4300 X-67.571 Y-.984
N4310 X-67.581 Y-.765
N4320 X-67.603 Y-.561
N4330 X-67.628 Y-.4
N4340 G3 X-67.805 Y.063 I-1.185 J-.187
N4350 X-68.089 Y.37 I-1.008 J-.65
N4360 G1 X-68.487 Y.671
N4370 X-68.885 Y.972
N4380 X-69.283 Y1.274
N4390 G3 X-70.913 Y1.821 Z-23.477 I-1.63 J-2.153
N4400 X-72.75 Y1.099 Z-23.45 I0. J-2.7
N4410 X-73.41 Y.148 I1.837 J-1.978 F10000.
N4420 G1 X-74.853 Y-3.361
N4430 G3 X-75.056 Y-4.388 I2.497 J-1.027
N4440 X-74.572 Y-5.931 I2.7 J0.
N4450 X-72.356 Y-7.088 Z-23.484 I2.216 J1.543 F100.
N4460 X-71.221 Y-6.838 Z-23.5 I0. J2.7
N4470 G1 X-70.542 Y-6.523
N4480 X-70.089 Y-6.314
N4490 X-69.636 Y-6.104
N4500 X-69.587 Y-6.082
N4510 X-69.448 Y-6.009
N4520 X-69.299 Y-5.92
N4530 X-69.142 Y-5.812
N4540 X-68.979 Y-5.687
N4550 X-68.814 Y-5.544
N4560 X-68.647 Y-5.384
N4570 X-68.482 Y-5.209
N4580 X-68.319 Y-5.018
N4590 X-68.161 Y-4.814
N4600 X-68.008 Y-4.596
N4610 X-67.862 Y-4.368
N4620 X-67.724 Y-4.129
N4630 X-67.596 Y-3.882
N4640 X-67.477 Y-3.627
N4650 X-67.37 Y-3.367
N4660 X-67.274 Y-3.104
N4670 X-67.191 Y-2.841
N4680 X-67.121 Y-2.578
N4690 X-67.064 Y-2.318
N4700 X-67.02 Y-2.062
N4710 X-66.99 Y-1.816
N4720 X-66.974 Y-1.587
N4730 X-66.97 Y-1.371
N4740 X-66.978 Y-1.169
N4750 X-66.996 Y-.979
N4760 X-67.01 Y-.883
N4770 G3 X-67.18 Y-.418 I-1.188 J-.17
N4780 X-67.473 Y-.096 I-1.018 J-.635
N4790 G1 X-67.871 Y.205
N4800 X-68.269 Y.506
N4810 X-68.667 Y.808
N4820 G3 X-70.297 Y1.355 Z-23.477 I-1.63 J-2.153
N4830 X-72.134 Y.633 Z-23.45 I0. J-2.7
N4840 X-72.782 Y-.29 I1.837 J-1.978 F10000.
N4850 G1 X-73.887 Y-2.891
N4860 G3 X-74.102 Y-3.946 I2.486 J-1.055
N4870 X-73.617 Y-5.489 I2.701 J0.
N4880 X-71.401 Y-6.646 Z-23.484 I2.216 J1.543 F100.
N4890 X-70.267 Y-6.396 Z-23.5 I0. J2.7
N4900 G1 X-69.587 Y-6.082
N4910 X-69.134 Y-5.872
N4920 X-68.681 Y-5.662
N4930 X-68.547 Y-5.59
N4940 X-68.404 Y-5.501
N4950 X-68.254 Y-5.394
N4960 X-68.1 Y-5.271
N4970 X-67.944 Y-5.131
N4980 X-67.788 Y-4.976
N4990 X-67.635 Y-4.806
N5000 X-67.485 Y-4.621
N5010 X-67.341 Y-4.424
N5020 X-67.203 Y-4.216
N5030 X-67.074 Y-3.998
N5040 X-66.954 Y-3.772
N5050 X-66.845 Y-3.539
N5060 X-66.747 Y-3.302
N5070 X-66.661 Y-3.064
N5080 X-66.589 Y-2.825
N5090 X-66.529 Y-2.587
N5100 X-66.482 Y-2.353
N5110 X-66.45 Y-2.132
N5120 X-66.431 Y-1.923
N5130 X-66.425 Y-1.726
N5140 X-66.429 Y-1.54
N5150 X-66.443 Y-1.376
N5160 G3 X-66.586 Y-.901 I-1.196 J-.1
N5170 X-66.908 Y-.524 I-1.053 J-.575
N5180 G1 X-66.915 Y-.519
N5190 X-67.313 Y-.218
N5200 X-67.711 Y.084
N5210 X-68.109 Y.385
N5220 G3 X-69.738 Y.932 Z-23.477 I-1.629 J-2.153
N5230 X-71.576 Y.21 Z-23.45 I0. J-2.7
N5240 X-72.218 Y-.7 I1.838 J-1.978 F10000.
N5250 G1 X-72.975 Y-2.459
N5260 G3 X-73.195 Y-3.527 I2.48 J-1.068
N5270 X-72.711 Y-5.069 I2.7 J0.
N5280 X-70.495 Y-6.227 Z-23.484 I2.216 J1.542 F100.
N5290 X-69.361 Y-5.977 Z-23.5 I0. J2.7
N5300 G1 X-68.681 Y-5.662
N5310 X-68.229 Y-5.452
N5320 X-67.776 Y-5.243
N5330 X-67.642 Y-5.161
N5340 X-67.502 Y-5.063
N5350 X-67.358 Y-4.949
N5360 X-67.212 Y-4.819
N5370 X-67.068 Y-4.674
N5380 X-66.926 Y-4.515
N5390 X-66.789 Y-4.344
N5400 X-66.659 Y-4.161
N5410 X-66.536 Y-3.969
N5420 X-66.423 Y-3.768
N5430 X-66.319 Y-3.562
N5440 X-66.227 Y-3.352
N5450 X-66.148 Y-3.139
N5460 X-66.08 Y-2.926
N5470 X-66.024 Y-2.713
N5480 X-65.983 Y-2.51
N5490 X-65.956 Y-2.317
N5500 X-65.941 Y-2.134
N5510 X-65.937 Y-1.959
N5520 X-65.942 Y-1.808
N5530 G3 X-66.062 Y-1.327 I-1.199 J-.044
N5540 X-66.366 Y-.936 I-1.079 J-.525
N5550 X-66.417 Y-.896 I-.775 J-.916
N5560 G1 X-66.815 Y-.594
N5570 X-67.213 Y-.293
N5580 X-67.611 Y.008
N5590 G3 X-69.241 Y.555 Z-23.477 I-1.63 J-2.153
N5600 X-71.078 Y-.166 Z-23.45 I0. J-2.7
N5610 X-71.779 Y-1.225 I1.837 J-1.979 F10000.
N5620 G1 X-72.128 Y-2.187
N5630 G3 X-72.29 Y-3.107 I2.539 J-.92
N5640 X-71.805 Y-4.65 I2.701 J0.
N5650 X-69.589 Y-5.807 Z-23.484 I2.216 J1.543 F100.
N5660 X-68.455 Y-5.557 Z-23.5 I0. J2.7
N5670 G1 X-67.776 Y-5.243
N5680 X-67.323 Y-5.033
N5690 X-67.025 Y-4.895
N5700 X-66.902 Y-4.818
N5710 X-66.774 Y-4.725
N5720 X-66.643 Y-4.617
N5730 X-66.512 Y-4.495
N5740 X-66.382 Y-4.359
N5750 X-66.257 Y-4.211
N5760 X-66.137 Y-4.051
N5770 X-66.024 Y-3.881
N5780 X-65.92 Y-3.705
N5790 X-65.827 Y-3.523
N5800 X-65.745 Y-3.338
N5810 X-65.673 Y-3.148
N5820 X-65.615 Y-2.962
N5830 X-65.57 Y-2.783
N5840 X-65.538 Y-2.61
N5850 X-65.517 Y-2.445
N5860 X-65.508 Y-2.286
N5870 X-65.507 Y-2.189
N5880 Y-2.181
N5890 G3 X-65.606 Y-1.704 I-1.2 J0.
N5900 X-65.893 Y-1.299 I-1.101 J-.477
N5910 X-65.983 Y-1.224 I-.814 J-.882
N5920 G1 X-66.381 Y-.923
N5930 X-66.779 Y-.622
N5940 G3 X-68.314 Y-.076 Z-23.478 I-1.63 J-2.153
N5950 G1 X-68.744 Y-.061 Z-23.472
N5960 X-68.839 Y-.059 Z-23.471
N5970 G3 X-70.339 Y-.514 Z-23.45 I0. J-2.7
N5980 X-71.539 Y-2.759 I1.5 J-2.245 F10000.
N5990 X-71.055 Y-4.302 I2.7 J0.
N6000 X-68.839 Y-5.459 Z-23.484 I2.216 J1.543 F100.
N6010 X-67.704 Y-5.21 Z-23.5 I0. J2.7
N6020 G1 X-67.025 Y-4.895
N6030 X-66.572 Y-4.685
N6040 X-66.454 Y-4.63
N6050 X-66.349 Y-4.572
N6060 X-66.239 Y-4.499
N6070 X-66.124 Y-4.412
N6080 X-66.008 Y-4.312
N6090 X-65.893 Y-4.198
N6100 X-65.781 Y-4.073
N6110 X-65.674 Y-3.937
N6120 X-65.574 Y-3.793
N6130 X-65.482 Y-3.642
N6140 X-65.4 Y-3.485
N6150 X-65.327 Y-3.324
N6160 X-65.267 Y-3.165
N6170 X-65.219 Y-3.01
N6180 X-65.183 Y-2.859
N6190 X-65.158 Y-2.712
N6200 X-65.145 Y-2.591
N6210 G3 X-65.138 Y-2.461 I-1.193 J.13
N6220 X-65.194 Y-2.098 I-1.2 J0.
N6230 X-65.438 Y-1.667 I-1.144 J-.363
N6240 X-65.613 Y-1.504 I-.9 J-.794
N6250 G1 X-66.011 Y-1.203
N6260 X-66.409 Y-.901
N6270 G3 X-67.813 Y-.429 Z-23.48 I-1.404 J-1.854
N6280 X-68.416 Y-.51 Z-23.472 I0. J-2.326
N6290 G1 X-68.714 Y-.59 Z-23.468
N6300 G3 X-69.843 Y-1.285 Z-23.45 I.604 J-2.245
N6310 X-70.435 Y-2.835 I1.733 J-1.55 F10000.
N6320 X-70.266 Y-3.704 I2.325 J0.
N6330 X-68.11 Y-5.16 Z-23.487 I2.156 J.869 F100.
N6340 X-67.133 Y-4.945 Z-23.5 I0. J2.325
N6350 G1 X-66.454 Y-4.63
N6360 X-66.001 Y-4.421
N6370 X-65.888 Y-4.368
N6380 X-65.795 Y-4.315
N6390 X-65.697 Y-4.25
N6400 X-65.597 Y-4.172
N6410 X-65.497 Y-4.083
N6420 X-65.398 Y-3.983
N6430 X-65.304 Y-3.873
N6440 X-65.216 Y-3.755
N6450 X-65.133 Y-3.629
N6460 X-65.059 Y-3.498
N6470 X-64.996 Y-3.367
N6480 X-64.944 Y-3.237
N6490 X-64.901 Y-3.108
N6500 X-64.871 Y-2.987
N6510 G3 X-64.834 Y-2.691 I-1.163 J.296
N6520 X-64.85 Y-2.492 I-1.2 J0.
N6530 X-65.031 Y-2.031 I-1.184 J-.199
N6540 X-65.309 Y-1.734 I-1.003 J-.66
N6550 G1 X-65.707 Y-1.433
N6560 X-66.105 Y-1.131
N6570 G3 X-67.282 Y-.736 Z-23.483 I-1.177 J-1.555
N6580 X-69.055 Y-1.874 Z-23.454 I0. J-1.95
N6590 G1 X-69.159 Y-2.101 Z-23.45
N6600 G3 X-69.172 Y-2.13 I1.773 J-.812
N6610 X-69.336 Y-2.913 I1.786 J-.783 F10000.
N6620 X-69.331 Y-3.052 I1.95 J0.
N6630 X-67.386 Y-4.863 Z-23.489 I1.945 J.139 F100.
N6640 X-66.567 Y-4.683 Z-23.5 I0. J1.95
N6650 G1 X-65.888 Y-4.368
N6660 X-65.515 Y-4.196
N6670 G3 X-65.108 Y-3.912 I-.597 J1.289
N6680 X-64.824 Y-3.505 I-1.004 J1.005
N6690 X-64.697 Y-3.025 I-1.288 J.598
N6700 X-64.692 Y-2.907 I-1.415 J.118
N6710 X-64.743 Y-2.53 I-1.42 J0.
N6720 X-64.957 Y-2.082 I-1.369 J-.377
N6730 X-65.255 Y-1.775 I-1.155 J-.825
N6740 G1 X-65.653 Y-1.474
N6750 G3 X-66.667 Y-.998 Z-23.485 I-1.629 J-2.153
N6760 G1 X-68.339 Y-.606 Z-23.462
N6770 G2 X-69.224 Y-.341 Z-23.45 I1.735 J7.405
N6780 X-71.274 Y.795 I2.62 J7.14 F10000.
N6790 G1 X-84.297 Y10.924
N6800 G2 X-87.234 Y16.928 I4.669 J6.004
N6810 X-87.233 Y17.042 I7.606 J0.
N6820 G1 X-86.849 Y42.641
N6830 G2 X-86.836 Y42.888 I3.201 J-.048
N6840 X-86.504 Y44.039 Z-23.466 I3.188 J-.295 F100.
N6850 G1 X-85.855 Y45.321 Z-23.485
N6860 G3 X-85.567 Y46.404 Z-23.5 I-2.408 J1.22
N6870 G2 X-85.484 Y47.147 I6.192 J-.316
N6880 X-85.379 Y47.635 I6.109 J-1.059
N6890 X-85.235 Y48.113 I6.004 J-1.547
N6900 X-85.053 Y48.578 I5.86 J-2.025
N6910 X-84.835 Y49.026 I5.678 J-2.49
N6920 X-84.581 Y49.456 I5.46 J-2.938
N6930 X-84.342 Y49.799 I5.206 J-3.368
N6940 G1 X-84.043 Y50.199
N6950 X-83.86 Y50.444
N6960 G2 X-83.545 Y50.832 I4.967 J-3.711
N6970 X-83.201 Y51.192 I4.652 J-4.099
N6980 X-82.828 Y51.524 I4.308 J-4.459
N6990 X-82.43 Y51.825 I3.935 J-4.791
N7000 X-82.009 Y52.093 I3.537 J-5.092
N7010 G1 X-81.51 Y52.386
N7020 X-80.994 Y52.675
N7030 X-80.463 Y52.955
N7040 X-79.92 Y53.225
N7050 X-79.367 Y53.482
N7060 X-78.808 Y53.724
N7070 X-78.244 Y53.951
N7080 X-77.676 Y54.163
N7090 X-77.106 Y54.359
N7100 X-76.536 Y54.539
N7110 X-75.965 Y54.706
N7120 X-75.395 Y54.858
N7130 X-74.827 Y54.998
N7140 X-74.261 Y55.125
N7150 X-73.698 Y55.241
N7160 X-73.137 Y55.346
N7170 X-72.58 Y55.441
N7180 X-72.026 Y55.527
N7190 X-71.475 Y55.605
N7200 X-70.928 Y55.676
N7210 X-70.384 Y55.739
N7220 X-69.843 Y55.797
N7230 X-69.305 Y55.849
N7240 X-68.77 Y55.895
N7250 X-68.238 Y55.937
N7260 X-67.708 Y55.975
N7270 X-67.181 Y56.009
N7280 X-66.657 Y56.039
N7290 X-66.134 Y56.066
N7300 X-65.614 Y56.091
N7310 X-65.095 Y56.113
N7320 X-64.579 Y56.133
N7330 X-64.231 Y56.145
N7340 G3 X-64.121 Y56.154 I-.041 J1.199
N7350 G2 X-63.625 Y56.216 I13.321 J-104.424
N7360 X-63.13 Y56.275 I12.825 J-104.486
N7370 X-62.634 Y56.333 I12.33 J-104.545
N7380 X-62.138 Y56.388 I11.834 J-104.603
N7390 X-61.641 Y56.44 I11.338 J-104.658
N7400 X-61.145 Y56.49 I10.841 J-104.71
N7410 X-60.648 Y56.538 I10.345 J-104.76
N7420 X-60.151 Y56.584 I9.848 J-104.808
N7430 X-59.653 Y56.627 I9.351 J-104.854
N7440 X-59.156 Y56.668 I8.853 J-104.897
N7450 X-58.658 Y56.706 I8.356 J-104.938
N7460 X-58.16 Y56.742 I7.858 J-104.976
N7470 X-57.662 Y56.776 I7.36 J-105.012
N7480 X-57.164 Y56.807 I6.862 J-105.046
N7490 X-56.666 Y56.836 I6.364 J-105.077
N7500 X-56.167 Y56.863 I5.866 J-105.106
N7510 X-55.669 Y56.887 I5.367 J-105.133
N7520 X-55.17 Y56.909 I4.869 J-105.157
N7530 X-54.671 Y56.929 I4.37 J-105.179
N7540 X-54.173 Y56.946 I3.871 J-105.199
N7550 X-53.674 Y56.961 I3.373 J-105.216
N7560 X-53.175 Y56.973 I2.874 J-105.231
N7570 X-52.675 Y56.983 I2.375 J-105.243
N7580 X-52.176 Y56.991 I1.875 J-105.253
N7590 X-51.677 Y56.996 I1.376 J-105.261
N7600 X-51.178 Y56.999 I.877 J-105.266
N7610 X-50.8 Y57. I.378 J-105.269
N7620 G1 X-50.301
N7630 X-49.802
N7640 X-49.303
N7650 X-48.803
N7660 X-48.304
N7670 X-47.805
N7680 X-47.306
N7690 X-46.807
N7700 X-46.308
N7710 X-45.808
N7720 X-45.309
N7730 X-44.81
N7740 X-44.311
N7750 X-43.812
N7760 X-43.313
N7770 X-42.813
N7780 X-42.314
N7790 X-41.815
N7800 X-41.316
N7810 X-40.817
N7820 X-40.318
N7830 X-39.818
N7840 X-39.319
N7850 X-38.82
N7860 X-38.321
N7870 X-37.822
N7880 X-37.323
N7890 X-36.823
N7900 X-36.324
N7910 X-35.825
N7920 X-35.326
N7930 X-34.827
N7940 X-34.328
N7950 X-33.828
N7960 X-33.329
N7970 X-32.83
N7980 X-32.331
N7990 X-31.832
N8000 X-31.333
N8010 X-30.833
N8020 X-30.334
N8030 X-29.835
N8040 X-29.336
N8050 X-28.837
N8060 X-28.338
N8070 X-27.838
N8080 X-27.339
N8090 X-26.84
N8100 X-26.341
N8110 X-25.842
N8120 X-25.343
N8130 X-24.843
N8140 X-24.344
N8150 X-23.845
N8160 X-23.346
N8170 X-22.847
N8180 X-22.348
N8190 X-21.848
N8200 X-21.349
N8210 X-20.85
N8220 X-20.351
N8230 X-19.852
N8240 X-19.353
N8250 X-18.853
N8260 X-18.354
N8270 X-17.855
N8280 X-17.356
N8290 X-16.857
N8300 X-16.358
N8310 X-15.858
N8320 X-15.359
N8330 X-14.86
N8340 X-14.361
N8350 X-13.862
N8360 X-13.363
N8370 X-12.863
N8380 X-12.364
N8390 X-11.865
N8400 X-11.366
N8410 X-10.867
N8420 X-10.368
N8430 X-9.868
N8440 X-9.369
N8450 X-8.87
N8460 X-8.371
N8470 X-7.872
N8480 X-7.373
N8490 X-6.873
N8500 X-6.374
N8510 X-5.875
N8520 X-5.376
N8530 X-4.877
N8540 X-4.378
N8550 X-3.878
N8560 X-3.379
N8570 X-2.88
N8580 X-2.381
N8590 X-1.882
N8600 X-1.383
N8610 X-.883
N8620 X-.384
N8630 X.115
N8640 X.614
N8650 X1.113
N8660 X1.612
N8670 X2.112
N8680 X2.611
N8690 X3.11
N8700 X3.609
N8710 X4.108
N8720 X4.607
N8730 X5.107
N8740 X5.606
N8750 X6.105
N8760 X6.604
N8770 X7.103
N8780 X7.602
N8790 X8.102
N8800 X8.601
N8810 X9.1
N8820 X9.599
N8830 X10.098
N8840 X10.597
N8850 X11.097
N8860 X11.596
N8870 X12.095
N8880 X12.594
N8890 X13.093
N8900 X13.592
N8910 X14.091
N8920 X14.591
N8930 X15.09
N8940 X15.589
N8950 X16.088
N8960 X16.587
N8970 X17.086
N8980 X17.586
N8990 X18.085
N9000 X18.584
N9010 X19.083
N9020 X19.582
N9030 X20.081
N9040 X20.581
N9050 X21.08
N9060 X21.579
N9070 X22.078
N9080 X22.577
N9090 X23.076
N9100 X23.576
N9110 X24.075
N9120 X24.574
N9130 X25.073
N9140 X25.4
N9150 G2 X25.899 Y56.999 I0. J-130.67
N9160 X26.398 Y56.996 I-.499 J-130.669
N9170 X26.897 Y56.991 I-.998 J-130.666
N9180 X27.397 Y56.985 I-1.497 J-130.661
N9190 X27.896 Y56.976 I-1.997 J-130.655
N9200 X28.395 Y56.966 I-2.496 J-130.646
N9210 X28.894 Y56.953 I-2.995 J-130.636
N9220 X29.393 Y56.939 I-3.494 J-130.623
N9230 X29.892 Y56.923 I-3.993 J-130.609
N9240 X30.39 Y56.905 I-4.492 J-130.593
N9250 X30.889 Y56.885 I-4.99 J-130.575
N9260 X31.388 Y56.863 I-5.489 J-130.555
N9270 X31.886 Y56.839 I-5.988 J-130.533
N9280 X32.385 Y56.813 I-6.486 J-130.509
N9290 X32.883 Y56.785 I-6.985 J-130.483
N9300 X33.382 Y56.756 I-7.483 J-130.455
N9310 X33.88 Y56.724 I-7.982 J-130.426
N9320 X34.378 Y56.691 I-8.48 J-130.394
N9330 X34.876 Y56.656 I-8.978 J-130.361
N9340 X35.374 Y56.619 I-9.476 J-130.326
N9350 X35.871 Y56.58 I-9.974 J-130.289
N9360 X35.999 Y56.569 I-10.471 J-130.25
N9370 G1 X36.45 Y56.536
N9380 X36.906 Y56.507
N9390 X37.369 Y56.481
N9400 X37.836 Y56.458
N9410 X38.308 Y56.438
N9420 X38.784 Y56.42
N9430 X39.262 Y56.405
N9440 X39.743 Y56.392
N9450 X40.227 Y56.38
N9460 X40.713 Y56.37
N9470 X41.2 Y56.361
N9480 X41.689 Y56.353
N9490 X42.18 Y56.346
N9500 X42.671 Y56.34
N9510 X43.164 Y56.335
N9520 X43.657 Y56.331
N9530 X44.151 Y56.327
N9540 X44.646 Y56.323
N9550 X45.142 Y56.32
N9560 X45.637 Y56.318
N9570 X46.134 Y56.315
N9580 X46.63 Y56.313
N9590 X47.127 Y56.312
N9600 X47.625 Y56.31
N9610 X48.122 Y56.309
N9620 X48.62 Y56.308
N9630 X49.118 Y56.307
N9640 X49.616 Y56.306
N9650 X50.114 Y56.305
N9660 X50.613 Y56.304
N9670 X51.111
N9680 X51.61 Y56.303
N9690 X52.108
N9700 X52.607
N9710 X53.106 Y56.302
N9720 X53.604
N9730 X54.103
N9740 X54.602 Y56.301
N9750 X55.101
N9760 X55.6
N9770 X56.099
N9780 X56.598
N9790 X57.097
N9800 X57.596
N9810 X58.095
N9820 X58.594 Y56.3
N9830 X59.093
N9840 X59.592
N9850 X60.092
N9860 X60.591
N9870 X61.09
N9880 X61.589
N9890 X62.088
N9900 X62.587
N9910 X63.086
N9920 X63.585
N9930 X64.085
N9940 X64.584
N9950 X65.083
N9960 X65.582
N9970 X66.081
N9980 X66.58
N9990 X67.079
N100 X67.579
N110 X68.078
N120 X68.577
N130 X69.076
N140 X69.576
N150 X70.078
N160 X70.591 Y56.299
N170 X71.165 Y56.293
N180 X71.816 Y56.267
N190 X72.516 Y56.207
N200 X73.24 Y56.1
N210 X73.97 Y55.94
N220 X74.339 Y55.838
N230 X74.705 Y55.721
N240 X75.066 Y55.59
N250 X75.424 Y55.445
N260 X75.775 Y55.287
N270 X76.119 Y55.116
N280 X76.456 Y54.931
N290 X76.785 Y54.735
N300 X77.405 Y54.317
N310 X77.989 Y53.86
N320 X78.536 Y53.37
N330 X79.044 Y52.85
N340 X79.513 Y52.307
N350 X79.944 Y51.745
N360 X80.338 Y51.169
N370 X80.697 Y50.582
N380 X81.022 Y49.988
N390 X81.316 Y49.39
N400 X81.581 Y48.79
N410 X81.819 Y48.191
N420 X82.032 Y47.593
N430 X82.223 Y46.998
N440 X82.394 Y46.408
N450 X82.547 Y45.821
N460 X82.682 Y45.246
N470 X82.798 Y44.71
N480 X82.902 Y44.217
N490 X82.999 Y43.765
N500 X83.028 Y43.632
N510 G3 X83.233 Y43.181 I1.172 J.26
N520 X83.344 Y43.051 I.967 J.711
N530 G2 X83.679 Y42.681 I-4.422 J-4.346
N540 X83.984 Y42.285 I-4.757 J-3.976
N550 X84.164 Y42.015 I-5.062 J-3.58
N560 G1 X84.431 Y41.593
N570 X84.618 Y41.297
N580 G2 X84.867 Y40.865 I-5.243 J-3.31
N590 X85.08 Y40.414 I-5.492 J-2.878
N600 G3 X85.723 Y39.496 Z-23.485 I2.485 J1.056
N610 G1 X86.456 Y38.812 Z-23.472
N620 G3 X87.901 Y38.086 Z-23.45 I1.964 J2.104
N630 X88.42 Y38.039 I.519 J2.83 F10000.
N640 X91.297 Y40.916 I0. J2.877
N650 X90.567 Y42.834 I-2.877 J0.
N660 G1 X80.441 Y54.172
N670 G3 X72.602 Y58.519 I-10.154 J-9.068
N680 G1 X36.764 Y64.705
N690 G3 X35.97 Y64.773 I-.794 J-4.602
N700 X31.3 Y60.103 I0. J-4.67
N710 X31.955 Y58.34 I2.7 J0.
N720 X32.722 Y57.725 Z-23.463 I2.045 J1.763 F100.
N730 G1 X34.178 Y56.942 Z-23.485
N740 G3 X35.253 Y56.628 Z-23.5 I1.279 J2.378
N750 G2 X35.999 Y56.569 I-9.853 J-130.298
N760 X36.497 Y56.528 I-10.599 J-130.239
N770 X36.994 Y56.485 I-11.097 J-130.198
N780 X37.491 Y56.439 I-11.594 J-130.155
N790 X37.988 Y56.392 I-12.091 J-130.109
N800 X38.485 Y56.343 I-12.588 J-130.062
N810 X38.981 Y56.292 I-13.085 J-130.013
N820 X39.478 Y56.239 I-13.581 J-129.962
N830 X39.974 Y56.185 I-14.078 J-129.909
N840 X40.47 Y56.128 I-14.574 J-129.855
N850 X40.966 Y56.07 I-15.07 J-129.798
N860 X41.461 Y56.009 I-15.566 J-129.74
N870 X41.956 Y55.947 I-16.061 J-129.679
N880 X42.451 Y55.883 I-16.556 J-129.617
N890 X42.946 Y55.817 I-17.051 J-129.553
N900 X43.441 Y55.749 I-17.546 J-129.487
N910 X43.935 Y55.679 I-18.041 J-129.419
N920 X44.429 Y55.607 I-18.535 J-129.349
N930 X44.703 Y55.566 I-19.029 J-129.277
N940 G1 X45.113 Y55.512
N950 X45.536 Y55.464
N960 X45.969 Y55.42
N970 X46.411 Y55.382
N980 X46.861 Y55.347
N990 X47.317 Y55.317
N1000 X47.779 Y55.291
N1010 X48.246 Y55.267
N1020 X48.717 Y55.246
N1030 X49.192 Y55.228
N1040 X49.67 Y55.212
N1050 X50.151 Y55.198
N1060 X50.634 Y55.186
N1070 X51.119 Y55.175
N1080 X51.607 Y55.165
N1090 X52.095 Y55.157
N1100 X52.585 Y55.15
N1110 X53.076 Y55.144
N1120 X53.569 Y55.138
N1130 X54.062 Y55.133
N1140 X54.556 Y55.129
N1150 X55.05 Y55.125
N1160 X55.545 Y55.122
N1170 X56.041 Y55.119
N1180 X56.537 Y55.117
N1190 X57.034 Y55.115
N1200 X57.53 Y55.113
N1210 X58.028 Y55.111
N1220 X58.525 Y55.11
N1230 X59.023 Y55.109
N1240 X59.52 Y55.107
N1250 X60.018
N1260 X60.517 Y55.106
N1270 X61.015 Y55.105
N1280 X61.513 Y55.104
N1290 X62.012
N1300 X62.51 Y55.103
N1310 X63.009
N1320 X63.508
N1330 X64.006 Y55.102
N1340 X64.505
N1350 X65.004
N1360 X65.503 Y55.101
N1370 X66.002
N1380 X66.501
N1390 X67.002
N1400 X67.51 Y55.1
N1410 X68.038 Y55.097
N1420 X68.597 Y55.089
N1430 X69.196 Y55.068
N1440 X69.838 Y55.027
N1450 X70.512 Y54.955
N1460 X71.208 Y54.846
N1470 X71.91 Y54.693
N1480 X72.61 Y54.495
N1490 X73.301 Y54.25
N1500 X73.977 Y53.959
N1510 X74.632 Y53.623
N1520 X75.26 Y53.246
N1530 X75.861 Y52.829
N1540 X76.43 Y52.378
N1550 X76.966 Y51.897
N1560 X77.467 Y51.39
N1570 X77.934 Y50.86
N1580 X78.366 Y50.313
N1590 X78.765 Y49.751
N1600 X79.13 Y49.18
N1610 X79.463 Y48.606
N1620 X79.765 Y48.033
N1630 X80.039 Y47.469
N1640 X80.28 Y46.935
N1650 X80.495 Y46.44
N1660 X80.691 Y45.985
N1670 X80.872 Y45.569
N1680 X81.044 Y45.19
N1690 X81.208 Y44.846
N1700 X81.265 Y44.732
N1710 G3 X81.574 Y44.344 I1.073 J.537
N1720 X81.784 Y44.205 I.764 J.925
N1730 G2 X82.217 Y43.957 I-2.862 J-5.5
N1740 X82.629 Y43.675 I-3.295 J-5.252
N1750 X83.016 Y43.361 I-3.707 J-4.97
N1760 X83.377 Y43.016 I-4.094 J-4.656
N1770 X83.71 Y42.644 I-4.455 J-4.311
N1780 G3 X84.585 Y41.945 Z-23.485 I2.085 J1.715
N1790 G1 X85.619 Y41.427 Z-23.47
N1800 G3 X86.982 Y41.104 Z-23.451 I1.363 J2.719
N1810 G1 X87.054 Y41.105 Z-23.45
N1820 G3 X90.023 Y44.146 I-.072 J3.04 F10000.
N1830 X88.657 Y46.684 I-3.041 J0.
N1840 G1 X75.569 Y55.321
N1850 G3 X73.352 Y56.157 I-2.953 J-4.474
N1860 G1 X42.326 Y60.458
N1870 G3 X42.059 Y60.476 I-.267 J-1.923
N1880 X40.118 Y58.535 I0. J-1.941
N1890 X40.245 Y57.843 I1.941 J0.
N1900 X40.431 Y57.616 I.432 J.165
N1910 G1 X40.673 Y57.464
N1920 X41.51 Y56.939 Z-23.463 F100.
N1930 X42.911 Y56.06 Z-23.485
N1940 G3 X43.962 Y55.675 Z-23.5 I1.435 J2.287
N1950 G2 X44.703 Y55.566 I-18.562 J-129.345
N1960 X45.196 Y55.492 I-19.303 J-129.236
N1970 X45.69 Y55.415 I-19.796 J-129.162
N1980 X46.183 Y55.337 I-20.29 J-129.085
N1990 X46.675 Y55.256 I-20.783 J-129.007
N2000 X47.168 Y55.174 I-21.275 J-128.926
N2010 X47.66 Y55.09 I-21.768 J-128.844
N2020 X48.151 Y55.004 I-22.26 J-128.76
N2030 X48.643 Y54.916 I-22.751 J-128.674
N2040 X49.134 Y54.826 I-23.243 J-128.586
N2050 X49.624 Y54.735 I-23.734 J-128.496
N2060 X50.115 Y54.641 I-24.224 J-128.405
N2070 X50.605 Y54.546 I-24.715 J-128.311
N2080 G1 X50.606
N2090 X50.983 Y54.476
N2100 X51.376 Y54.413
N2110 X51.784 Y54.356
N2120 X52.204 Y54.304
N2130 X52.634 Y54.258
N2140 X53.074 Y54.216
N2150 X53.521 Y54.179
N2160 X53.975 Y54.146
N2170 X54.434 Y54.117
N2180 X54.899 Y54.091
N2190 X55.368 Y54.068
N2200 X55.841 Y54.048
N2210 X56.318 Y54.03
N2220 X56.797 Y54.014
N2230 X57.279 Y54.
N2240 X57.763 Y53.988
N2250 X58.248 Y53.978
N2260 X58.736 Y53.968
N2270 X59.225 Y53.96
N2280 X59.715 Y53.952
N2290 X60.206 Y53.946
N2300 X60.699 Y53.94
N2310 X61.192 Y53.935
N2320 X61.686 Y53.931
N2330 X62.18 Y53.927
N2340 X62.675 Y53.924
N2350 X63.171 Y53.921
N2360 X63.668 Y53.918
N2370 X64.166 Y53.916
N2380 X64.668 Y53.913
N2390 X65.18 Y53.91
N2400 X65.705 Y53.904
N2410 X66.251 Y53.894
N2420 X66.829 Y53.874
N2430 X67.434 Y53.841
N2440 X68.066 Y53.787
N2450 X68.724 Y53.705
N2460 X69.395 Y53.592
N2470 X70.079 Y53.441
N2480 X70.761 Y53.251
N2490 X71.439 Y53.018
N2500 X72.106 Y52.744
N2510 X72.755 Y52.428
N2520 X73.383 Y52.074
N2530 X73.987 Y51.683
N2540 X74.564 Y51.259
N2550 X75.11 Y50.808
N2560 X75.622 Y50.334
N2570 X76.1 Y49.844
N2580 X76.544 Y49.347
N2590 X76.955 Y48.848
N2600 X77.335 Y48.352
N2610 X77.688 Y47.866
N2620 X78.013 Y47.396
N2630 X78.308 Y46.96
N2640 X78.578 Y46.56
N2650 X78.828 Y46.195
N2660 X79.063 Y45.865
N2670 X79.285 Y45.567
N2680 X79.335 Y45.502
N2690 G3 X79.712 Y45.181 I.949 J.734
N2700 X79.785 Y45.145 I.572 J1.055
N2710 G2 X80.238 Y44.936 I-54.385 J-118.815
N2720 X80.691 Y44.726 I-54.838 J-118.606
N2730 X81.143 Y44.514 I-55.291 J-118.396
N2740 X81.588 Y44.303 I-55.743 J-118.184
N2750 X82.029 Y44.07 I-2.666 J-5.598
N2760 G3 X83.093 Y43.722 Z-23.485 I1.353 J2.337
N2770 G1 X84.091 Y43.615 Z-23.472
N2780 G3 X84.447 Y43.596 Z-23.467 I.356 J3.316
N2790 X85.698 Y43.839 Z-23.45 I0. J3.335
N2800 X87.782 Y46.931 I-1.251 J3.092 F10000.
N2810 X85.518 Y50.091 I-3.335 J0.
N2820 G1 X50.454 Y61.973
N2830 G3 X49.382 Y62.15 I-1.072 J-3.164
N2840 X46.041 Y58.809 I0. J-3.341
N2850 X46.761 Y56.738 I3.341 J0.
N2860 X47.479 Y56.064 Z-23.463 I2.621 J2.071 F100.
N2870 G1 X48.838 Y55.122 Z-23.485
N2880 G3 X49.87 Y54.688 Z-23.5 I1.538 J2.218
N2890 G2 X50.606 Y54.546 I-24.47 J-128.358
N2900 X51.095 Y54.449 I-25.206 J-128.216
N2910 X51.584 Y54.35 I-25.695 J-128.119
N2920 X52.073 Y54.249 I-26.184 J-128.02
N2930 X52.562 Y54.146 I-26.673 J-127.919
N2940 X53.05 Y54.041 I-27.162 J-127.816
N2950 X53.537 Y53.935 I-27.65 J-127.711
N2960 X54.025 Y53.826 I-28.137 J-127.605
N2970 X54.511 Y53.716 I-28.625 J-127.496
N2980 X54.998 Y53.604 I-29.111 J-127.386
N2990 X55.484 Y53.49 I-29.598 J-127.274
N3000 X55.533 Y53.478 I-30.084 J-127.16
N3010 G1 X55.89 Y53.4
N3020 X56.265 Y53.327
N3030 X56.657 Y53.261
N3040 X57.063 Y53.2
N3050 X57.48 Y53.145
N3060 X57.908 Y53.096
N3070 X58.345 Y53.052
N3080 X58.79 Y53.012
N3090 X59.241 Y52.976
N3100 X59.699 Y52.945
N3110 X60.162 Y52.917
N3120 X60.629 Y52.891
N3130 X61.101 Y52.869
N3140 X61.577 Y52.849
N3150 X62.058 Y52.831
N3160 X62.546 Y52.815
N3170 X63.043 Y52.798
N3180 X63.554 Y52.781
N3190 X64.081 Y52.761
N3200 X64.631 Y52.735
N3210 X65.203 Y52.699
N3220 X65.797 Y52.65
N3230 X66.417 Y52.583
N3240 X67.056 Y52.491
N3250 X67.709 Y52.372
N3260 X68.373 Y52.219
N3270 X69.039 Y52.031
N3280 X69.7 Y51.806
N3290 X70.352 Y51.545
N3300 X70.99 Y51.248
N3310 X71.607 Y50.92
N3320 X72.2 Y50.564
N3330 X72.768 Y50.183
N3340 X73.308 Y49.783
N3350 X73.819 Y49.371
N3360 X74.301 Y48.951
N3370 X74.754 Y48.531
N3380 X75.18 Y48.114
N3390 X75.582 Y47.704
N3400 X75.953 Y47.316
N3410 X76.292 Y46.959
N3420 X76.571 Y46.668
N3430 G3 X76.964 Y46.396 I.866 J.83
N3440 G2 X77.422 Y46.198 I-51.564 J-120.066
N3450 X77.88 Y45.998 I-52.022 J-119.868
N3460 X78.336 Y45.797 I-52.48 J-119.668
N3470 X78.792 Y45.594 I-52.936 J-119.467
N3480 X79.248 Y45.389 I-53.392 J-119.264
N3490 X79.702 Y45.183 I-53.848 J-119.059
N3500 X80.156 Y44.974 I-54.302 J-118.853
N3510 X80.608 Y44.764 I-54.756 J-118.644
N3520 G3 X81.749 Y44.511 Z-23.484 I1.141 J2.447
N3530 X83.961 Y45.663 Z-23.45 I0. J2.7
N3540 X84.449 Y47.211 I-2.212 J1.548 F10000.
N3550 X82.628 Y49.764 I-2.7 J0.
N3560 G1 X56.29 Y58.832
N3570 G3 X55.411 Y58.979 I-.879 J-2.553
N3580 X52.715 Y56.421 I0. J-2.7
N3590 G1 X52.711 Y56.279 Z-23.452 F100.
N3600 G3 X54.804 Y53.649 Z-23.5 I2.7 J0.
N3610 G2 X55.533 Y53.478 I-29.404 J-127.319
N3620 X56.018 Y53.362 I-30.133 J-127.148
N3630 X56.504 Y53.244 I-30.618 J-127.032
N3640 X56.988 Y53.124 I-31.104 J-126.914
N3650 X57.472 Y53.003 I-31.588 J-126.794
N3660 X57.956 Y52.879 I-32.072 J-126.673
N3670 X58.439 Y52.754 I-32.556 J-126.549
N3680 X58.922 Y52.627 I-33.039 J-126.424
N3690 X59.404 Y52.498 I-33.522 J-126.297
N3700 X59.886 Y52.367 I-34.004 J-126.168
N3710 G1 X60.236 Y52.283
N3720 X60.607 Y52.204
N3730 X60.999 Y52.129
N3740 X61.411 Y52.059
N3750 X61.844 Y51.993
N3760 X62.297 Y51.928
N3770 X62.776 Y51.863
N3780 X63.28 Y51.794
N3790 X63.809 Y51.72
N3800 X64.363 Y51.636
N3810 X64.94 Y51.538
N3820 X65.541 Y51.421
N3830 X66.156 Y51.282
N3840 X66.779 Y51.119
N3850 X67.406 Y50.929
N3860 X68.033 Y50.711
N3870 X68.651 Y50.467
N3880 X69.257 Y50.197
N3890 X69.848 Y49.904
N3900 X70.421 Y49.592
N3910 X70.974 Y49.263
N3920 X71.504 Y48.922
N3930 X72.012 Y48.574
N3940 X72.394 Y48.299
N3950 G3 X72.661 Y48.154 I.701 J.973
N3960 G2 X73.126 Y47.972 I-47.261 J-121.824
N3970 X73.591 Y47.789 I-47.726 J-121.642
N3980 X74.054 Y47.604 I-48.191 J-121.459
N3990 X74.517 Y47.417 I-48.654 J-121.274
N4000 X74.98 Y47.229 I-49.117 J-121.087
N4010 X75.441 Y47.038 I-49.58 J-120.899
N4020 X75.902 Y46.846 I-50.041 J-120.708
N4030 X76.362 Y46.653 I-50.502 J-120.516
N4040 X76.821 Y46.457 I-50.962 J-120.323
N4050 X77.28 Y46.26 I-51.421 J-120.127
N4060 X77.737 Y46.061 I-51.88 J-119.93
N4070 G3 X78.819 Y45.835 Z-23.485 I1.082 J2.474
N4080 X81.067 Y47.04 Z-23.45 I0. J2.7
N4090 X81.519 Y48.535 I-2.248 J1.495 F10000.
N4100 X79.711 Y51.083 I-2.7 J0.
N4110 G1 X60.753 Y57.719
N4120 G3 X59.861 Y57.871 I-.892 J-2.548
N4130 X57.171 Y55.405 I0. J-2.7
N4140 G1 X57.163 Y55.288 Z-23.451 F100.
N4150 X57.161 Y55.171 Z-23.453
N4160 G3 X59.163 Y52.563 Z-23.5 I2.7 J0.
N4170 G2 X59.886 Y52.367 I-33.763 J-126.233
N4180 X60.367 Y52.235 I-34.486 J-126.037
N4190 X60.848 Y52.1 I-34.967 J-125.905
N4200 X61.328 Y51.964 I-35.448 J-125.77
N4210 X61.807 Y51.826 I-35.928 J-125.634
N4220 X62.287 Y51.686 I-36.407 J-125.496
N4230 X62.765 Y51.544 I-36.887 J-125.356
N4240 X63.243 Y51.4 I-37.365 J-125.214
N4250 X63.721 Y51.255 I-37.843 J-125.07
N4260 X64.198 Y51.107 I-38.321 J-124.925
N4270 X64.674 Y50.958 I-38.798 J-124.777
N4280 X65.15 Y50.807 I-39.274 J-124.628
N4290 X65.625 Y50.654 I-39.75 J-124.477
N4300 X66.1 Y50.5 I-40.225 J-124.324
N4310 X66.574 Y50.344 I-40.7 J-124.17
N4320 X67.047 Y50.185 I-41.174 J-124.014
N4330 X67.52 Y50.025 I-41.647 J-123.855
N4340 X67.992 Y49.864 I-42.12 J-123.695
N4350 X68.464 Y49.7 I-42.592 J-123.534
N4360 X68.935 Y49.535 I-43.064 J-123.37
N4370 X69.405 Y49.367 I-43.535 J-123.205
N4380 X69.875 Y49.198 I-44.005 J-123.037
N4390 X70.344 Y49.028 I-44.475 J-122.868
N4400 X70.812 Y48.855 I-44.944 J-122.698
N4410 X71.28 Y48.681 I-45.412 J-122.525
N4420 X71.747 Y48.504 I-45.88 J-122.351
N4430 X72.213 Y48.326 I-46.347 J-122.174
N4440 X72.679 Y48.147 I-46.813 J-121.996
N4450 X73.144 Y47.965 I-47.279 J-121.817
N4460 G3 X74.131 Y47.778 Z-23.487 I.987 J2.514
N4470 G1 X74.249 Y47.781 Z-23.485
N4480 X75.901 Y47.854 Z-23.463
N4490 X76.538 Y47.881 Z-23.455
N4500 G3 X76.886 Y47.919 Z-23.45 I-.118 J2.706
N4510 X79.128 Y50.587 I-.466 J2.668 F10000.
N4520 X76.901 Y53.251 I-2.708 J0.
N4530 X4.815 Y59.704 I-72.086 J-399.421
N4540 X-2.631 Y59.636 I0. J-405.874
N4550 G1 X-84.868 Y58.127
N4560 G3 X-88.579 Y54.348 I.069 J-3.779
N4570 X-86.356 Y50.905 I3.78 J0.
N4580 X-86.229 Y50.854 I.65 J1.436
N4590 X-85.706 Y50.765 Z-23.457 I.523 J1.487 F100.
N4600 X-85.347 Y50.806 Z-23.462 I0. J1.576
N4610 G1 X-84.623 Y50.975 Z-23.472
N4620 X-83.646 Y51.203 Z-23.485
N4630 G3 X-82.632 Y51.679 Z-23.5 I-.614 J2.63
N4640 G2 X-82.009 Y52.093 I3.739 J-4.946
N4650 X-81.568 Y52.327 I3.116 J-5.36
N4660 X-81.109 Y52.524 I2.675 J-5.594
N4670 X-80.651 Y52.679 I2.216 J-5.791
N4680 X-80.172 Y52.819 I29.851 J-100.949
N4690 X-79.692 Y52.957 I29.372 J-101.089
N4700 X-79.212 Y53.093 I28.892 J-101.227
N4710 X-78.731 Y53.227 I28.412 J-101.363
N4720 X-78.25 Y53.358 I27.931 J-101.497
N4730 X-77.767 Y53.487 I27.45 J-101.628
N4740 X-77.285 Y53.614 I26.967 J-101.757
N4750 X-76.801 Y53.738 I26.485 J-101.884
N4760 X-76.317 Y53.86 I26.001 J-102.008
N4770 X-75.833 Y53.98 I25.517 J-102.13
N4780 X-75.347 Y54.098 I25.033 J-102.25
N4790 X-74.862 Y54.213 I24.547 J-102.368
N4800 X-74.376 Y54.326 I24.062 J-102.483
N4810 X-73.889 Y54.437 I23.576 J-102.596
N4820 X-73.402 Y54.545 I23.089 J-102.707
N4830 X-72.914 Y54.651 I22.602 J-102.815
N4840 X-72.425 Y54.755 I22.114 J-102.921
N4850 X-71.937 Y54.856 I21.625 J-103.025
N4860 X-71.447 Y54.955 I21.137 J-103.126
N4870 X-70.958 Y55.052 I20.647 J-103.225
N4880 X-70.468 Y55.146 I20.158 J-103.322
N4890 X-69.977 Y55.238 I19.668 J-103.416
N4900 X-69.486 Y55.328 I19.177 J-103.508
N4910 X-68.995 Y55.416 I18.686 J-103.598
N4920 X-68.503 Y55.501 I18.195 J-103.686
N4930 X-68.01 Y55.584 I17.703 J-103.771
N4940 X-67.518 Y55.664 I17.21 J-103.854
N4950 X-67.025 Y55.742 I16.718 J-103.934
N4960 X-66.531 Y55.818 I16.225 J-104.012
N4970 X-66.038 Y55.891 I15.731 J-104.088
N4980 X-65.544 Y55.962 I15.238 J-104.161
N4990 X-65.049 Y56.031 I14.744 J-104.232
N5000 X-64.554 Y56.097 I14.249 J-104.301
N5010 X-64.059 Y56.162 I13.754 J-104.367
N5020 X-63.564 Y56.223 I13.259 J-104.432
N5030 G3 X-62.505 Y56.587 Z-23.485 I-.327 J2.68
N5040 G1 X-61.098 Y57.428 Z-23.463
N5050 G2 X-60.209 Y57.89 Z-23.45 I4.262 J-7.12
N5060 X-56.837 Y58.606 I3.373 J-7.582 F10000.
N5070 G1 X39.859 Y58.616
N5080 X39.861
N5090 G2 X43.568 Y58.152 I0. J-15.03
N5100 G1 X81.716 Y48.444
N5110 G2 X87.259 Y41.603 I-1.816 J-7.137
N5120 G1 X87.526 Y34.947
N5130 G2 X88.381 Y-7.632 I-1059.38 J-42.579
N5140 X87.333 Y-54.772 I-1060.235 J0.
N5150 X83.925 Y-58.031 I-3.408 J.152
N5160 X83.086 Y-57.927 I0. J3.411
N5170 G1 X82.843 Y-57.856 Z-23.453 F100.
N5180 X81.529 Y-57.417 Z-23.472
N5190 X80.578 Y-57.099 Z-23.485
N5200 G3 X79.722 Y-56.96 Z-23.497 I-.856 J-2.561
N5210 G1 X79.593 Y-56.963 Z-23.498
N5220 X79.465 Y-56.972 Z-23.5
N5230 G2 X78.875 Y-57. I-.59 J6.172
N5240 G1 X78.717
N5250 X78.218
N5260 X77.719
N5270 X77.22
N5280 X76.72
N5290 X76.221
N5300 X75.722
N5310 X75.223
N5320 X74.724
N5330 X74.225
N5340 X73.725
N5350 X73.226
N5360 X72.727
N5370 X72.228
N5380 X71.729
N5390 X71.23
N5400 X70.73
N5410 X70.231
N5420 X69.732
N5430 X69.233
N5440 X68.734
N5450 X68.235
N5460 X67.735
N5470 X67.236
N5480 X66.737
N5490 X66.238
N5500 X65.739
N5510 X65.24
N5520 X64.74
N5530 X64.241
N5540 X63.742
N5550 X63.243
N5560 X62.744
N5570 X62.245
N5580 X61.745
N5590 X61.246
N5600 X60.747
N5610 X60.248
N5620 X59.749
N5630 X59.25
N5640 X58.75
N5650 X58.251
N5660 X57.752
N5670 X57.253
N5680 X56.754
N5690 X56.255
N5700 X55.755
N5710 X55.256
N5720 X54.757
N5730 X54.258
N5740 X53.759
N5750 X53.26
N5760 X52.76
N5770 X52.261
N5780 X51.762
N5790 X51.263
N5800 X50.764
N5810 X50.265
N5820 X49.765
N5830 X49.266
N5840 X48.767
N5850 X48.268
N5860 X47.769
N5870 X47.27
N5880 X46.77
N5890 X46.271
N5900 X45.772
N5910 X45.273
N5920 X44.774
N5930 X44.275
N5940 X43.776
N5950 X43.276
N5960 X42.777
N5970 X42.278
N5980 X41.779
N5990 X41.28
N6000 X40.781
N6010 X40.281
N6020 X39.782
N6030 X39.283
N6040 X38.784
N6050 X38.285
N6060 X37.786
N6070 X37.286
N6080 X36.787
N6090 X36.288
N6100 X35.789
N6110 X35.29
N6120 X34.791
N6130 X34.291
N6140 X33.792
N6150 X33.293
N6160 X32.794
N6170 X32.295
N6180 X31.796
N6190 X31.296
N6200 X30.797
N6210 X30.298
N6220 X29.799
N6230 X29.3
N6240 X28.801
N6250 X28.301
N6260 X27.802
N6270 X27.303
N6280 X26.804
N6290 X26.305
N6300 X25.806
N6310 X25.306
N6320 X24.807
N6330 X24.308
N6340 X23.809
N6350 X23.31
N6360 X22.811
N6370 X22.311
N6380 X21.812
N6390 X21.313
N6400 X20.814
N6410 X20.315
N6420 X19.816
N6430 X19.316
N6440 X18.817
N6450 X18.318
N6460 X17.819
N6470 X17.32
N6480 X16.821
N6490 X16.321
N6500 X15.822
N6510 X15.323
N6520 X14.824
N6530 X14.325
N6540 X13.826
N6550 X13.326
N6560 X12.827
N6570 X12.328
N6580 X11.829
N6590 X11.33
N6600 X10.831
N6610 X10.331
N6620 X9.832
N6630 X9.333
N6640 X8.834
N6650 X8.335
N6660 X7.836
N6670 X7.336
N6680 X6.837
N6690 X6.338
N6700 X5.839
N6710 X5.34
N6720 X4.841
N6730 X4.341
N6740 X3.842
N6750 X3.343
N6760 X2.844
N6770 X2.345
N6780 X1.846
N6790 X1.346
N6800 X.847
N6810 X.348
N6820 X-.151
N6830 X-.65
N6840 X-1.149
N6850 X-1.649
N6860 X-2.148
N6870 X-2.647
N6880 X-3.146
N6890 X-3.645
N6900 X-4.144
N6910 X-4.644
N6920 X-5.143
N6930 X-5.642
N6940 X-6.141
N6950 X-6.64
N6960 X-7.139
N6970 X-7.639
N6980 X-8.138
N6990 X-8.637
N7000 X-9.136
N7010 X-9.635
N7020 X-10.134
N7030 X-10.634
N7040 X-11.133
N7050 X-11.632
N7060 X-12.131
N7070 X-12.63
N7080 X-13.129
N7090 X-13.629
N7100 X-14.128
N7110 X-14.627
N7120 X-15.126
N7130 X-15.625
N7140 X-16.124
N7150 X-16.624
N7160 X-17.123
N7170 X-17.622
N7180 X-18.121
N7190 X-18.62
N7200 X-19.119
N7210 X-19.618
N7220 X-20.118
N7230 X-20.617
N7240 X-21.116
N7250 X-21.615
N7260 X-22.114
N7270 X-22.613
N7280 X-23.113
N7290 X-23.612
N7300 X-24.111
N7310 X-24.61
N7320 X-25.109
N7330 X-25.608
N7340 X-26.108
N7350 X-26.607
N7360 X-27.106
N7370 X-27.605
N7380 X-28.104
N7390 X-28.603
N7400 X-29.103
N7410 X-29.602
N7420 X-30.101
N7430 X-30.6
N7440 X-31.099
N7450 X-31.598
N7460 X-32.098
N7470 X-32.597
N7480 X-33.096
N7490 X-33.595
N7500 X-34.094
N7510 X-34.593
